(G-CODE GENERATED BY FLATCAM v8.991 - www.flatcam.org - Version Date: 2019/12/27)

(Name: borda)
(Type: G-code from Geometry)
(Units: MM)

(Created on Thursday, 28 January 2021 at 18:11)

(TOOL DIAMETER: 1.5 mm)
(Feedrate: 280.0 mm/min)
(Feedrate_Z: 200.0 mm/min)
(Feedrate rapids 1500.0 mm/min)

(Z_Cut: -1.8 mm)
(DepthPerCut: 0.6 mm <=>3 passes)
(Z_Move: 2.0 mm)
(Z Toolchange: 20.0 mm)
(X,Y Toolchange: 0.0000, 0.0000 mm)
(Z Start: None mm)
(Z End: 20.0 mm)
(Steps per circle: 64)
(Preprocessor Geometry: default)

(X range:   -1.2341 ...   61.0480  mm)
(Y range:   -0.8500 ...  121.2589  mm)

(Spindle Speed: 1000 RPM)
G21
G90
G94




G01 F280.00
G00 Z2.0000

M03 S1000
G00 X26.2570 Y-0.8500
G01 F200.00
G01 Z-0.6000
G01 F280.00
G01 X-0.3841 Y-0.8500
G01 X-0.4674 Y-0.8459
G01 X-0.5499 Y-0.8337
G01 X-0.6308 Y-0.8134
G01 X-0.7094 Y-0.7853
G01 X-0.7848 Y-0.7496
G01 X-0.8563 Y-0.7067
G01 X-0.9233 Y-0.6571
G01 X-0.9851 Y-0.6010
G01 X-1.0412 Y-0.5392
G01 X-1.0908 Y-0.4722
G01 X-1.1337 Y-0.4007
G01 X-1.1694 Y-0.3253
G01 X-1.1975 Y-0.2467
G01 X-1.2178 Y-0.1658
G01 X-1.2300 Y-0.0833
G01 X-1.2341 Y0.0000
G01 X-1.2341 Y56.5544
G00 X-1.2341 Y56.5544
G01 F200.00
G01 Z-1.2000
G01 F280.00
G01 X-1.2341 Y0.0000
G01 X-1.2300 Y-0.0833
G01 X-1.2178 Y-0.1658
G01 X-1.1975 Y-0.2467
G01 X-1.1694 Y-0.3253
G01 X-1.1337 Y-0.4007
G01 X-1.0908 Y-0.4722
G01 X-1.0412 Y-0.5392
G01 X-0.9851 Y-0.6010
G01 X-0.9233 Y-0.6571
G01 X-0.8563 Y-0.7067
G01 X-0.7848 Y-0.7496
G01 X-0.7094 Y-0.7853
G01 X-0.6308 Y-0.8134
G01 X-0.5499 Y-0.8337
G01 X-0.4674 Y-0.8459
G01 X-0.3841 Y-0.8500
G01 X26.2570 Y-0.8500
G00 X26.2570 Y-0.8500
G01 F200.00
G01 Z-1.8000
G01 F280.00
G01 X-0.3841 Y-0.8500
G01 X-0.4674 Y-0.8459
G01 X-0.5499 Y-0.8337
G01 X-0.6308 Y-0.8134
G01 X-0.7094 Y-0.7853
G01 X-0.7848 Y-0.7496
G01 X-0.8563 Y-0.7067
G01 X-0.9233 Y-0.6571
G01 X-0.9851 Y-0.6010
G01 X-1.0412 Y-0.5392
G01 X-1.0908 Y-0.4722
G01 X-1.1337 Y-0.4007
G01 X-1.1694 Y-0.3253
G01 X-1.1975 Y-0.2467
G01 X-1.2178 Y-0.1658
G01 X-1.2300 Y-0.0833
G01 X-1.2341 Y0.0000
G01 X-1.2341 Y56.5544
G00 Z2.0000
G00 X-1.2341 Y64.0544
G01 F200.00
G01 Z-0.6000
G01 F280.00
G01 X-1.2341 Y120.4089
G01 X-1.2300 Y120.4922
G01 X-1.2178 Y120.5747
G01 X-1.1975 Y120.6556
G01 X-1.1694 Y120.7342
G01 X-1.1337 Y120.8096
G01 X-1.0908 Y120.8811
G01 X-1.0412 Y120.9481
G01 X-0.9851 Y121.0099
G01 X-0.9233 Y121.0660
G01 X-0.8563 Y121.1156
G01 X-0.7848 Y121.1585
G01 X-0.7094 Y121.1942
G01 X-0.6308 Y121.2223
G01 X-0.5499 Y121.2426
G01 X-0.4674 Y121.2548
G01 X-0.3841 Y121.2589
G01 X26.2570 Y121.2589
G00 X26.2570 Y121.2589
G01 F200.00
G01 Z-1.2000
G01 F280.00
G01 X-0.3841 Y121.2589
G01 X-0.4674 Y121.2548
G01 X-0.5499 Y121.2426
G01 X-0.6308 Y121.2223
G01 X-0.7094 Y121.1942
G01 X-0.7848 Y121.1585
G01 X-0.8563 Y121.1156
G01 X-0.9233 Y121.0660
G01 X-0.9851 Y121.0099
G01 X-1.0412 Y120.9481
G01 X-1.0908 Y120.8811
G01 X-1.1337 Y120.8096
G01 X-1.1694 Y120.7342
G01 X-1.1975 Y120.6556
G01 X-1.2178 Y120.5747
G01 X-1.2300 Y120.4922
G01 X-1.2341 Y120.4089
G01 X-1.2341 Y64.0544
G00 X-1.2341 Y64.0544
G01 F200.00
G01 Z-1.8000
G01 F280.00
G01 X-1.2341 Y120.4089
G01 X-1.2300 Y120.4922
G01 X-1.2178 Y120.5747
G01 X-1.1975 Y120.6556
G01 X-1.1694 Y120.7342
G01 X-1.1337 Y120.8096
G01 X-1.0908 Y120.8811
G01 X-1.0412 Y120.9481
G01 X-0.9851 Y121.0099
G01 X-0.9233 Y121.0660
G01 X-0.8563 Y121.1156
G01 X-0.7848 Y121.1585
G01 X-0.7094 Y121.1942
G01 X-0.6308 Y121.2223
G01 X-0.5499 Y121.2426
G01 X-0.4674 Y121.2548
G01 X-0.3841 Y121.2589
G01 X26.2570 Y121.2589
G00 Z2.0000
G00 X33.7570 Y121.2589
G01 F200.00
G01 Z-0.6000
G01 F280.00
G01 X60.1980 Y121.2589
G01 X60.2813 Y121.2548
G01 X60.3638 Y121.2426
G01 X60.4447 Y121.2223
G01 X60.5233 Y121.1942
G01 X60.5987 Y121.1585
G01 X60.6702 Y121.1156
G01 X60.7372 Y121.0660
G01 X60.7990 Y121.0099
G01 X60.8551 Y120.9481
G01 X60.9047 Y120.8811
G01 X60.9476 Y120.8096
G01 X60.9833 Y120.7342
G01 X61.0114 Y120.6556
G01 X61.0317 Y120.5747
G01 X61.0439 Y120.4922
G01 X61.0480 Y120.4089
G01 X61.0480 Y64.0544
G00 X61.0480 Y64.0544
G01 F200.00
G01 Z-1.2000
G01 F280.00
G01 X61.0480 Y120.4089
G01 X61.0439 Y120.4922
G01 X61.0317 Y120.5747
G01 X61.0114 Y120.6556
G01 X60.9833 Y120.7342
G01 X60.9476 Y120.8096
G01 X60.9047 Y120.8811
G01 X60.8551 Y120.9481
G01 X60.7990 Y121.0099
G01 X60.7372 Y121.0660
G01 X60.6702 Y121.1156
G01 X60.5987 Y121.1585
G01 X60.5233 Y121.1942
G01 X60.4447 Y121.2223
G01 X60.3638 Y121.2426
G01 X60.2813 Y121.2548
G01 X60.1980 Y121.2589
G01 X33.7570 Y121.2589
G00 X33.7570 Y121.2589
G01 F200.00
G01 Z-1.8000
G01 F280.00
G01 X60.1980 Y121.2589
G01 X60.2813 Y121.2548
G01 X60.3638 Y121.2426
G01 X60.4447 Y121.2223
G01 X60.5233 Y121.1942
G01 X60.5987 Y121.1585
G01 X60.6702 Y121.1156
G01 X60.7372 Y121.0660
G01 X60.7990 Y121.0099
G01 X60.8551 Y120.9481
G01 X60.9047 Y120.8811
G01 X60.9476 Y120.8096
G01 X60.9833 Y120.7342
G01 X61.0114 Y120.6556
G01 X61.0317 Y120.5747
G01 X61.0439 Y120.4922
G01 X61.0480 Y120.4089
G01 X61.0480 Y64.0544
G00 Z2.0000
G00 X61.0480 Y56.5544
G01 F200.00
G01 Z-0.6000
G01 F280.00
G01 X61.0480 Y0.0000
G01 X61.0439 Y-0.0833
G01 X61.0317 Y-0.1658
G01 X61.0114 Y-0.2467
G01 X60.9833 Y-0.3253
G01 X60.9476 Y-0.4007
G01 X60.9047 Y-0.4722
G01 X60.8551 Y-0.5392
G01 X60.7990 Y-0.6010
G01 X60.7372 Y-0.6571
G01 X60.6702 Y-0.7067
G01 X60.5987 Y-0.7496
G01 X60.5233 Y-0.7853
G01 X60.4447 Y-0.8134
G01 X60.3638 Y-0.8337
G01 X60.2813 Y-0.8459
G01 X60.1980 Y-0.8500
G00 X60.1980 Y-0.8500
G01 F200.00
G01 Z-1.2000
G01 F280.00
G01 X60.2813 Y-0.8459
G01 X60.3638 Y-0.8337
G01 X60.4447 Y-0.8134
G01 X60.5233 Y-0.7853
G01 X60.5987 Y-0.7496
G01 X60.6702 Y-0.7067
G01 X60.7372 Y-0.6571
G01 X60.7990 Y-0.6010
G01 X60.8551 Y-0.5392
G01 X60.9047 Y-0.4722
G01 X60.9476 Y-0.4007
G01 X60.9833 Y-0.3253
G01 X61.0114 Y-0.2467
G01 X61.0317 Y-0.1658
G01 X61.0439 Y-0.0833
G01 X61.0480 Y0.0000
G01 X61.0480 Y56.5544
G00 X61.0480 Y56.5544
G01 F200.00
G01 Z-1.8000
G01 F280.00
G01 X61.0480 Y0.0000
G01 X61.0439 Y-0.0833
G01 X61.0317 Y-0.1658
G01 X61.0114 Y-0.2467
G01 X60.9833 Y-0.3253
G01 X60.9476 Y-0.4007
G01 X60.9047 Y-0.4722
G01 X60.8551 Y-0.5392
G01 X60.7990 Y-0.6010
G01 X60.7372 Y-0.6571
G01 X60.6702 Y-0.7067
G01 X60.5987 Y-0.7496
G01 X60.5233 Y-0.7853
G01 X60.4447 Y-0.8134
G01 X60.3638 Y-0.8337
G01 X60.2813 Y-0.8459
G01 X60.1980 Y-0.8500
G00 Z2.0000
G00 X60.1980 Y-0.8500
G01 F200.00
G01 Z-0.6000
G01 F280.00
G01 X33.7570 Y-0.8500
G00 X33.7570 Y-0.8500
G01 F200.00
G01 Z-1.2000
G01 F280.00
G01 X60.1980 Y-0.8500
G00 X60.1980 Y-0.8500
G01 F200.00
G01 Z-1.8000
G01 F280.00
G01 X33.7570 Y-0.8500
G00 Z2.0000
M05
G00 Z2.0000
G00 Z20.00
G00 X0.0 Y0.0

