(G-CODE GENERATED BY FLATCAM v8.991 - www.flatcam.org - Version Date: 2019/12/27)

(Name: furos1.1)
(Type: G-code from Excellon)
(Units: MM)

(Created on Thursday, 28 January 2021 at 18:07)

(Feedrate: 150.0 mm/min)
(Feedrate rapids 1500.0 mm/min)

(Z_Cut: -3.0 mm)
(Z_Move: 2.0 mm)
(Z Toolchange: 15.0 mm)
(X,Y Toolchange: 0.0000, 0.0000 mm)
(Z Start: 10.0 mm)
(Z End: 20.0 mm)
(Steps per circle: 64)
(Preprocessor Excellon: default)

(X range:    1.5210 ...   57.0990  mm)
(Y range:    2.0560 ...  117.9590  mm)

(Spindle Speed: 1000.0 RPM)
G21
G90
G94




G01 F150.00
G00 Z2.0000
G00 Z10.0000
M03 S1000.0
G00 X50.6460 Y53.2130
G01 Z-3.0000
G01 Z0
G00 Z2.0000
G00 X50.6462 Y55.7530
G01 Z-3.0000
G01 Z0
G00 Z2.0000
G00 X45.5660 Y77.5970
G01 Z-3.0000
G01 Z0
G00 Z2.0000
G00 X45.5660 Y87.7570
G01 Z-3.0000
G01 Z0
G00 Z2.0000
G00 X37.9460 Y87.7570
G01 Z-3.0000
G01 Z0
G00 Z2.0000
G00 X30.1990 Y87.7570
G01 Z-3.0000
G01 Z0
G00 Z2.0000
G00 X22.7060 Y87.7570
G01 Z-3.0000
G01 Z0
G00 Z2.0000
G00 X15.0860 Y87.7570
G01 Z-3.0000
G01 Z0
G00 Z2.0000
G00 X7.4660 Y87.7570
G01 Z-3.0000
G01 Z0
G00 Z2.0000
G00 X7.4660 Y77.5970
G01 Z-3.0000
G01 Z0
G00 Z2.0000
G00 X15.0860 Y77.5970
G01 Z-3.0000
G01 Z0
G00 Z2.0000
G00 X22.7060 Y77.5970
G01 Z-3.0000
G01 Z0
G00 Z2.0000
G00 X30.1990 Y77.5970
G01 Z-3.0000
G01 Z0
G00 Z2.0000
G00 X37.9460 Y77.5970
G01 Z-3.0000
G01 Z0
G00 Z2.0000
M03 S1000.0
G00 X42.8990 Y30.9880
G01 Z-3.0000
G01 Z0
G00 Z2.0000
G00 X42.8990 Y33.4880
G01 Z-3.0000
G01 Z0
G00 Z2.0000
G00 X42.8990 Y36.0280
G01 Z-3.0000
G01 Z0
G00 Z2.0000
G00 X42.8990 Y38.5680
G01 Z-3.0000
G01 Z0
G00 Z2.0000
G00 X42.8990 Y41.1080
G01 Z-3.0000
G01 Z0
G00 Z2.0000
G00 X42.8990 Y43.6480
G01 Z-3.0000
G01 Z0
G00 Z2.0000
G00 X42.8990 Y46.1880
G01 Z-3.0000
G01 Z0
G00 Z2.0000
G00 X42.8990 Y48.7280
G01 Z-3.0000
G01 Z0
G00 Z2.0000
G00 X42.8990 Y51.2680
G01 Z-3.0000
G01 Z0
G00 Z2.0000
G00 X42.8990 Y53.8080
G01 Z-3.0000
G01 Z0
G00 Z2.0000
G00 X42.8990 Y56.3480
G01 Z-3.0000
G01 Z0
G00 Z2.0000
G00 X42.8990 Y58.8880
G01 Z-3.0000
G01 Z0
G00 Z2.0000
G00 X42.8990 Y61.4280
G01 Z-3.0000
G01 Z0
G00 Z2.0000
G00 X42.8990 Y63.9680
G01 Z-3.0000
G01 Z0
G00 Z2.0000
G00 X42.8990 Y66.5080
G01 Z-3.0000
G01 Z0
G00 Z2.0000
G00 X51.6620 Y78.4860
G01 Z-3.0000
G01 Z0
G00 Z2.0000
G00 X51.6620 Y81.0260
G01 Z-3.0000
G01 Z0
G00 Z2.0000
G00 X51.6620 Y83.5660
G01 Z-3.0000
G01 Z0
G00 Z2.0000
G00 X16.7240 Y66.5080
G01 Z-3.0000
G01 Z0
G00 Z2.0000
G00 X16.7240 Y63.9680
G01 Z-3.0000
G01 Z0
G00 Z2.0000
G00 X16.7240 Y61.4280
G01 Z-3.0000
G01 Z0
G00 Z2.0000
G00 X16.7240 Y58.8880
G01 Z-3.0000
G01 Z0
G00 Z2.0000
G00 X16.7240 Y56.3480
G01 Z-3.0000
G01 Z0
G00 Z2.0000
G00 X16.7240 Y53.8080
G01 Z-3.0000
G01 Z0
G00 Z2.0000
G00 X16.7240 Y51.2680
G01 Z-3.0000
G01 Z0
G00 Z2.0000
G00 X16.7240 Y48.7280
G01 Z-3.0000
G01 Z0
G00 Z2.0000
G00 X16.7240 Y46.1880
G01 Z-3.0000
G01 Z0
G00 Z2.0000
G00 X16.7240 Y43.6480
G01 Z-3.0000
G01 Z0
G00 Z2.0000
G00 X16.7240 Y41.1080
G01 Z-3.0000
G01 Z0
G00 Z2.0000
G00 X16.7240 Y38.5680
G01 Z-3.0000
G01 Z0
G00 Z2.0000
G00 X16.7240 Y36.0280
G01 Z-3.0000
G01 Z0
G00 Z2.0000
G00 X16.7240 Y33.4880
G01 Z-3.0000
G01 Z0
G00 Z2.0000
G00 X16.7240 Y30.9880
G01 Z-3.0000
G01 Z0
G00 Z2.0000
M03 S1000.0
G00 X52.4240 Y13.3350
G01 Z-3.0000
G01 Z0
G00 Z2.0000
G00 X49.8840 Y13.3350
G01 Z-3.0000
G01 Z0
G00 Z2.0000
G00 X47.3440 Y13.3350
G01 Z-3.0000
G01 Z0
G00 Z2.0000
G00 X44.8040 Y13.3350
G01 Z-3.0000
G01 Z0
G00 Z2.0000
G00 X42.2640 Y13.3350
G01 Z-3.0000
G01 Z0
G00 Z2.0000
G00 X15.5940 Y13.3350
G01 Z-3.0000
G01 Z0
G00 Z2.0000
G00 X13.0540 Y13.3350
G01 Z-3.0000
G01 Z0
G00 Z2.0000
G00 X10.5140 Y13.3350
G01 Z-3.0000
G01 Z0
G00 Z2.0000
G00 X7.9740 Y13.3350
G01 Z-3.0000
G01 Z0
G00 Z2.0000
G00 X10.5140 Y23.7490
G01 Z-3.0000
G01 Z0
G00 Z2.0000
G00 X7.9740 Y23.7490
G01 Z-3.0000
G01 Z0
G00 Z2.0000
G00 X8.9900 Y106.1720
G01 Z-3.0000
G01 Z0
G00 Z2.0000
G00 X8.9900 Y108.7120
G01 Z-3.0000
G01 Z0
G00 Z2.0000
G00 X19.1500 Y109.2200
G01 Z-3.0000
G01 Z0
G00 Z2.0000
G00 X19.1500 Y106.6800
G01 Z-3.0000
G01 Z0
G00 Z2.0000
G00 X19.1500 Y104.1400
G01 Z-3.0000
G01 Z0
G00 Z2.0000
G00 X19.1500 Y101.6000
G01 Z-3.0000
G01 Z0
G00 Z2.0000
G00 X29.3100 Y103.6320
G01 Z-3.0000
G01 Z0
G00 Z2.0000
G00 X29.3100 Y106.1720
G01 Z-3.0000
G01 Z0
G00 Z2.0000
G00 X29.3100 Y108.7120
G01 Z-3.0000
G01 Z0
G00 Z2.0000
G00 X39.4700 Y103.6320
G01 Z-3.0000
G01 Z0
G00 Z2.0000
G00 X39.4700 Y106.1720
G01 Z-3.0000
G01 Z0
G00 Z2.0000
G00 X39.4700 Y108.7120
G01 Z-3.0000
G01 Z0
G00 Z2.0000
G00 X49.3760 Y108.7120
G01 Z-3.0000
G01 Z0
G00 Z2.0000
G00 X49.3760 Y106.1720
G01 Z-3.0000
G01 Z0
G00 Z2.0000
G00 X49.5030 Y23.7490
G01 Z-3.0000
G01 Z0
G00 Z2.0000
G00 X52.0430 Y23.7490
G01 Z-3.0000
G01 Z0
G00 Z2.0000
M05
G00 Z20.00
G00 X0.0 Y0.0

