(G-CODE GENERATED BY FLATCAM v8.991 - www.flatcam.org - Version Date: 2019/12/27)

(Name: furos3)
(Type: G-code from Excellon)
(Units: MM)

(Created on Thursday, 28 January 2021 at 18:07)

(Feedrate: 150.0 mm/min)
(Feedrate rapids 1500.0 mm/min)

(Z_Cut: -3.0 mm)
(Z_Move: 2.0 mm)
(Z Toolchange: 15.0 mm)
(X,Y Toolchange: 0.0000, 0.0000 mm)
(Z Start: 10.0 mm)
(Z End: 20.0 mm)
(Steps per circle: 64)
(Preprocessor Excellon: default)

(X range:    1.5210 ...   57.0990  mm)
(Y range:    2.0560 ...  117.9590  mm)

(Spindle Speed: 1000.0 RPM)
G21
G90
G94




G01 F150.00
G00 Z2.0000
G00 Z10.0000
M03 S1000.0
G00 X55.5990 Y3.5560
G01 Z-3.0000
G01 Z0
G00 Z2.0000
G00 X3.0210 Y3.5560
G01 Z-3.0000
G01 Z0
G00 Z2.0000
G00 X3.0210 Y116.4590
G01 Z-3.0000
G01 Z0
G00 Z2.0000
G00 X55.5990 Y116.4590
G01 Z-3.0000
G01 Z0
G00 Z2.0000
M05
G00 Z20.00
G00 X0.0 Y0.0

