(G-CODE GENERATED BY FLATCAM v8.991 - www.flatcam.org - Version Date: 2019/12/27)

(Name: trilhas)
(Type: G-code from Geometry)
(Units: MM)

(Created on Thursday, 28 January 2021 at 18:09)

(TOOL DIAMETER: 0.182 mm)
(Feedrate: 170.0 mm/min)
(Feedrate_Z: 200.0 mm/min)
(Feedrate rapids 1500.0 mm/min)

(Z_Cut: -0.071 mm)
(Z_Move: 2.0 mm)
(Z Toolchange: 20.0 mm)
(X,Y Toolchange: 0.0000, 0.0000 mm)
(Z Start: None mm)
(Z End: 20.0 mm)
(Steps per circle: 64)
(Preprocessor Geometry: default)

(X range:   -0.7845 ...   60.5984  mm)
(Y range:   -0.4004 ...  120.8093  mm)

(Spindle Speed: 1000 RPM)
G21
G90
G94




G01 F170.00
G00 Z2.0000

M03 S1000
G00 X4.6277 Y3.3956
G01 F200.00
G01 Z-0.0710
G01 F170.00
G01 X4.6286 Y3.4045
G01 X4.6358 Y3.5515
G01 X4.6358 Y3.5605
G01 X4.6286 Y3.7075
G01 X4.6277 Y3.7164
G01 X4.6061 Y3.8620
G01 X4.6044 Y3.8707
G01 X4.5686 Y4.0135
G01 X4.5660 Y4.0221
G01 X4.5164 Y4.1607
G01 X4.5130 Y4.1689
G01 X4.4500 Y4.3020
G01 X4.4458 Y4.3099
G01 X4.3702 Y4.4361
G01 X4.3652 Y4.4436
G01 X4.2775 Y4.5618
G01 X4.2718 Y4.5687
G01 X4.1730 Y4.6778
G01 X4.1667 Y4.6841
G01 X4.0576 Y4.7829
G01 X4.0507 Y4.7886
G01 X3.9325 Y4.8763
G01 X3.9250 Y4.8813
G01 X3.7988 Y4.9569
G01 X3.7909 Y4.9611
G01 X3.6578 Y5.0241
G01 X3.6496 Y5.0275
G01 X3.5110 Y5.0771
G01 X3.5024 Y5.0797
G01 X3.3596 Y5.1155
G01 X3.3509 Y5.1172
G01 X3.2053 Y5.1388
G01 X3.1964 Y5.1397
G01 X3.0494 Y5.1469
G01 X3.0404 Y5.1469
G01 X2.8934 Y5.1397
G01 X2.8845 Y5.1388
G01 X2.7389 Y5.1172
G01 X2.7302 Y5.1155
G01 X2.5874 Y5.0797
G01 X2.5788 Y5.0771
G01 X2.4402 Y5.0275
G01 X2.4320 Y5.0241
G01 X2.2989 Y4.9611
G01 X2.2910 Y4.9569
G01 X2.1648 Y4.8813
G01 X2.1573 Y4.8763
G01 X2.0391 Y4.7886
G01 X2.0322 Y4.7829
G01 X1.9231 Y4.6841
G01 X1.9168 Y4.6778
G01 X1.8180 Y4.5687
G01 X1.8123 Y4.5618
G01 X1.7246 Y4.4436
G01 X1.7196 Y4.4361
G01 X1.6440 Y4.3099
G01 X1.6398 Y4.3020
G01 X1.5768 Y4.1689
G01 X1.5734 Y4.1607
G01 X1.5238 Y4.0221
G01 X1.5212 Y4.0135
G01 X1.4854 Y3.8707
G01 X1.4837 Y3.8620
G01 X1.4621 Y3.7164
G01 X1.4612 Y3.7075
G01 X1.4540 Y3.5605
G01 X1.4540 Y3.5515
G01 X1.4612 Y3.4045
G01 X1.4621 Y3.3956
G01 X1.4837 Y3.2500
G01 X1.4854 Y3.2413
G01 X1.5212 Y3.0985
G01 X1.5238 Y3.0899
G01 X1.5734 Y2.9513
G01 X1.5768 Y2.9431
G01 X1.6398 Y2.8100
G01 X1.6440 Y2.8021
G01 X1.7196 Y2.6759
G01 X1.7246 Y2.6684
G01 X1.8123 Y2.5502
G01 X1.8180 Y2.5433
G01 X1.9168 Y2.4342
G01 X1.9231 Y2.4279
G01 X2.0322 Y2.3291
G01 X2.0391 Y2.3234
G01 X2.1573 Y2.2357
G01 X2.1648 Y2.2307
G01 X2.2910 Y2.1551
G01 X2.2989 Y2.1509
G01 X2.4320 Y2.0879
G01 X2.4402 Y2.0845
G01 X2.5788 Y2.0349
G01 X2.5874 Y2.0323
G01 X2.7302 Y1.9965
G01 X2.7389 Y1.9948
G01 X2.8845 Y1.9732
G01 X2.8934 Y1.9723
G01 X3.0404 Y1.9651
G01 X3.0494 Y1.9651
G01 X3.1964 Y1.9723
G01 X3.2053 Y1.9732
G01 X3.3509 Y1.9948
G01 X3.3596 Y1.9965
G01 X3.5024 Y2.0323
G01 X3.5110 Y2.0349
G01 X3.6496 Y2.0845
G01 X3.6578 Y2.0879
G01 X3.7909 Y2.1509
G01 X3.7988 Y2.1551
G01 X3.9250 Y2.2307
G01 X3.9325 Y2.2357
G01 X4.0507 Y2.3234
G01 X4.0576 Y2.3291
G01 X4.1667 Y2.4279
G01 X4.1730 Y2.4342
G01 X4.2718 Y2.5433
G01 X4.2775 Y2.5502
G01 X4.3652 Y2.6684
G01 X4.3702 Y2.6759
G01 X4.4458 Y2.8021
G01 X4.4500 Y2.8100
G01 X4.5130 Y2.9431
G01 X4.5164 Y2.9513
G01 X4.5660 Y3.0899
G01 X4.5686 Y3.0985
G01 X4.6044 Y3.2413
G01 X4.6061 Y3.2500
G01 X4.6277 Y3.3956
G00 Z2.0000
G00 X4.7807 Y3.3729
G01 F200.00
G01 Z-0.0710
G01 F170.00
G01 X4.7831 Y3.3969
G01 X4.7903 Y3.5439
G01 X4.7903 Y3.5681
G01 X4.7831 Y3.7151
G01 X4.7807 Y3.7391
G01 X4.7591 Y3.8847
G01 X4.7544 Y3.9083
G01 X4.7186 Y4.0511
G01 X4.7116 Y4.0742
G01 X4.6621 Y4.2128
G01 X4.6528 Y4.2351
G01 X4.5899 Y4.3681
G01 X4.5785 Y4.3894
G01 X4.5028 Y4.5157
G01 X4.4895 Y4.5357
G01 X4.4018 Y4.6540
G01 X4.3865 Y4.6726
G01 X4.2876 Y4.7817
G01 X4.2706 Y4.7987
G01 X4.1615 Y4.8976
G01 X4.1429 Y4.9129
G01 X4.0246 Y5.0006
G01 X4.0046 Y5.0139
G01 X3.8783 Y5.0896
G01 X3.8570 Y5.1010
G01 X3.7240 Y5.1639
G01 X3.7017 Y5.1732
G01 X3.5631 Y5.2227
G01 X3.5400 Y5.2297
G01 X3.3972 Y5.2655
G01 X3.3736 Y5.2702
G01 X3.2280 Y5.2918
G01 X3.2040 Y5.2942
G01 X3.0570 Y5.3014
G01 X3.0328 Y5.3014
G01 X2.8858 Y5.2942
G01 X2.8618 Y5.2918
G01 X2.7162 Y5.2702
G01 X2.6926 Y5.2655
G01 X2.5498 Y5.2297
G01 X2.5267 Y5.2227
G01 X2.3881 Y5.1732
G01 X2.3658 Y5.1639
G01 X2.2328 Y5.1010
G01 X2.2115 Y5.0896
G01 X2.0852 Y5.0139
G01 X2.0652 Y5.0006
G01 X1.9469 Y4.9129
G01 X1.9283 Y4.8976
G01 X1.8192 Y4.7987
G01 X1.8022 Y4.7817
G01 X1.7033 Y4.6726
G01 X1.6880 Y4.6540
G01 X1.6003 Y4.5357
G01 X1.5870 Y4.5157
G01 X1.5113 Y4.3894
G01 X1.4999 Y4.3681
G01 X1.4370 Y4.2351
G01 X1.4277 Y4.2128
G01 X1.3782 Y4.0742
G01 X1.3712 Y4.0511
G01 X1.3354 Y3.9083
G01 X1.3307 Y3.8847
G01 X1.3091 Y3.7391
G01 X1.3067 Y3.7151
G01 X1.2995 Y3.5681
G01 X1.2995 Y3.5439
G01 X1.3067 Y3.3969
G01 X1.3091 Y3.3729
G01 X1.3307 Y3.2273
G01 X1.3354 Y3.2037
G01 X1.3712 Y3.0609
G01 X1.3782 Y3.0378
G01 X1.4277 Y2.8992
G01 X1.4370 Y2.8769
G01 X1.4999 Y2.7439
G01 X1.5113 Y2.7226
G01 X1.5870 Y2.5963
G01 X1.6003 Y2.5763
G01 X1.6880 Y2.4580
G01 X1.7033 Y2.4394
G01 X1.8022 Y2.3303
G01 X1.8192 Y2.3133
G01 X1.9283 Y2.2144
G01 X1.9469 Y2.1991
G01 X2.0652 Y2.1114
G01 X2.0852 Y2.0981
G01 X2.2115 Y2.0224
G01 X2.2328 Y2.0110
G01 X2.3658 Y1.9481
G01 X2.3881 Y1.9388
G01 X2.5267 Y1.8893
G01 X2.5498 Y1.8823
G01 X2.6926 Y1.8465
G01 X2.7162 Y1.8418
G01 X2.8618 Y1.8202
G01 X2.8858 Y1.8178
G01 X3.0328 Y1.8106
G01 X3.0570 Y1.8106
G01 X3.2040 Y1.8178
G01 X3.2280 Y1.8202
G01 X3.3736 Y1.8418
G01 X3.3972 Y1.8465
G01 X3.5400 Y1.8823
G01 X3.5631 Y1.8893
G01 X3.7017 Y1.9388
G01 X3.7240 Y1.9481
G01 X3.8570 Y2.0110
G01 X3.8783 Y2.0224
G01 X4.0046 Y2.0981
G01 X4.0246 Y2.1114
G01 X4.1429 Y2.1991
G01 X4.1615 Y2.2144
G01 X4.2706 Y2.3133
G01 X4.2876 Y2.3303
G01 X4.3865 Y2.4394
G01 X4.4018 Y2.4580
G01 X4.4895 Y2.5763
G01 X4.5028 Y2.5963
G01 X4.5785 Y2.7226
G01 X4.5899 Y2.7439
G01 X4.6528 Y2.8769
G01 X4.6621 Y2.8992
G01 X4.7116 Y3.0378
G01 X4.7186 Y3.0609
G01 X4.7544 Y3.2037
G01 X4.7591 Y3.2273
G01 X4.7807 Y3.3729
G00 Z2.0000
G00 X3.0449 Y5.3188
G01 F200.00
G01 Z-0.0710
G01 F170.00
G01 X2.7010 Y5.2850
G01 X2.3703 Y5.1846
G01 X2.0655 Y5.0217
G01 X1.7984 Y4.8025
G01 X1.5792 Y4.5354
G01 X1.4163 Y4.2306
G01 X1.3159 Y3.8999
G01 X1.2821 Y3.5560
G01 X1.3159 Y3.2121
G01 X1.4163 Y2.8814
G01 X1.5792 Y2.5766
G01 X1.7984 Y2.3095
G01 X2.0655 Y2.0903
G01 X2.3703 Y1.9274
G01 X2.7010 Y1.8270
G01 X3.0449 Y1.7932
G01 X3.3888 Y1.8270
G01 X3.7195 Y1.9274
G01 X4.0243 Y2.0903
G01 X4.2914 Y2.3095
G01 X4.5106 Y2.5766
G01 X4.6735 Y2.8814
G01 X4.7739 Y3.2121
G01 X4.8077 Y3.5560
G01 X4.7739 Y3.8999
G01 X4.6735 Y4.2306
G01 X4.5106 Y4.5354
G01 X4.2914 Y4.8025
G01 X4.0243 Y5.0217
G01 X3.7195 Y5.1846
G01 X3.3888 Y5.2850
G01 X3.0449 Y5.3188
G00 Z2.0000
G00 X3.0449 Y5.4743
G01 F200.00
G01 Z-0.0710
G01 F170.00
G01 X2.6706 Y5.4374
G01 X2.3108 Y5.3282
G01 X1.9792 Y5.1510
G01 X1.6885 Y4.9124
G01 X1.4499 Y4.6217
G01 X1.2727 Y4.2901
G01 X1.1635 Y3.9303
G01 X1.1266 Y3.5560
G01 X1.1635 Y3.1817
G01 X1.2727 Y2.8219
G01 X1.4499 Y2.4903
G01 X1.6885 Y2.1996
G01 X1.9792 Y1.9610
G01 X2.3108 Y1.7838
G01 X2.6706 Y1.6746
G01 X3.0449 Y1.6377
G01 X3.4192 Y1.6746
G01 X3.7790 Y1.7838
G01 X4.1106 Y1.9610
G01 X4.4013 Y2.1996
G01 X4.6399 Y2.4903
G01 X4.8171 Y2.8219
G01 X4.9263 Y3.1817
G01 X4.9632 Y3.5560
G01 X4.9263 Y3.9303
G01 X4.8171 Y4.2901
G01 X4.6399 Y4.6217
G01 X4.4013 Y4.9124
G01 X4.1106 Y5.1510
G01 X3.7790 Y5.3282
G01 X3.4192 Y5.4374
G01 X3.0449 Y5.4743
G00 Z2.0000
G00 X11.8216 Y12.6530
G01 F200.00
G01 Z-0.0710
G01 F170.00
G01 X11.8079 Y12.7077
G01 X11.7942 Y12.6530
G01 X11.8216 Y12.6530
G00 Z2.0000
G00 X13.0191 Y14.8281
G01 F200.00
G01 Z-0.0710
G01 F170.00
G01 X12.9776 Y14.8261
G01 X12.9536 Y14.8237
G01 X12.8663 Y14.8107
G01 X12.8426 Y14.8060
G01 X12.7569 Y14.7846
G01 X12.7339 Y14.7776
G01 X12.6507 Y14.7478
G01 X12.6284 Y14.7386
G01 X12.5486 Y14.7008
G01 X12.5273 Y14.6895
G01 X12.4516 Y14.6441
G01 X12.4315 Y14.6307
G01 X12.3606 Y14.5781
G01 X12.3419 Y14.5628
G01 X12.2765 Y14.5034
G01 X12.2595 Y14.4864
G01 X12.2001 Y14.4210
G01 X12.1848 Y14.4023
G01 X12.1322 Y14.3314
G01 X12.1188 Y14.3113
G01 X12.0734 Y14.2356
G01 X12.0621 Y14.2143
G01 X12.0243 Y14.1345
G01 X12.0151 Y14.1122
G01 X11.9853 Y14.0290
G01 X11.9783 Y14.0060
G01 X11.9569 Y13.9203
G01 X11.9522 Y13.8966
G01 X11.9392 Y13.8093
G01 X11.9368 Y13.7853
G01 X11.9325 Y13.6971
G01 X11.9322 Y13.6850
G01 X11.9322 Y12.9850
G01 X11.9325 Y12.9729
G01 X11.9368 Y12.8847
G01 X11.9392 Y12.8607
G01 X11.9522 Y12.7734
G01 X11.9569 Y12.7497
G01 X11.9783 Y12.6640
G01 X11.9853 Y12.6410
G01 X12.0151 Y12.5578
G01 X12.0243 Y12.5355
G01 X12.0621 Y12.4557
G01 X12.0734 Y12.4344
G01 X12.1188 Y12.3587
G01 X12.1322 Y12.3386
G01 X12.1848 Y12.2677
G01 X12.2001 Y12.2490
G01 X12.2595 Y12.1836
G01 X12.2765 Y12.1666
G01 X12.3419 Y12.1072
G01 X12.3606 Y12.0919
G01 X12.4315 Y12.0393
G01 X12.4516 Y12.0259
G01 X12.5273 Y11.9805
G01 X12.5486 Y11.9692
G01 X12.6284 Y11.9314
G01 X12.6507 Y11.9222
G01 X12.7339 Y11.8924
G01 X12.7569 Y11.8854
G01 X12.8426 Y11.8640
G01 X12.8663 Y11.8593
G01 X12.9536 Y11.8463
G01 X12.9776 Y11.8439
G01 X13.0658 Y11.8396
G01 X13.0900 Y11.8396
G01 X13.1782 Y11.8439
G01 X13.2022 Y11.8463
G01 X13.2895 Y11.8593
G01 X13.3132 Y11.8640
G01 X13.3989 Y11.8854
G01 X13.4219 Y11.8924
G01 X13.5051 Y11.9222
G01 X13.5274 Y11.9314
G01 X13.6072 Y11.9692
G01 X13.6285 Y11.9805
G01 X13.7042 Y12.0259
G01 X13.7243 Y12.0393
G01 X13.7952 Y12.0919
G01 X13.8139 Y12.1072
G01 X13.8793 Y12.1666
G01 X13.8963 Y12.1836
G01 X13.9557 Y12.2490
G01 X13.9710 Y12.2677
G01 X14.0236 Y12.3386
G01 X14.0370 Y12.3587
G01 X14.0824 Y12.4344
G01 X14.0937 Y12.4557
G01 X14.1315 Y12.5355
G01 X14.1407 Y12.5578
G01 X14.1705 Y12.6410
G01 X14.1775 Y12.6640
G01 X14.1989 Y12.7497
G01 X14.2036 Y12.7734
G01 X14.2166 Y12.8607
G01 X14.2190 Y12.8847
G01 X14.2233 Y12.9729
G01 X14.2236 Y12.9850
G01 X14.2236 Y13.6850
G01 X14.2233 Y13.6971
G01 X14.2190 Y13.7853
G01 X14.2166 Y13.8093
G01 X14.2026 Y13.9018
G01 X14.7484 Y14.4475
G01 X14.7897 Y14.4926
G01 X14.8049 Y14.5113
G01 X14.8342 Y14.5507
G01 X14.8476 Y14.5708
G01 X14.8728 Y14.6129
G01 X14.8842 Y14.6341
G01 X14.9052 Y14.6785
G01 X14.9144 Y14.7008
G01 X14.9309 Y14.7470
G01 X14.9379 Y14.7701
G01 X14.9499 Y14.8177
G01 X14.9546 Y14.8414
G01 X14.9618 Y14.8899
G01 X14.9641 Y14.9139
G01 X14.9666 Y14.9629
G01 X14.9669 Y14.9750
G01 X14.9669 Y61.2790
G01 X16.5311 Y62.8433
G01 X16.6236 Y62.8293
G01 X16.6476 Y62.8269
G01 X16.7358 Y62.8226
G01 X16.7600 Y62.8226
G01 X16.8482 Y62.8269
G01 X16.8722 Y62.8293
G01 X16.9595 Y62.8423
G01 X16.9832 Y62.8470
G01 X17.0689 Y62.8684
G01 X17.0919 Y62.8754
G01 X17.1751 Y62.9052
G01 X17.1974 Y62.9144
G01 X17.2772 Y62.9522
G01 X17.2985 Y62.9635
G01 X17.3742 Y63.0089
G01 X17.3943 Y63.0223
G01 X17.4652 Y63.0749
G01 X17.4839 Y63.0902
G01 X17.5493 Y63.1496
G01 X17.5663 Y63.1666
G01 X17.6257 Y63.2320
G01 X17.6410 Y63.2507
G01 X17.6936 Y63.3216
G01 X17.7070 Y63.3417
G01 X17.7270 Y63.3751
G01 X18.0621 Y63.3751
G01 X18.0742 Y63.3754
G01 X18.1232 Y63.3779
G01 X18.1472 Y63.3802
G01 X18.1957 Y63.3874
G01 X18.2194 Y63.3921
G01 X18.2670 Y63.4041
G01 X18.2901 Y63.4111
G01 X18.3363 Y63.4276
G01 X18.3586 Y63.4368
G01 X18.4030 Y63.4578
G01 X18.4242 Y63.4692
G01 X18.4663 Y63.4944
G01 X18.4864 Y63.5078
G01 X18.5258 Y63.5371
G01 X18.5445 Y63.5523
G01 X18.5896 Y63.5936
G01 X19.1754 Y64.1794
G01 X19.2167 Y64.2245
G01 X19.2319 Y64.2432
G01 X19.2612 Y64.2826
G01 X19.2746 Y64.3027
G01 X19.2998 Y64.3448
G01 X19.3112 Y64.3660
G01 X19.3322 Y64.4104
G01 X19.3414 Y64.4327
G01 X19.3579 Y64.4789
G01 X19.3649 Y64.5020
G01 X19.3769 Y64.5496
G01 X19.3816 Y64.5733
G01 X19.3888 Y64.6218
G01 X19.3911 Y64.6458
G01 X19.3936 Y64.6948
G01 X19.3939 Y64.7069
G01 X19.3939 Y74.0590
G01 X19.3911 Y74.1201
G01 X19.3888 Y74.1441
G01 X19.3816 Y74.1926
G01 X19.3769 Y74.2163
G01 X19.3649 Y74.2639
G01 X19.3579 Y74.2870
G01 X19.3414 Y74.3332
G01 X19.3322 Y74.3555
G01 X19.3112 Y74.3999
G01 X19.2998 Y74.4211
G01 X19.2746 Y74.4632
G01 X19.2612 Y74.4833
G01 X19.2319 Y74.5227
G01 X19.2167 Y74.5414
G01 X19.1754 Y74.5865
G01 X16.2516 Y77.5102
G01 X16.2553 Y77.5849
G01 X16.2553 Y77.6091
G01 X16.2510 Y77.6973
G01 X16.2486 Y77.7213
G01 X16.2356 Y77.8086
G01 X16.2309 Y77.8323
G01 X16.2095 Y77.9180
G01 X16.2025 Y77.9410
G01 X16.1727 Y78.0242
G01 X16.1635 Y78.0465
G01 X16.1257 Y78.1263
G01 X16.1144 Y78.1476
G01 X16.0690 Y78.2233
G01 X16.0556 Y78.2434
G01 X16.0030 Y78.3143
G01 X15.9877 Y78.3330
G01 X15.9283 Y78.3984
G01 X15.9113 Y78.4154
G01 X15.8459 Y78.4748
G01 X15.8272 Y78.4901
G01 X15.7563 Y78.5427
G01 X15.7362 Y78.5561
G01 X15.6605 Y78.6015
G01 X15.6392 Y78.6128
G01 X15.5594 Y78.6506
G01 X15.5371 Y78.6598
G01 X15.4539 Y78.6896
G01 X15.4309 Y78.6966
G01 X15.3452 Y78.7180
G01 X15.3215 Y78.7227
G01 X15.2342 Y78.7357
G01 X15.2102 Y78.7381
G01 X15.1220 Y78.7424
G01 X15.0978 Y78.7424
G01 X15.0096 Y78.7381
G01 X14.9856 Y78.7357
G01 X14.8983 Y78.7227
G01 X14.8746 Y78.7180
G01 X14.7889 Y78.6966
G01 X14.7659 Y78.6896
G01 X14.6827 Y78.6598
G01 X14.6604 Y78.6506
G01 X14.5806 Y78.6128
G01 X14.5593 Y78.6015
G01 X14.4836 Y78.5561
G01 X14.4635 Y78.5427
G01 X14.3926 Y78.4901
G01 X14.3739 Y78.4748
G01 X14.3085 Y78.4154
G01 X14.2915 Y78.3984
G01 X14.2321 Y78.3330
G01 X14.2168 Y78.3143
G01 X14.1642 Y78.2434
G01 X14.1508 Y78.2233
G01 X14.1054 Y78.1476
G01 X14.0941 Y78.1263
G01 X14.0563 Y78.0465
G01 X14.0471 Y78.0242
G01 X14.0173 Y77.9410
G01 X14.0103 Y77.9180
G01 X13.9889 Y77.8323
G01 X13.9842 Y77.8086
G01 X13.9712 Y77.7213
G01 X13.9688 Y77.6973
G01 X13.9645 Y77.6091
G01 X13.9645 Y77.5849
G01 X13.9688 Y77.4967
G01 X13.9712 Y77.4727
G01 X13.9842 Y77.3854
G01 X13.9889 Y77.3617
G01 X14.0103 Y77.2760
G01 X14.0173 Y77.2530
G01 X14.0471 Y77.1698
G01 X14.0563 Y77.1475
G01 X14.0941 Y77.0677
G01 X14.1054 Y77.0464
G01 X14.1508 Y76.9707
G01 X14.1642 Y76.9506
G01 X14.2168 Y76.8797
G01 X14.2321 Y76.8610
G01 X14.2915 Y76.7956
G01 X14.3085 Y76.7786
G01 X14.3739 Y76.7192
G01 X14.3926 Y76.7039
G01 X14.4635 Y76.6513
G01 X14.4836 Y76.6379
G01 X14.5593 Y76.5925
G01 X14.5806 Y76.5812
G01 X14.6604 Y76.5434
G01 X14.6827 Y76.5342
G01 X14.7659 Y76.5044
G01 X14.7889 Y76.4974
G01 X14.8746 Y76.4760
G01 X14.8983 Y76.4713
G01 X14.9856 Y76.4583
G01 X15.0096 Y76.4559
G01 X15.0978 Y76.4516
G01 X15.1220 Y76.4516
G01 X15.1967 Y76.4553
G01 X17.9019 Y73.7500
G01 X17.9019 Y65.0159
G01 X17.7531 Y64.8671
G01 X17.4571 Y64.8671
G01 X17.3943 Y64.9137
G01 X17.3742 Y64.9271
G01 X17.2985 Y64.9725
G01 X17.2772 Y64.9838
G01 X17.1974 Y65.0216
G01 X17.1751 Y65.0308
G01 X17.0919 Y65.0606
G01 X17.0689 Y65.0676
G01 X16.9832 Y65.0890
G01 X16.9595 Y65.0937
G01 X16.8722 Y65.1067
G01 X16.8482 Y65.1091
G01 X16.7600 Y65.1134
G01 X16.7358 Y65.1134
G01 X16.6476 Y65.1091
G01 X16.6236 Y65.1067
G01 X16.5363 Y65.0937
G01 X16.5126 Y65.0890
G01 X16.4269 Y65.0676
G01 X16.4039 Y65.0606
G01 X16.3207 Y65.0308
G01 X16.2984 Y65.0216
G01 X16.2186 Y64.9838
G01 X16.1973 Y64.9725
G01 X16.1216 Y64.9271
G01 X16.1015 Y64.9137
G01 X16.0306 Y64.8611
G01 X16.0119 Y64.8458
G01 X15.9465 Y64.7864
G01 X15.9295 Y64.7694
G01 X15.8701 Y64.7040
G01 X15.8548 Y64.6853
G01 X15.8022 Y64.6144
G01 X15.7888 Y64.5943
G01 X15.7434 Y64.5186
G01 X15.7321 Y64.4973
G01 X15.6943 Y64.4175
G01 X15.6851 Y64.3952
G01 X15.6553 Y64.3120
G01 X15.6483 Y64.2890
G01 X15.6269 Y64.2033
G01 X15.6222 Y64.1796
G01 X15.6092 Y64.0923
G01 X15.6068 Y64.0683
G01 X15.6048 Y64.0268
G01 X13.6934 Y62.1155
G01 X13.6521 Y62.0704
G01 X13.6369 Y62.0517
G01 X13.6076 Y62.0123
G01 X13.5942 Y61.9922
G01 X13.5690 Y61.9501
G01 X13.5576 Y61.9289
G01 X13.5366 Y61.8845
G01 X13.5274 Y61.8622
G01 X13.5109 Y61.8160
G01 X13.5039 Y61.7929
G01 X13.4919 Y61.7453
G01 X13.4872 Y61.7216
G01 X13.4800 Y61.6731
G01 X13.4777 Y61.6491
G01 X13.4749 Y61.5880
G01 X13.4749 Y15.2840
G01 X13.0191 Y14.8281
G00 Z2.0000
G00 X14.0320 Y13.9500
G01 F200.00
G01 Z-0.0710
G01 F170.00
G01 X14.6390 Y14.5569
G01 X14.6750 Y14.5965
G01 X14.6807 Y14.6034
G01 X14.7099 Y14.6429
G01 X14.7149 Y14.6503
G01 X14.7401 Y14.6924
G01 X14.7443 Y14.7003
G01 X14.7653 Y14.7447
G01 X14.7688 Y14.7529
G01 X14.7853 Y14.7991
G01 X14.7879 Y14.8077
G01 X14.7998 Y14.8553
G01 X14.8016 Y14.8641
G01 X14.8088 Y14.9126
G01 X14.8096 Y14.9215
G01 X14.8122 Y14.9750
G01 X14.8122 Y61.3431
G01 X16.4829 Y63.0139
G01 X16.5502 Y62.9970
G01 X16.5590 Y62.9953
G01 X16.6463 Y62.9823
G01 X16.6552 Y62.9814
G01 X16.7434 Y62.9771
G01 X16.7524 Y62.9771
G01 X16.8406 Y62.9814
G01 X16.8495 Y62.9823
G01 X16.9368 Y62.9953
G01 X16.9456 Y62.9970
G01 X17.0313 Y63.0185
G01 X17.0398 Y63.0211
G01 X17.1230 Y63.0508
G01 X17.1312 Y63.0542
G01 X17.2111 Y63.0920
G01 X17.2189 Y63.0962
G01 X17.2947 Y63.1416
G01 X17.3021 Y63.1466
G01 X17.3731 Y63.1992
G01 X17.3800 Y63.2049
G01 X17.4454 Y63.2642
G01 X17.4517 Y63.2705
G01 X17.5110 Y63.3359
G01 X17.5167 Y63.3428
G01 X17.5693 Y63.4138
G01 X17.5743 Y63.4212
G01 X17.6197 Y63.4970
G01 X17.6239 Y63.5048
G01 X17.6357 Y63.5298
G01 X18.0621 Y63.5298
G01 X18.1156 Y63.5324
G01 X18.1245 Y63.5332
G01 X18.1730 Y63.5404
G01 X18.1818 Y63.5422
G01 X18.2294 Y63.5541
G01 X18.2380 Y63.5567
G01 X18.2842 Y63.5732
G01 X18.2924 Y63.5767
G01 X18.3368 Y63.5977
G01 X18.3447 Y63.6019
G01 X18.3868 Y63.6271
G01 X18.3942 Y63.6321
G01 X18.4337 Y63.6613
G01 X18.4406 Y63.6670
G01 X18.4802 Y63.7030
G01 X19.0660 Y64.2888
G01 X19.1020 Y64.3284
G01 X19.1077 Y64.3353
G01 X19.1369 Y64.3748
G01 X19.1419 Y64.3822
G01 X19.1671 Y64.4243
G01 X19.1713 Y64.4322
G01 X19.1923 Y64.4766
G01 X19.1958 Y64.4848
G01 X19.2123 Y64.5310
G01 X19.2149 Y64.5396
G01 X19.2268 Y64.5872
G01 X19.2286 Y64.5960
G01 X19.2358 Y64.6445
G01 X19.2366 Y64.6534
G01 X19.2392 Y64.7069
G01 X19.2392 Y74.0590
G01 X19.2366 Y74.1125
G01 X19.2358 Y74.1214
G01 X19.2286 Y74.1699
G01 X19.2268 Y74.1787
G01 X19.2149 Y74.2263
G01 X19.2123 Y74.2349
G01 X19.1958 Y74.2811
G01 X19.1923 Y74.2893
G01 X19.1713 Y74.3337
G01 X19.1671 Y74.3416
G01 X19.1419 Y74.3837
G01 X19.1369 Y74.3911
G01 X19.1077 Y74.4306
G01 X19.1020 Y74.4375
G01 X19.0660 Y74.4771
G01 X16.0894 Y77.4537
G01 X16.0956 Y77.4954
G01 X16.0965 Y77.5043
G01 X16.1008 Y77.5925
G01 X16.1008 Y77.6015
G01 X16.0965 Y77.6897
G01 X16.0956 Y77.6986
G01 X16.0826 Y77.7859
G01 X16.0809 Y77.7947
G01 X16.0594 Y77.8804
G01 X16.0568 Y77.8889
G01 X16.0271 Y77.9721
G01 X16.0237 Y77.9803
G01 X15.9859 Y78.0602
G01 X15.9817 Y78.0680
G01 X15.9363 Y78.1438
G01 X15.9313 Y78.1512
G01 X15.8787 Y78.2222
G01 X15.8730 Y78.2291
G01 X15.8137 Y78.2945
G01 X15.8074 Y78.3008
G01 X15.7420 Y78.3601
G01 X15.7351 Y78.3658
G01 X15.6641 Y78.4184
G01 X15.6567 Y78.4234
G01 X15.5809 Y78.4688
G01 X15.5731 Y78.4730
G01 X15.4932 Y78.5108
G01 X15.4850 Y78.5142
G01 X15.4018 Y78.5439
G01 X15.3933 Y78.5465
G01 X15.3076 Y78.5680
G01 X15.2988 Y78.5697
G01 X15.2115 Y78.5827
G01 X15.2026 Y78.5836
G01 X15.1144 Y78.5879
G01 X15.1054 Y78.5879
G01 X15.0172 Y78.5836
G01 X15.0083 Y78.5827
G01 X14.9210 Y78.5697
G01 X14.9122 Y78.5680
G01 X14.8265 Y78.5465
G01 X14.8180 Y78.5439
G01 X14.7348 Y78.5142
G01 X14.7266 Y78.5108
G01 X14.6467 Y78.4730
G01 X14.6389 Y78.4688
G01 X14.5631 Y78.4234
G01 X14.5557 Y78.4184
G01 X14.4847 Y78.3658
G01 X14.4778 Y78.3601
G01 X14.4124 Y78.3008
G01 X14.4061 Y78.2945
G01 X14.3468 Y78.2291
G01 X14.3411 Y78.2222
G01 X14.2885 Y78.1512
G01 X14.2835 Y78.1438
G01 X14.2381 Y78.0680
G01 X14.2339 Y78.0602
G01 X14.1961 Y77.9803
G01 X14.1927 Y77.9721
G01 X14.1630 Y77.8889
G01 X14.1604 Y77.8804
G01 X14.1389 Y77.7947
G01 X14.1372 Y77.7859
G01 X14.1242 Y77.6986
G01 X14.1233 Y77.6897
G01 X14.1190 Y77.6015
G01 X14.1190 Y77.5925
G01 X14.1233 Y77.5043
G01 X14.1242 Y77.4954
G01 X14.1372 Y77.4081
G01 X14.1389 Y77.3993
G01 X14.1604 Y77.3136
G01 X14.1630 Y77.3051
G01 X14.1927 Y77.2219
G01 X14.1961 Y77.2137
G01 X14.2339 Y77.1338
G01 X14.2381 Y77.1260
G01 X14.2835 Y77.0502
G01 X14.2885 Y77.0428
G01 X14.3411 Y76.9718
G01 X14.3468 Y76.9649
G01 X14.4061 Y76.8995
G01 X14.4124 Y76.8932
G01 X14.4778 Y76.8339
G01 X14.4847 Y76.8282
G01 X14.5557 Y76.7756
G01 X14.5631 Y76.7706
G01 X14.6389 Y76.7252
G01 X14.6467 Y76.7210
G01 X14.7266 Y76.6832
G01 X14.7348 Y76.6798
G01 X14.8180 Y76.6501
G01 X14.8265 Y76.6475
G01 X14.9122 Y76.6260
G01 X14.9210 Y76.6243
G01 X15.0083 Y76.6113
G01 X15.0172 Y76.6104
G01 X15.1054 Y76.6061
G01 X15.1144 Y76.6061
G01 X15.2026 Y76.6104
G01 X15.2115 Y76.6113
G01 X15.2532 Y76.6175
G01 X18.0566 Y73.8141
G01 X18.0566 Y64.9518
G01 X17.8172 Y64.7124
G01 X17.4007 Y64.7124
G01 X17.3800 Y64.7311
G01 X17.3731 Y64.7368
G01 X17.3021 Y64.7894
G01 X17.2947 Y64.7944
G01 X17.2189 Y64.8398
G01 X17.2111 Y64.8440
G01 X17.1312 Y64.8818
G01 X17.1230 Y64.8852
G01 X17.0398 Y64.9149
G01 X17.0313 Y64.9175
G01 X16.9456 Y64.9390
G01 X16.9368 Y64.9407
G01 X16.8495 Y64.9537
G01 X16.8406 Y64.9546
G01 X16.7524 Y64.9589
G01 X16.7434 Y64.9589
G01 X16.6552 Y64.9546
G01 X16.6463 Y64.9537
G01 X16.5590 Y64.9407
G01 X16.5502 Y64.9390
G01 X16.4645 Y64.9175
G01 X16.4560 Y64.9149
G01 X16.3728 Y64.8852
G01 X16.3646 Y64.8818
G01 X16.2847 Y64.8440
G01 X16.2769 Y64.8398
G01 X16.2011 Y64.7944
G01 X16.1937 Y64.7894
G01 X16.1227 Y64.7368
G01 X16.1158 Y64.7311
G01 X16.0504 Y64.6718
G01 X16.0441 Y64.6655
G01 X15.9848 Y64.6001
G01 X15.9791 Y64.5932
G01 X15.9265 Y64.5222
G01 X15.9215 Y64.5148
G01 X15.8761 Y64.4390
G01 X15.8719 Y64.4312
G01 X15.8341 Y64.3513
G01 X15.8307 Y64.3431
G01 X15.8010 Y64.2599
G01 X15.7984 Y64.2514
G01 X15.7769 Y64.1657
G01 X15.7752 Y64.1569
G01 X15.7622 Y64.0696
G01 X15.7613 Y64.0607
G01 X15.7570 Y63.9725
G01 X15.7572 Y63.9604
G01 X13.7997 Y62.0028
G01 X13.7668 Y61.9665
G01 X13.7611 Y61.9596
G01 X13.7319 Y61.9201
G01 X13.7269 Y61.9127
G01 X13.7017 Y61.8706
G01 X13.6975 Y61.8627
G01 X13.6765 Y61.8183
G01 X13.6730 Y61.8101
G01 X13.6565 Y61.7639
G01 X13.6539 Y61.7553
G01 X13.6420 Y61.7077
G01 X13.6402 Y61.6989
G01 X13.6330 Y61.6504
G01 X13.6322 Y61.6415
G01 X13.6296 Y61.5880
G01 X13.6296 Y15.2199
G01 X13.0855 Y14.6757
G01 X13.0734 Y14.6759
G01 X12.9852 Y14.6716
G01 X12.9763 Y14.6707
G01 X12.8890 Y14.6577
G01 X12.8802 Y14.6560
G01 X12.7945 Y14.6345
G01 X12.7860 Y14.6319
G01 X12.7028 Y14.6022
G01 X12.6946 Y14.5988
G01 X12.6147 Y14.5610
G01 X12.6069 Y14.5568
G01 X12.5311 Y14.5114
G01 X12.5237 Y14.5064
G01 X12.4527 Y14.4538
G01 X12.4458 Y14.4481
G01 X12.3804 Y14.3888
G01 X12.3741 Y14.3825
G01 X12.3148 Y14.3171
G01 X12.3091 Y14.3102
G01 X12.2565 Y14.2392
G01 X12.2515 Y14.2318
G01 X12.2061 Y14.1560
G01 X12.2019 Y14.1482
G01 X12.1641 Y14.0683
G01 X12.1607 Y14.0601
G01 X12.1310 Y13.9769
G01 X12.1284 Y13.9684
G01 X12.1069 Y13.8827
G01 X12.1052 Y13.8739
G01 X12.0922 Y13.7866
G01 X12.0913 Y13.7777
G01 X12.0869 Y13.6850
G01 X12.0869 Y12.9850
G01 X12.0913 Y12.8923
G01 X12.0922 Y12.8834
G01 X12.1052 Y12.7961
G01 X12.1069 Y12.7873
G01 X12.1284 Y12.7016
G01 X12.1310 Y12.6931
G01 X12.1607 Y12.6099
G01 X12.1641 Y12.6017
G01 X12.2019 Y12.5218
G01 X12.2061 Y12.5140
G01 X12.2515 Y12.4382
G01 X12.2565 Y12.4308
G01 X12.3091 Y12.3598
G01 X12.3148 Y12.3529
G01 X12.3741 Y12.2875
G01 X12.3804 Y12.2812
G01 X12.4458 Y12.2219
G01 X12.4527 Y12.2162
G01 X12.5237 Y12.1636
G01 X12.5311 Y12.1586
G01 X12.6069 Y12.1132
G01 X12.6147 Y12.1090
G01 X12.6946 Y12.0712
G01 X12.7028 Y12.0678
G01 X12.7860 Y12.0381
G01 X12.7945 Y12.0355
G01 X12.8802 Y12.0140
G01 X12.8890 Y12.0123
G01 X12.9763 Y11.9993
G01 X12.9852 Y11.9984
G01 X13.0734 Y11.9941
G01 X13.0824 Y11.9941
G01 X13.1706 Y11.9984
G01 X13.1795 Y11.9993
G01 X13.2668 Y12.0123
G01 X13.2756 Y12.0140
G01 X13.3613 Y12.0355
G01 X13.3698 Y12.0381
G01 X13.4530 Y12.0678
G01 X13.4612 Y12.0712
G01 X13.5411 Y12.1090
G01 X13.5489 Y12.1132
G01 X13.6247 Y12.1586
G01 X13.6321 Y12.1636
G01 X13.7031 Y12.2162
G01 X13.7100 Y12.2219
G01 X13.7754 Y12.2812
G01 X13.7817 Y12.2875
G01 X13.8410 Y12.3529
G01 X13.8467 Y12.3598
G01 X13.8993 Y12.4308
G01 X13.9043 Y12.4382
G01 X13.9497 Y12.5140
G01 X13.9539 Y12.5218
G01 X13.9917 Y12.6017
G01 X13.9951 Y12.6099
G01 X14.0248 Y12.6931
G01 X14.0274 Y12.7016
G01 X14.0489 Y12.7873
G01 X14.0506 Y12.7961
G01 X14.0636 Y12.8834
G01 X14.0645 Y12.8923
G01 X14.0689 Y12.9850
G01 X14.0689 Y13.6850
G01 X14.0645 Y13.7777
G01 X14.0636 Y13.7866
G01 X14.0506 Y13.8739
G01 X14.0489 Y13.8827
G01 X14.0320 Y13.9500
G00 Z2.0000
G00 X14.5615 Y14.1276
G01 F200.00
G01 Z-0.0710
G01 F170.00
G01 X14.5248 Y14.0664
G01 X14.5134 Y14.0452
G01 X14.4714 Y13.9564
G01 X14.4622 Y13.9341
G01 X14.4291 Y13.8417
G01 X14.4221 Y13.8186
G01 X14.3983 Y13.7234
G01 X14.3936 Y13.6997
G01 X14.3792 Y13.6026
G01 X14.3768 Y13.5786
G01 X14.3720 Y13.4806
G01 X14.3717 Y13.4685
G01 X14.3717 Y13.3350
G01 X14.3720 Y13.3229
G01 X14.3768 Y13.2249
G01 X14.3792 Y13.2009
G01 X14.3936 Y13.1038
G01 X14.3983 Y13.0801
G01 X14.4221 Y12.9849
G01 X14.4291 Y12.9618
G01 X14.4622 Y12.8694
G01 X14.4714 Y12.8471
G01 X14.4857 Y12.8170
G01 X14.4922 Y12.7734
G01 X14.4969 Y12.7497
G01 X14.5183 Y12.6640
G01 X14.5253 Y12.6410
G01 X14.5551 Y12.5578
G01 X14.5643 Y12.5355
G01 X14.6021 Y12.4557
G01 X14.6134 Y12.4344
G01 X14.6588 Y12.3587
G01 X14.6722 Y12.3386
G01 X14.7248 Y12.2677
G01 X14.7401 Y12.2490
G01 X14.7995 Y12.1836
G01 X14.8165 Y12.1666
G01 X14.8819 Y12.1072
G01 X14.9006 Y12.0919
G01 X14.9715 Y12.0393
G01 X14.9916 Y12.0259
G01 X15.0673 Y11.9805
G01 X15.0886 Y11.9692
G01 X15.1684 Y11.9314
G01 X15.1907 Y11.9222
G01 X15.2739 Y11.8924
G01 X15.2969 Y11.8854
G01 X15.3826 Y11.8640
G01 X15.4063 Y11.8593
G01 X15.4936 Y11.8463
G01 X15.5176 Y11.8439
G01 X15.6058 Y11.8396
G01 X15.6300 Y11.8396
G01 X15.7182 Y11.8439
G01 X15.7422 Y11.8463
G01 X15.8295 Y11.8593
G01 X15.8532 Y11.8640
G01 X15.9389 Y11.8854
G01 X15.9619 Y11.8924
G01 X16.0451 Y11.9222
G01 X16.0674 Y11.9314
G01 X16.1472 Y11.9692
G01 X16.1685 Y11.9805
G01 X16.2442 Y12.0259
G01 X16.2643 Y12.0393
G01 X16.3352 Y12.0919
G01 X16.3539 Y12.1072
G01 X16.4193 Y12.1666
G01 X16.4363 Y12.1836
G01 X16.4957 Y12.2490
G01 X16.5110 Y12.2677
G01 X16.5636 Y12.3386
G01 X16.5770 Y12.3587
G01 X16.6224 Y12.4344
G01 X16.6337 Y12.4557
G01 X16.6715 Y12.5355
G01 X16.6807 Y12.5578
G01 X16.7105 Y12.6410
G01 X16.7175 Y12.6640
G01 X16.7389 Y12.7497
G01 X16.7436 Y12.7734
G01 X16.7501 Y12.8170
G01 X16.7644 Y12.8471
G01 X16.7682 Y12.8564
G01 X16.8465 Y12.9347
G01 X16.8558 Y12.9385
G01 X16.9446 Y12.9805
G01 X16.9658 Y12.9919
G01 X17.0501 Y13.0424
G01 X17.0701 Y13.0558
G01 X17.1490 Y13.1143
G01 X17.1676 Y13.1296
G01 X17.2404 Y13.1955
G01 X17.2491 Y13.2038
G01 X23.2301 Y19.1848
G01 X23.2384 Y19.1935
G01 X23.3043 Y19.2663
G01 X23.3196 Y19.2849
G01 X23.3781 Y19.3638
G01 X23.3915 Y19.3838
G01 X23.4420 Y19.4681
G01 X23.4534 Y19.4893
G01 X23.4954 Y19.5781
G01 X23.5046 Y19.6004
G01 X23.5377 Y19.6928
G01 X23.5447 Y19.7159
G01 X23.5685 Y19.8111
G01 X23.5732 Y19.8348
G01 X23.5876 Y19.9319
G01 X23.5900 Y19.9559
G01 X23.5948 Y20.0539
G01 X23.5951 Y20.0660
G01 X23.5951 Y32.7285
G01 X23.6224 Y32.7861
G01 X23.6316 Y32.8084
G01 X23.6647 Y32.9008
G01 X23.6717 Y32.9239
G01 X23.6955 Y33.0191
G01 X23.7002 Y33.0428
G01 X23.7146 Y33.1399
G01 X23.7170 Y33.1639
G01 X23.7218 Y33.2619
G01 X23.7218 Y33.2861
G01 X23.7170 Y33.3841
G01 X23.7146 Y33.4081
G01 X23.7002 Y33.5052
G01 X23.6955 Y33.5289
G01 X23.6717 Y33.6241
G01 X23.6647 Y33.6472
G01 X23.6316 Y33.7396
G01 X23.6224 Y33.7619
G01 X23.5804 Y33.8507
G01 X23.5690 Y33.8719
G01 X23.5185 Y33.9562
G01 X23.5051 Y33.9762
G01 X23.4466 Y34.0551
G01 X23.4313 Y34.0737
G01 X23.3654 Y34.1465
G01 X23.3484 Y34.1635
G01 X23.2756 Y34.2294
G01 X23.2570 Y34.2447
G01 X23.1781 Y34.3032
G01 X23.1581 Y34.3166
G01 X23.0738 Y34.3671
G01 X23.0526 Y34.3785
G01 X22.9638 Y34.4205
G01 X22.9415 Y34.4297
G01 X22.8491 Y34.4628
G01 X22.8260 Y34.4698
G01 X22.7308 Y34.4936
G01 X22.7071 Y34.4983
G01 X22.6100 Y34.5127
G01 X22.5860 Y34.5151
G01 X22.4880 Y34.5199
G01 X22.4638 Y34.5199
G01 X22.3658 Y34.5151
G01 X22.3418 Y34.5127
G01 X22.2447 Y34.4983
G01 X22.2210 Y34.4936
G01 X22.1258 Y34.4698
G01 X22.1027 Y34.4628
G01 X22.0103 Y34.4297
G01 X21.9880 Y34.4205
G01 X21.8992 Y34.3785
G01 X21.8780 Y34.3671
G01 X21.7937 Y34.3166
G01 X21.7737 Y34.3032
G01 X21.6948 Y34.2447
G01 X21.6762 Y34.2294
G01 X21.6034 Y34.1635
G01 X21.5947 Y34.1552
G01 X21.4677 Y34.0282
G01 X21.4594 Y34.0195
G01 X21.3935 Y33.9467
G01 X21.3782 Y33.9281
G01 X21.3197 Y33.8492
G01 X21.3063 Y33.8292
G01 X21.2558 Y33.7449
G01 X21.2444 Y33.7237
G01 X21.2024 Y33.6349
G01 X21.1932 Y33.6126
G01 X21.1601 Y33.5202
G01 X21.1531 Y33.4971
G01 X21.1293 Y33.4019
G01 X21.1246 Y33.3782
G01 X21.1102 Y33.2811
G01 X21.1078 Y33.2571
G01 X21.1030 Y33.1591
G01 X21.1027 Y33.1470
G01 X21.1027 Y28.3956
G01 X17.6291 Y31.8692
G01 X17.6204 Y31.8775
G01 X17.5476 Y31.9434
G01 X17.5290 Y31.9587
G01 X17.4501 Y32.0172
G01 X17.4301 Y32.0306
G01 X17.3458 Y32.0811
G01 X17.3246 Y32.0925
G01 X17.2358 Y32.1345
G01 X17.2135 Y32.1437
G01 X17.1211 Y32.1768
G01 X17.0980 Y32.1838
G01 X17.0028 Y32.2076
G01 X16.9791 Y32.2123
G01 X16.8820 Y32.2267
G01 X16.8580 Y32.2291
G01 X16.7600 Y32.2339
G01 X16.7358 Y32.2339
G01 X16.6378 Y32.2291
G01 X16.6138 Y32.2267
G01 X16.5167 Y32.2123
G01 X16.4930 Y32.2076
G01 X16.3978 Y32.1838
G01 X16.3747 Y32.1768
G01 X16.2823 Y32.1437
G01 X16.2600 Y32.1345
G01 X16.1712 Y32.0925
G01 X16.1500 Y32.0811
G01 X16.0657 Y32.0306
G01 X16.0457 Y32.0172
G01 X15.9668 Y31.9587
G01 X15.9482 Y31.9434
G01 X15.8754 Y31.8775
G01 X15.8584 Y31.8605
G01 X15.7925 Y31.7877
G01 X15.7772 Y31.7691
G01 X15.7187 Y31.6902
G01 X15.7053 Y31.6702
G01 X15.6548 Y31.5859
G01 X15.6434 Y31.5647
G01 X15.6014 Y31.4759
G01 X15.5922 Y31.4536
G01 X15.5591 Y31.3612
G01 X15.5521 Y31.3381
G01 X15.5283 Y31.2429
G01 X15.5236 Y31.2192
G01 X15.5092 Y31.1221
G01 X15.5068 Y31.0981
G01 X15.5020 Y31.0001
G01 X15.5020 Y30.9759
G01 X15.5068 Y30.8779
G01 X15.5092 Y30.8539
G01 X15.5236 Y30.7568
G01 X15.5283 Y30.7331
G01 X15.5521 Y30.6379
G01 X15.5591 Y30.6148
G01 X15.5922 Y30.5224
G01 X15.6014 Y30.5001
G01 X15.6434 Y30.4113
G01 X15.6548 Y30.3901
G01 X15.7053 Y30.3058
G01 X15.7187 Y30.2858
G01 X15.7772 Y30.2069
G01 X15.7925 Y30.1883
G01 X15.8584 Y30.1155
G01 X15.8667 Y30.1068
G01 X21.1027 Y24.8708
G01 X21.1027 Y20.5822
G01 X15.7558 Y15.2353
G01 X15.7465 Y15.2315
G01 X15.6577 Y15.1895
G01 X15.6365 Y15.1781
G01 X15.5522 Y15.1276
G01 X15.5322 Y15.1142
G01 X15.4533 Y15.0557
G01 X15.4347 Y15.0404
G01 X15.3619 Y14.9745
G01 X15.3532 Y14.9662
G01 X15.0870 Y14.7000
G01 X15.0673 Y14.6895
G01 X14.9916 Y14.6441
G01 X14.9715 Y14.6307
G01 X14.9006 Y14.5781
G01 X14.8819 Y14.5628
G01 X14.8165 Y14.5034
G01 X14.7995 Y14.4864
G01 X14.7401 Y14.4210
G01 X14.7248 Y14.4023
G01 X14.6722 Y14.3314
G01 X14.6588 Y14.3113
G01 X14.6134 Y14.2356
G01 X14.6021 Y14.2143
G01 X14.5643 Y14.1345
G01 X14.5615 Y14.1276
G00 Z2.0000
G00 X15.1243 Y14.9561
G01 F200.00
G01 Z-0.0710
G01 F170.00
G01 X15.1211 Y14.9576
G01 X15.1209 Y14.9527
G01 X15.1243 Y14.9561
G00 Z2.0000
G00 X14.3616 Y12.6530
G01 F200.00
G01 Z-0.0710
G01 F170.00
G01 X14.3479 Y12.7077
G01 X14.3342 Y12.6530
G01 X14.3616 Y12.6530
G00 Z2.0000
G00 X13.3202 Y16.7486
G01 F200.00
G01 Z-0.0710
G01 F170.00
G01 X11.5917 Y15.0200
G01 X11.5917 Y14.4453
G01 X11.6078 Y14.4235
G01 X11.6297 Y14.3909
G01 X11.6751 Y14.3151
G01 X11.6936 Y14.2805
G01 X11.7313 Y14.2006
G01 X11.7464 Y14.1643
G01 X11.7761 Y14.0811
G01 X11.7875 Y14.0435
G01 X11.8079 Y13.9623
G01 X11.8283 Y14.0435
G01 X11.8397 Y14.0811
G01 X11.8694 Y14.1643
G01 X11.8845 Y14.2006
G01 X11.9222 Y14.2805
G01 X11.9407 Y14.3151
G01 X11.9861 Y14.3909
G01 X12.0080 Y14.4235
G01 X12.0606 Y14.4945
G01 X12.0855 Y14.5248
G01 X12.1448 Y14.5903
G01 X12.1726 Y14.6181
G01 X12.2381 Y14.6774
G01 X12.2684 Y14.7023
G01 X12.3394 Y14.7549
G01 X12.3720 Y14.7768
G01 X12.4478 Y14.8222
G01 X12.4824 Y14.8407
G01 X12.5623 Y14.8784
G01 X12.5986 Y14.8935
G01 X12.6818 Y14.9232
G01 X12.7194 Y14.9346
G01 X12.8050 Y14.9561
G01 X12.8436 Y14.9638
G01 X12.9309 Y14.9767
G01 X12.9509 Y14.9787
G01 X13.3202 Y15.3481
G01 X13.3202 Y16.7486
G00 Z2.0000
G00 X11.8202 Y19.0857
G01 F200.00
G01 Z-0.0710
G01 F170.00
G01 X11.8202 Y23.1504
G01 X11.7959 Y23.0989
G01 X11.7774 Y23.0642
G01 X11.7261 Y22.9787
G01 X11.7043 Y22.9460
G01 X11.6887 Y22.9250
G01 X11.6887 Y19.4310
G01 X11.6882 Y19.4114
G01 X11.6846 Y19.3378
G01 X11.6807 Y19.2987
G01 X11.6699 Y19.2259
G01 X11.6623 Y19.1873
G01 X11.6498 Y19.1374
G01 X11.6772 Y19.1323
G01 X11.7140 Y19.1218
G01 X11.8202 Y19.0857
G00 Z2.0000
G00 X9.5418 Y22.9761
G01 F200.00
G01 Z-0.0710
G01 F170.00
G01 X9.5418 Y19.8436
G01 X8.7283 Y19.0301
G01 X3.4259 Y19.0301
G01 X3.4138 Y19.0298
G01 X3.3403 Y19.0262
G01 X3.3163 Y19.0238
G01 X3.2435 Y19.0130
G01 X3.2198 Y19.0083
G01 X3.1484 Y18.9904
G01 X3.1253 Y18.9834
G01 X3.0560 Y18.9586
G01 X3.0337 Y18.9494
G01 X2.9671 Y18.9179
G01 X2.9459 Y18.9065
G01 X2.8827 Y18.8687
G01 X2.8627 Y18.8553
G01 X2.8035 Y18.8114
G01 X2.7849 Y18.7961
G01 X2.7303 Y18.7466
G01 X2.7133 Y18.7296
G01 X2.6638 Y18.6750
G01 X2.6485 Y18.6564
G01 X2.6046 Y18.5972
G01 X2.5912 Y18.5772
G01 X2.5534 Y18.5140
G01 X2.5420 Y18.4928
G01 X2.5105 Y18.4262
G01 X2.5013 Y18.4039
G01 X2.4765 Y18.3346
G01 X2.4695 Y18.3115
G01 X2.4516 Y18.2401
G01 X2.4469 Y18.2164
G01 X2.4361 Y18.1436
G01 X2.4337 Y18.1196
G01 X2.4301 Y18.0461
G01 X2.4301 Y18.0219
G01 X2.4337 Y17.9484
G01 X2.4361 Y17.9244
G01 X2.4469 Y17.8516
G01 X2.4516 Y17.8279
G01 X2.4695 Y17.7565
G01 X2.4765 Y17.7334
G01 X2.5013 Y17.6641
G01 X2.5105 Y17.6418
G01 X2.5420 Y17.5752
G01 X2.5534 Y17.5540
G01 X2.5912 Y17.4908
G01 X2.6046 Y17.4708
G01 X2.6485 Y17.4116
G01 X2.6638 Y17.3930
G01 X2.7133 Y17.3384
G01 X2.7303 Y17.3214
G01 X2.7849 Y17.2719
G01 X2.8035 Y17.2566
G01 X2.8627 Y17.2127
G01 X2.8827 Y17.1993
G01 X2.9459 Y17.1615
G01 X2.9671 Y17.1501
G01 X3.0337 Y17.1186
G01 X3.0560 Y17.1094
G01 X3.1253 Y17.0846
G01 X3.1484 Y17.0776
G01 X3.2198 Y17.0597
G01 X3.2435 Y17.0550
G01 X3.3163 Y17.0442
G01 X3.3403 Y17.0418
G01 X3.4138 Y17.0382
G01 X3.4259 Y17.0379
G01 X9.1409 Y17.0379
G01 X9.1530 Y17.0382
G01 X9.2265 Y17.0418
G01 X9.2505 Y17.0442
G01 X9.3233 Y17.0550
G01 X9.3470 Y17.0597
G01 X9.4184 Y17.0776
G01 X9.4415 Y17.0846
G01 X9.5108 Y17.1094
G01 X9.5331 Y17.1186
G01 X9.5997 Y17.1501
G01 X9.6209 Y17.1615
G01 X9.6841 Y17.1993
G01 X9.7041 Y17.2127
G01 X9.7633 Y17.2566
G01 X9.7819 Y17.2719
G01 X9.8365 Y17.3214
G01 X9.8452 Y17.3297
G01 X11.2422 Y18.7267
G01 X11.2505 Y18.7354
G01 X11.3000 Y18.7900
G01 X11.3153 Y18.8086
G01 X11.3592 Y18.8678
G01 X11.3726 Y18.8878
G01 X11.4104 Y18.9510
G01 X11.4218 Y18.9722
G01 X11.4533 Y19.0388
G01 X11.4625 Y19.0611
G01 X11.4873 Y19.1304
G01 X11.4943 Y19.1535
G01 X11.5122 Y19.2249
G01 X11.5169 Y19.2486
G01 X11.5277 Y19.3214
G01 X11.5301 Y19.3454
G01 X11.5337 Y19.4189
G01 X11.5340 Y19.4310
G01 X11.5340 Y22.9761
G01 X11.5800 Y23.0382
G01 X11.5934 Y23.0582
G01 X11.6447 Y23.1437
G01 X11.6560 Y23.1650
G01 X11.6987 Y23.2551
G01 X11.7079 Y23.2774
G01 X11.7415 Y23.3713
G01 X11.7485 Y23.3944
G01 X11.7727 Y23.4911
G01 X11.7774 Y23.5147
G01 X11.7920 Y23.6134
G01 X11.7944 Y23.6374
G01 X11.7993 Y23.7369
G01 X11.7993 Y23.7611
G01 X11.7944 Y23.8606
G01 X11.7920 Y23.8846
G01 X11.7774 Y23.9833
G01 X11.7727 Y24.0069
G01 X11.7485 Y24.1036
G01 X11.7415 Y24.1267
G01 X11.7079 Y24.2206
G01 X11.6987 Y24.2429
G01 X11.6560 Y24.3330
G01 X11.6447 Y24.3543
G01 X11.5934 Y24.4398
G01 X11.5800 Y24.4598
G01 X11.5206 Y24.5399
G01 X11.5053 Y24.5585
G01 X11.4384 Y24.6324
G01 X11.4213 Y24.6495
G01 X11.3474 Y24.7164
G01 X11.3288 Y24.7317
G01 X11.2487 Y24.7911
G01 X11.2287 Y24.8045
G01 X11.1432 Y24.8558
G01 X11.1219 Y24.8671
G01 X11.0318 Y24.9098
G01 X11.0095 Y24.9190
G01 X10.9156 Y24.9526
G01 X10.8925 Y24.9596
G01 X10.7958 Y24.9838
G01 X10.7722 Y24.9885
G01 X10.6735 Y25.0031
G01 X10.6495 Y25.0055
G01 X10.5500 Y25.0104
G01 X10.5258 Y25.0104
G01 X10.4263 Y25.0055
G01 X10.4023 Y25.0031
G01 X10.3036 Y24.9885
G01 X10.2800 Y24.9838
G01 X10.1833 Y24.9596
G01 X10.1602 Y24.9526
G01 X10.0663 Y24.9190
G01 X10.0440 Y24.9098
G01 X9.9539 Y24.8671
G01 X9.9326 Y24.8558
G01 X9.8471 Y24.8045
G01 X9.8271 Y24.7911
G01 X9.7470 Y24.7317
G01 X9.7284 Y24.7164
G01 X9.6545 Y24.6495
G01 X9.6374 Y24.6324
G01 X9.5705 Y24.5585
G01 X9.5552 Y24.5399
G01 X9.4958 Y24.4598
G01 X9.4824 Y24.4398
G01 X9.4311 Y24.3543
G01 X9.4198 Y24.3330
G01 X9.3771 Y24.2429
G01 X9.3679 Y24.2206
G01 X9.3343 Y24.1267
G01 X9.3273 Y24.1036
G01 X9.3031 Y24.0069
G01 X9.2984 Y23.9833
G01 X9.2838 Y23.8846
G01 X9.2814 Y23.8606
G01 X9.2765 Y23.7611
G01 X9.2765 Y23.7369
G01 X9.2814 Y23.6374
G01 X9.2838 Y23.6134
G01 X9.2984 Y23.5147
G01 X9.3031 Y23.4911
G01 X9.3273 Y23.3944
G01 X9.3343 Y23.3713
G01 X9.3679 Y23.2774
G01 X9.3771 Y23.2551
G01 X9.4198 Y23.1650
G01 X9.4311 Y23.1437
G01 X9.4824 Y23.0582
G01 X9.4958 Y23.0382
G01 X9.5418 Y22.9761
G00 Z2.0000
G00 X11.6390 Y23.6361
G01 F200.00
G01 Z-0.0710
G01 F170.00
G01 X11.6399 Y23.6449
G01 X11.6448 Y23.7445
G01 X11.6448 Y23.7535
G01 X11.6399 Y23.8531
G01 X11.6390 Y23.8619
G01 X11.6244 Y23.9606
G01 X11.6227 Y23.9693
G01 X11.5984 Y24.0660
G01 X11.5958 Y24.0746
G01 X11.5622 Y24.1685
G01 X11.5588 Y24.1767
G01 X11.5162 Y24.2668
G01 X11.5120 Y24.2747
G01 X11.4607 Y24.3602
G01 X11.4558 Y24.3677
G01 X11.3964 Y24.4478
G01 X11.3907 Y24.4547
G01 X11.3237 Y24.5285
G01 X11.3174 Y24.5348
G01 X11.2436 Y24.6018
G01 X11.2367 Y24.6075
G01 X11.1566 Y24.6669
G01 X11.1491 Y24.6718
G01 X11.0636 Y24.7231
G01 X11.0557 Y24.7273
G01 X10.9656 Y24.7699
G01 X10.9574 Y24.7733
G01 X10.8635 Y24.8069
G01 X10.8549 Y24.8095
G01 X10.7582 Y24.8338
G01 X10.7495 Y24.8355
G01 X10.6508 Y24.8501
G01 X10.6420 Y24.8510
G01 X10.5424 Y24.8559
G01 X10.5334 Y24.8559
G01 X10.4338 Y24.8510
G01 X10.4250 Y24.8501
G01 X10.3263 Y24.8355
G01 X10.3176 Y24.8338
G01 X10.2209 Y24.8095
G01 X10.2123 Y24.8069
G01 X10.1184 Y24.7733
G01 X10.1102 Y24.7699
G01 X10.0201 Y24.7273
G01 X10.0122 Y24.7231
G01 X9.9267 Y24.6718
G01 X9.9192 Y24.6669
G01 X9.8391 Y24.6075
G01 X9.8322 Y24.6018
G01 X9.7584 Y24.5348
G01 X9.7521 Y24.5285
G01 X9.6851 Y24.4547
G01 X9.6794 Y24.4478
G01 X9.6200 Y24.3677
G01 X9.6151 Y24.3602
G01 X9.5638 Y24.2747
G01 X9.5596 Y24.2668
G01 X9.5170 Y24.1767
G01 X9.5136 Y24.1685
G01 X9.4800 Y24.0746
G01 X9.4774 Y24.0660
G01 X9.4531 Y23.9693
G01 X9.4514 Y23.9606
G01 X9.4368 Y23.8619
G01 X9.4359 Y23.8531
G01 X9.4310 Y23.7535
G01 X9.4310 Y23.7445
G01 X9.4359 Y23.6449
G01 X9.4368 Y23.6361
G01 X9.4514 Y23.5374
G01 X9.4531 Y23.5287
G01 X9.4774 Y23.4320
G01 X9.4800 Y23.4234
G01 X9.5136 Y23.3295
G01 X9.5170 Y23.3213
G01 X9.5596 Y23.2312
G01 X9.5638 Y23.2233
G01 X9.6151 Y23.1378
G01 X9.6200 Y23.1303
G01 X9.6794 Y23.0502
G01 X9.6851 Y23.0433
G01 X9.6965 Y23.0307
G01 X9.6965 Y19.7795
G01 X8.7924 Y18.8754
G01 X3.4259 Y18.8754
G01 X3.3479 Y18.8717
G01 X3.3390 Y18.8708
G01 X3.2662 Y18.8600
G01 X3.2574 Y18.8582
G01 X3.1860 Y18.8403
G01 X3.1774 Y18.8377
G01 X3.1081 Y18.8129
G01 X3.0998 Y18.8095
G01 X3.0333 Y18.7780
G01 X3.0254 Y18.7738
G01 X2.9622 Y18.7360
G01 X2.9548 Y18.7310
G01 X2.8957 Y18.6871
G01 X2.8888 Y18.6815
G01 X2.8342 Y18.6320
G01 X2.8279 Y18.6257
G01 X2.7784 Y18.5711
G01 X2.7728 Y18.5642
G01 X2.7289 Y18.5051
G01 X2.7239 Y18.4977
G01 X2.6861 Y18.4345
G01 X2.6819 Y18.4266
G01 X2.6504 Y18.3601
G01 X2.6470 Y18.3518
G01 X2.6222 Y18.2825
G01 X2.6196 Y18.2739
G01 X2.6017 Y18.2025
G01 X2.5999 Y18.1937
G01 X2.5891 Y18.1209
G01 X2.5882 Y18.1120
G01 X2.5846 Y18.0385
G01 X2.5846 Y18.0295
G01 X2.5882 Y17.9560
G01 X2.5891 Y17.9471
G01 X2.5999 Y17.8743
G01 X2.6017 Y17.8655
G01 X2.6196 Y17.7941
G01 X2.6222 Y17.7855
G01 X2.6470 Y17.7162
G01 X2.6504 Y17.7079
G01 X2.6819 Y17.6414
G01 X2.6861 Y17.6335
G01 X2.7239 Y17.5703
G01 X2.7289 Y17.5629
G01 X2.7728 Y17.5038
G01 X2.7784 Y17.4969
G01 X2.8279 Y17.4423
G01 X2.8342 Y17.4360
G01 X2.8888 Y17.3865
G01 X2.8957 Y17.3809
G01 X2.9548 Y17.3370
G01 X2.9622 Y17.3320
G01 X3.0254 Y17.2942
G01 X3.0333 Y17.2900
G01 X3.0998 Y17.2585
G01 X3.1081 Y17.2551
G01 X3.1774 Y17.2303
G01 X3.1860 Y17.2277
G01 X3.2574 Y17.2098
G01 X3.2662 Y17.2080
G01 X3.3390 Y17.1972
G01 X3.3479 Y17.1963
G01 X3.4214 Y17.1927
G01 X9.1409 Y17.1926
G01 X9.2189 Y17.1963
G01 X9.2278 Y17.1972
G01 X9.3006 Y17.2080
G01 X9.3094 Y17.2098
G01 X9.3808 Y17.2277
G01 X9.3894 Y17.2303
G01 X9.4587 Y17.2551
G01 X9.4670 Y17.2585
G01 X9.5335 Y17.2900
G01 X9.5414 Y17.2942
G01 X9.6046 Y17.3320
G01 X9.6120 Y17.3370
G01 X9.6711 Y17.3809
G01 X9.6780 Y17.3865
G01 X9.7358 Y17.4391
G01 X11.1359 Y18.8393
G01 X11.1854 Y18.8939
G01 X11.1910 Y18.9008
G01 X11.2349 Y18.9599
G01 X11.2399 Y18.9673
G01 X11.2777 Y19.0305
G01 X11.2819 Y19.0384
G01 X11.3134 Y19.1049
G01 X11.3168 Y19.1132
G01 X11.3416 Y19.1825
G01 X11.3442 Y19.1911
G01 X11.3621 Y19.2625
G01 X11.3639 Y19.2713
G01 X11.3747 Y19.3441
G01 X11.3756 Y19.3530
G01 X11.3793 Y19.4310
G01 X11.3793 Y23.0307
G01 X11.3907 Y23.0433
G01 X11.3964 Y23.0502
G01 X11.4558 Y23.1303
G01 X11.4607 Y23.1378
G01 X11.5120 Y23.2233
G01 X11.5162 Y23.2312
G01 X11.5588 Y23.3213
G01 X11.5622 Y23.3295
G01 X11.5958 Y23.4234
G01 X11.5984 Y23.4320
G01 X11.6227 Y23.5287
G01 X11.6244 Y23.5374
G01 X11.6390 Y23.6361
G00 Z2.0000
G00 X11.7480 Y24.4828
G01 F200.00
G01 Z-0.0710
G01 F170.00
G01 X11.7774 Y24.4338
G01 X11.7959 Y24.3991
G01 X11.8202 Y24.3476
G01 X11.8202 Y24.5071
G01 X11.7480 Y24.4828
G00 Z2.0000
G00 X15.1216 Y31.2019
G01 F200.00
G01 Z-0.0710
G01 F170.00
G01 X15.1216 Y30.7741
G01 X15.1588 Y30.7827
G01 X15.2847 Y30.8053
G01 X15.3230 Y30.8103
G01 X15.3591 Y30.8115
G01 X15.3562 Y30.8312
G01 X15.3523 Y30.8703
G01 X15.3475 Y30.9684
G01 X15.3475 Y31.0076
G01 X15.3523 Y31.1057
G01 X15.3562 Y31.1448
G01 X15.3591 Y31.1645
G01 X15.3230 Y31.1657
G01 X15.2847 Y31.1707
G01 X15.1588 Y31.1933
G01 X15.1216 Y31.2019
G00 Z2.0000
G00 X17.7336 Y35.9264
G01 F200.00
G01 Z-0.0710
G01 F170.00
G01 X17.7345 Y35.9353
G01 X17.7388 Y36.0235
G01 X17.7388 Y36.0325
G01 X17.7345 Y36.1207
G01 X17.7336 Y36.1296
G01 X17.7206 Y36.2169
G01 X17.7189 Y36.2257
G01 X17.6974 Y36.3114
G01 X17.6948 Y36.3199
G01 X17.6651 Y36.4031
G01 X17.6617 Y36.4113
G01 X17.6239 Y36.4912
G01 X17.6197 Y36.4990
G01 X17.5743 Y36.5748
G01 X17.5693 Y36.5822
G01 X17.5167 Y36.6532
G01 X17.5110 Y36.6601
G01 X17.4517 Y36.7255
G01 X17.4454 Y36.7318
G01 X17.3800 Y36.7911
G01 X17.3731 Y36.7968
G01 X17.3021 Y36.8494
G01 X17.2947 Y36.8544
G01 X17.2189 Y36.8998
G01 X17.2111 Y36.9040
G01 X17.1312 Y36.9418
G01 X17.1230 Y36.9452
G01 X17.0398 Y36.9749
G01 X17.0313 Y36.9775
G01 X16.9456 Y36.9990
G01 X16.9368 Y37.0007
G01 X16.8495 Y37.0137
G01 X16.8406 Y37.0146
G01 X16.7524 Y37.0189
G01 X16.7434 Y37.0189
G01 X16.6552 Y37.0146
G01 X16.6463 Y37.0137
G01 X16.5590 Y37.0007
G01 X16.5502 Y36.9990
G01 X16.4645 Y36.9775
G01 X16.4560 Y36.9749
G01 X16.3728 Y36.9452
G01 X16.3646 Y36.9418
G01 X16.2847 Y36.9040
G01 X16.2769 Y36.8998
G01 X16.2011 Y36.8544
G01 X16.1937 Y36.8494
G01 X16.1227 Y36.7968
G01 X16.1158 Y36.7911
G01 X16.0504 Y36.7318
G01 X16.0441 Y36.7255
G01 X15.9848 Y36.6601
G01 X15.9791 Y36.6532
G01 X15.9265 Y36.5822
G01 X15.9215 Y36.5748
G01 X15.8761 Y36.4990
G01 X15.8719 Y36.4912
G01 X15.8341 Y36.4113
G01 X15.8307 Y36.4031
G01 X15.8010 Y36.3199
G01 X15.7984 Y36.3114
G01 X15.7769 Y36.2257
G01 X15.7752 Y36.2169
G01 X15.7622 Y36.1296
G01 X15.7613 Y36.1207
G01 X15.7570 Y36.0325
G01 X15.7570 Y36.0235
G01 X15.7613 Y35.9353
G01 X15.7622 Y35.9264
G01 X15.7752 Y35.8391
G01 X15.7769 Y35.8303
G01 X15.7984 Y35.7446
G01 X15.8010 Y35.7361
G01 X15.8307 Y35.6529
G01 X15.8341 Y35.6447
G01 X15.8719 Y35.5648
G01 X15.8761 Y35.5570
G01 X15.9215 Y35.4812
G01 X15.9265 Y35.4738
G01 X15.9791 Y35.4028
G01 X15.9848 Y35.3959
G01 X16.0441 Y35.3305
G01 X16.0504 Y35.3242
G01 X16.1158 Y35.2649
G01 X16.1227 Y35.2592
G01 X16.1937 Y35.2066
G01 X16.2011 Y35.2016
G01 X16.2769 Y35.1562
G01 X16.2847 Y35.1520
G01 X16.3646 Y35.1142
G01 X16.3728 Y35.1108
G01 X16.4560 Y35.0811
G01 X16.4645 Y35.0785
G01 X16.5502 Y35.0570
G01 X16.5590 Y35.0553
G01 X16.6463 Y35.0423
G01 X16.6552 Y35.0414
G01 X16.7434 Y35.0371
G01 X16.7524 Y35.0371
G01 X16.8406 Y35.0414
G01 X16.8495 Y35.0423
G01 X16.9368 Y35.0553
G01 X16.9456 Y35.0570
G01 X17.0313 Y35.0785
G01 X17.0398 Y35.0811
G01 X17.1230 Y35.1108
G01 X17.1312 Y35.1142
G01 X17.2111 Y35.1520
G01 X17.2189 Y35.1562
G01 X17.2947 Y35.2016
G01 X17.3021 Y35.2066
G01 X17.3731 Y35.2592
G01 X17.3800 Y35.2649
G01 X17.4454 Y35.3242
G01 X17.4517 Y35.3305
G01 X17.5110 Y35.3959
G01 X17.5167 Y35.4028
G01 X17.5693 Y35.4738
G01 X17.5743 Y35.4812
G01 X17.6197 Y35.5570
G01 X17.6239 Y35.5648
G01 X17.6617 Y35.6447
G01 X17.6651 Y35.6529
G01 X17.6948 Y35.7361
G01 X17.6974 Y35.7446
G01 X17.7189 Y35.8303
G01 X17.7206 Y35.8391
G01 X17.7336 Y35.9264
G00 Z2.0000
G00 X17.8866 Y35.9037
G01 F200.00
G01 Z-0.0710
G01 F170.00
G01 X17.8890 Y35.9277
G01 X17.8933 Y36.0159
G01 X17.8933 Y36.0401
G01 X17.8890 Y36.1283
G01 X17.8866 Y36.1523
G01 X17.8736 Y36.2396
G01 X17.8689 Y36.2633
G01 X17.8475 Y36.3490
G01 X17.8405 Y36.3720
G01 X17.8107 Y36.4552
G01 X17.8015 Y36.4775
G01 X17.7637 Y36.5573
G01 X17.7524 Y36.5786
G01 X17.7070 Y36.6543
G01 X17.6936 Y36.6744
G01 X17.6410 Y36.7453
G01 X17.6257 Y36.7640
G01 X17.5663 Y36.8294
G01 X17.5493 Y36.8464
G01 X17.4839 Y36.9058
G01 X17.4652 Y36.9211
G01 X17.3943 Y36.9737
G01 X17.3742 Y36.9871
G01 X17.2985 Y37.0325
G01 X17.2772 Y37.0438
G01 X17.1974 Y37.0816
G01 X17.1751 Y37.0908
G01 X17.0919 Y37.1206
G01 X17.0689 Y37.1276
G01 X16.9832 Y37.1490
G01 X16.9595 Y37.1537
G01 X16.8722 Y37.1667
G01 X16.8482 Y37.1691
G01 X16.7600 Y37.1734
G01 X16.7358 Y37.1734
G01 X16.6476 Y37.1691
G01 X16.6236 Y37.1667
G01 X16.5363 Y37.1537
G01 X16.5126 Y37.1490
G01 X16.4269 Y37.1276
G01 X16.4039 Y37.1206
G01 X16.3207 Y37.0908
G01 X16.2984 Y37.0816
G01 X16.2186 Y37.0438
G01 X16.1973 Y37.0325
G01 X16.1216 Y36.9871
G01 X16.1015 Y36.9737
G01 X16.0306 Y36.9211
G01 X16.0119 Y36.9058
G01 X15.9465 Y36.8464
G01 X15.9295 Y36.8294
G01 X15.8701 Y36.7640
G01 X15.8548 Y36.7453
G01 X15.8022 Y36.6744
G01 X15.7888 Y36.6543
G01 X15.7434 Y36.5786
G01 X15.7321 Y36.5573
G01 X15.6943 Y36.4775
G01 X15.6851 Y36.4552
G01 X15.6553 Y36.3720
G01 X15.6483 Y36.3490
G01 X15.6269 Y36.2633
G01 X15.6222 Y36.2396
G01 X15.6092 Y36.1523
G01 X15.6068 Y36.1283
G01 X15.6025 Y36.0401
G01 X15.6025 Y36.0159
G01 X15.6068 Y35.9277
G01 X15.6092 Y35.9037
G01 X15.6222 Y35.8164
G01 X15.6269 Y35.7927
G01 X15.6483 Y35.7070
G01 X15.6553 Y35.6840
G01 X15.6851 Y35.6008
G01 X15.6943 Y35.5785
G01 X15.7321 Y35.4987
G01 X15.7434 Y35.4774
G01 X15.7888 Y35.4017
G01 X15.8022 Y35.3816
G01 X15.8548 Y35.3107
G01 X15.8701 Y35.2920
G01 X15.9295 Y35.2266
G01 X15.9465 Y35.2096
G01 X16.0119 Y35.1502
G01 X16.0306 Y35.1349
G01 X16.1015 Y35.0823
G01 X16.1216 Y35.0689
G01 X16.1973 Y35.0235
G01 X16.2186 Y35.0122
G01 X16.2984 Y34.9744
G01 X16.3207 Y34.9652
G01 X16.4039 Y34.9354
G01 X16.4269 Y34.9284
G01 X16.5126 Y34.9070
G01 X16.5363 Y34.9023
G01 X16.6236 Y34.8893
G01 X16.6476 Y34.8869
G01 X16.7358 Y34.8826
G01 X16.7600 Y34.8826
G01 X16.8482 Y34.8869
G01 X16.8722 Y34.8893
G01 X16.9595 Y34.9023
G01 X16.9832 Y34.9070
G01 X17.0689 Y34.9284
G01 X17.0919 Y34.9354
G01 X17.1751 Y34.9652
G01 X17.1974 Y34.9744
G01 X17.2772 Y35.0122
G01 X17.2985 Y35.0235
G01 X17.3742 Y35.0689
G01 X17.3943 Y35.0823
G01 X17.4652 Y35.1349
G01 X17.4839 Y35.1502
G01 X17.5493 Y35.2096
G01 X17.5663 Y35.2266
G01 X17.6257 Y35.2920
G01 X17.6410 Y35.3107
G01 X17.6936 Y35.3816
G01 X17.7070 Y35.4017
G01 X17.7524 Y35.4774
G01 X17.7637 Y35.4987
G01 X17.8015 Y35.5785
G01 X17.8107 Y35.6008
G01 X17.8405 Y35.6840
G01 X17.8475 Y35.7070
G01 X17.8689 Y35.7927
G01 X17.8736 Y35.8164
G01 X17.8866 Y35.9037
G00 Z2.0000
G00 X17.0799 Y37.3117
G01 F200.00
G01 Z-0.0710
G01 F170.00
G01 X17.0252 Y37.2980
G01 X17.0799 Y37.2843
G01 X17.0799 Y37.3117
G00 Z2.0000
G00 X17.7336 Y38.4664
G01 F200.00
G01 Z-0.0710
G01 F170.00
G01 X17.7345 Y38.4753
G01 X17.7388 Y38.5635
G01 X17.7388 Y38.5725
G01 X17.7345 Y38.6607
G01 X17.7336 Y38.6696
G01 X17.7206 Y38.7569
G01 X17.7189 Y38.7657
G01 X17.6974 Y38.8514
G01 X17.6948 Y38.8599
G01 X17.6651 Y38.9431
G01 X17.6617 Y38.9513
G01 X17.6239 Y39.0312
G01 X17.6197 Y39.0390
G01 X17.5743 Y39.1148
G01 X17.5693 Y39.1222
G01 X17.5167 Y39.1932
G01 X17.5110 Y39.2001
G01 X17.4517 Y39.2655
G01 X17.4454 Y39.2718
G01 X17.3800 Y39.3311
G01 X17.3731 Y39.3368
G01 X17.3021 Y39.3894
G01 X17.2947 Y39.3944
G01 X17.2189 Y39.4398
G01 X17.2111 Y39.4440
G01 X17.1312 Y39.4818
G01 X17.1230 Y39.4852
G01 X17.0398 Y39.5149
G01 X17.0313 Y39.5175
G01 X16.9456 Y39.5390
G01 X16.9368 Y39.5407
G01 X16.8495 Y39.5537
G01 X16.8406 Y39.5546
G01 X16.7524 Y39.5589
G01 X16.7434 Y39.5589
G01 X16.6552 Y39.5546
G01 X16.6463 Y39.5537
G01 X16.5590 Y39.5407
G01 X16.5502 Y39.5390
G01 X16.4645 Y39.5175
G01 X16.4560 Y39.5149
G01 X16.3728 Y39.4852
G01 X16.3646 Y39.4818
G01 X16.2847 Y39.4440
G01 X16.2769 Y39.4398
G01 X16.2011 Y39.3944
G01 X16.1937 Y39.3894
G01 X16.1227 Y39.3368
G01 X16.1158 Y39.3311
G01 X16.0504 Y39.2718
G01 X16.0441 Y39.2655
G01 X15.9848 Y39.2001
G01 X15.9791 Y39.1932
G01 X15.9265 Y39.1222
G01 X15.9215 Y39.1148
G01 X15.8761 Y39.0390
G01 X15.8719 Y39.0312
G01 X15.8341 Y38.9513
G01 X15.8307 Y38.9431
G01 X15.8010 Y38.8599
G01 X15.7984 Y38.8514
G01 X15.7769 Y38.7657
G01 X15.7752 Y38.7569
G01 X15.7622 Y38.6696
G01 X15.7613 Y38.6607
G01 X15.7570 Y38.5725
G01 X15.7570 Y38.5635
G01 X15.7613 Y38.4753
G01 X15.7622 Y38.4664
G01 X15.7752 Y38.3791
G01 X15.7769 Y38.3703
G01 X15.7984 Y38.2846
G01 X15.8010 Y38.2761
G01 X15.8307 Y38.1929
G01 X15.8341 Y38.1847
G01 X15.8719 Y38.1048
G01 X15.8761 Y38.0970
G01 X15.9215 Y38.0212
G01 X15.9265 Y38.0138
G01 X15.9791 Y37.9428
G01 X15.9848 Y37.9359
G01 X16.0441 Y37.8705
G01 X16.0504 Y37.8642
G01 X16.1158 Y37.8049
G01 X16.1227 Y37.7992
G01 X16.1937 Y37.7466
G01 X16.2011 Y37.7416
G01 X16.2769 Y37.6962
G01 X16.2847 Y37.6920
G01 X16.3646 Y37.6542
G01 X16.3728 Y37.6508
G01 X16.4560 Y37.6211
G01 X16.4645 Y37.6185
G01 X16.5502 Y37.5970
G01 X16.5590 Y37.5953
G01 X16.6463 Y37.5823
G01 X16.6552 Y37.5814
G01 X16.7434 Y37.5771
G01 X16.7524 Y37.5771
G01 X16.8406 Y37.5814
G01 X16.8495 Y37.5823
G01 X16.9368 Y37.5953
G01 X16.9456 Y37.5970
G01 X17.0313 Y37.6185
G01 X17.0398 Y37.6211
G01 X17.1230 Y37.6508
G01 X17.1312 Y37.6542
G01 X17.2111 Y37.6920
G01 X17.2189 Y37.6962
G01 X17.2947 Y37.7416
G01 X17.3021 Y37.7466
G01 X17.3731 Y37.7992
G01 X17.3800 Y37.8049
G01 X17.4454 Y37.8642
G01 X17.4517 Y37.8705
G01 X17.5110 Y37.9359
G01 X17.5167 Y37.9428
G01 X17.5693 Y38.0138
G01 X17.5743 Y38.0212
G01 X17.6197 Y38.0970
G01 X17.6239 Y38.1048
G01 X17.6617 Y38.1847
G01 X17.6651 Y38.1929
G01 X17.6948 Y38.2761
G01 X17.6974 Y38.2846
G01 X17.7189 Y38.3703
G01 X17.7206 Y38.3791
G01 X17.7336 Y38.4664
G00 Z2.0000
G00 X17.8866 Y38.4437
G01 F200.00
G01 Z-0.0710
G01 F170.00
G01 X17.8890 Y38.4677
G01 X17.8933 Y38.5559
G01 X17.8933 Y38.5801
G01 X17.8890 Y38.6683
G01 X17.8866 Y38.6923
G01 X17.8736 Y38.7796
G01 X17.8689 Y38.8033
G01 X17.8475 Y38.8890
G01 X17.8405 Y38.9120
G01 X17.8107 Y38.9952
G01 X17.8015 Y39.0175
G01 X17.7637 Y39.0973
G01 X17.7524 Y39.1186
G01 X17.7070 Y39.1943
G01 X17.6936 Y39.2144
G01 X17.6410 Y39.2853
G01 X17.6257 Y39.3040
G01 X17.5663 Y39.3694
G01 X17.5493 Y39.3864
G01 X17.4839 Y39.4458
G01 X17.4652 Y39.4611
G01 X17.3943 Y39.5137
G01 X17.3742 Y39.5271
G01 X17.2985 Y39.5725
G01 X17.2772 Y39.5838
G01 X17.1974 Y39.6216
G01 X17.1751 Y39.6308
G01 X17.0919 Y39.6606
G01 X17.0689 Y39.6676
G01 X16.9832 Y39.6890
G01 X16.9595 Y39.6937
G01 X16.8722 Y39.7067
G01 X16.8482 Y39.7091
G01 X16.7600 Y39.7134
G01 X16.7358 Y39.7134
G01 X16.6476 Y39.7091
G01 X16.6236 Y39.7067
G01 X16.5363 Y39.6937
G01 X16.5126 Y39.6890
G01 X16.4269 Y39.6676
G01 X16.4039 Y39.6606
G01 X16.3207 Y39.6308
G01 X16.2984 Y39.6216
G01 X16.2186 Y39.5838
G01 X16.1973 Y39.5725
G01 X16.1216 Y39.5271
G01 X16.1015 Y39.5137
G01 X16.0306 Y39.4611
G01 X16.0119 Y39.4458
G01 X15.9465 Y39.3864
G01 X15.9295 Y39.3694
G01 X15.8701 Y39.3040
G01 X15.8548 Y39.2853
G01 X15.8022 Y39.2144
G01 X15.7888 Y39.1943
G01 X15.7434 Y39.1186
G01 X15.7321 Y39.0973
G01 X15.6943 Y39.0175
G01 X15.6851 Y38.9952
G01 X15.6553 Y38.9120
G01 X15.6483 Y38.8890
G01 X15.6269 Y38.8033
G01 X15.6222 Y38.7796
G01 X15.6092 Y38.6923
G01 X15.6068 Y38.6683
G01 X15.6025 Y38.5801
G01 X15.6025 Y38.5559
G01 X15.6068 Y38.4677
G01 X15.6092 Y38.4437
G01 X15.6222 Y38.3564
G01 X15.6269 Y38.3327
G01 X15.6483 Y38.2470
G01 X15.6553 Y38.2240
G01 X15.6851 Y38.1408
G01 X15.6943 Y38.1185
G01 X15.7321 Y38.0387
G01 X15.7434 Y38.0174
G01 X15.7888 Y37.9417
G01 X15.8022 Y37.9216
G01 X15.8548 Y37.8507
G01 X15.8701 Y37.8320
G01 X15.9295 Y37.7666
G01 X15.9465 Y37.7496
G01 X16.0119 Y37.6902
G01 X16.0306 Y37.6749
G01 X16.1015 Y37.6223
G01 X16.1216 Y37.6089
G01 X16.1973 Y37.5635
G01 X16.2186 Y37.5522
G01 X16.2984 Y37.5144
G01 X16.3207 Y37.5052
G01 X16.4039 Y37.4754
G01 X16.4269 Y37.4684
G01 X16.5126 Y37.4470
G01 X16.5363 Y37.4423
G01 X16.6236 Y37.4293
G01 X16.6476 Y37.4269
G01 X16.7358 Y37.4226
G01 X16.7600 Y37.4226
G01 X16.8482 Y37.4269
G01 X16.8722 Y37.4293
G01 X16.9595 Y37.4423
G01 X16.9832 Y37.4470
G01 X17.0689 Y37.4684
G01 X17.0919 Y37.4754
G01 X17.1751 Y37.5052
G01 X17.1974 Y37.5144
G01 X17.2772 Y37.5522
G01 X17.2985 Y37.5635
G01 X17.3742 Y37.6089
G01 X17.3943 Y37.6223
G01 X17.4652 Y37.6749
G01 X17.4839 Y37.6902
G01 X17.5493 Y37.7496
G01 X17.5663 Y37.7666
G01 X17.6257 Y37.8320
G01 X17.6410 Y37.8507
G01 X17.6936 Y37.9216
G01 X17.7070 Y37.9417
G01 X17.7524 Y38.0174
G01 X17.7637 Y38.0387
G01 X17.8015 Y38.1185
G01 X17.8107 Y38.1408
G01 X17.8405 Y38.2240
G01 X17.8475 Y38.2470
G01 X17.8689 Y38.3327
G01 X17.8736 Y38.3564
G01 X17.8866 Y38.4437
G00 Z2.0000
G00 X17.0799 Y39.8517
G01 F200.00
G01 Z-0.0710
G01 F170.00
G01 X17.0252 Y39.8380
G01 X17.0799 Y39.8243
G01 X17.0799 Y39.8517
G00 Z2.0000
G00 X17.7336 Y41.0064
G01 F200.00
G01 Z-0.0710
G01 F170.00
G01 X17.7345 Y41.0153
G01 X17.7388 Y41.1035
G01 X17.7388 Y41.1125
G01 X17.7345 Y41.2007
G01 X17.7336 Y41.2096
G01 X17.7206 Y41.2969
G01 X17.7189 Y41.3057
G01 X17.6974 Y41.3914
G01 X17.6948 Y41.3999
G01 X17.6651 Y41.4831
G01 X17.6617 Y41.4913
G01 X17.6239 Y41.5712
G01 X17.6197 Y41.5790
G01 X17.5743 Y41.6548
G01 X17.5693 Y41.6622
G01 X17.5167 Y41.7332
G01 X17.5110 Y41.7401
G01 X17.4517 Y41.8055
G01 X17.4454 Y41.8118
G01 X17.3800 Y41.8711
G01 X17.3731 Y41.8768
G01 X17.3021 Y41.9294
G01 X17.2947 Y41.9344
G01 X17.2189 Y41.9798
G01 X17.2111 Y41.9840
G01 X17.1312 Y42.0218
G01 X17.1230 Y42.0252
G01 X17.0398 Y42.0549
G01 X17.0313 Y42.0575
G01 X16.9456 Y42.0790
G01 X16.9368 Y42.0807
G01 X16.8495 Y42.0937
G01 X16.8406 Y42.0946
G01 X16.7524 Y42.0989
G01 X16.7434 Y42.0989
G01 X16.6552 Y42.0946
G01 X16.6463 Y42.0937
G01 X16.5590 Y42.0807
G01 X16.5502 Y42.0790
G01 X16.4645 Y42.0575
G01 X16.4560 Y42.0549
G01 X16.3728 Y42.0252
G01 X16.3646 Y42.0218
G01 X16.2847 Y41.9840
G01 X16.2769 Y41.9798
G01 X16.2011 Y41.9344
G01 X16.1937 Y41.9294
G01 X16.1227 Y41.8768
G01 X16.1158 Y41.8711
G01 X16.0504 Y41.8118
G01 X16.0441 Y41.8055
G01 X15.9848 Y41.7401
G01 X15.9791 Y41.7332
G01 X15.9265 Y41.6622
G01 X15.9215 Y41.6548
G01 X15.8761 Y41.5790
G01 X15.8719 Y41.5712
G01 X15.8341 Y41.4913
G01 X15.8307 Y41.4831
G01 X15.8010 Y41.3999
G01 X15.7984 Y41.3914
G01 X15.7769 Y41.3057
G01 X15.7752 Y41.2969
G01 X15.7622 Y41.2096
G01 X15.7613 Y41.2007
G01 X15.7570 Y41.1125
G01 X15.7570 Y41.1035
G01 X15.7613 Y41.0153
G01 X15.7622 Y41.0064
G01 X15.7752 Y40.9191
G01 X15.7769 Y40.9103
G01 X15.7984 Y40.8246
G01 X15.8010 Y40.8161
G01 X15.8307 Y40.7329
G01 X15.8341 Y40.7247
G01 X15.8719 Y40.6448
G01 X15.8761 Y40.6370
G01 X15.9215 Y40.5612
G01 X15.9265 Y40.5538
G01 X15.9791 Y40.4828
G01 X15.9848 Y40.4759
G01 X16.0441 Y40.4105
G01 X16.0504 Y40.4042
G01 X16.1158 Y40.3449
G01 X16.1227 Y40.3392
G01 X16.1937 Y40.2866
G01 X16.2011 Y40.2816
G01 X16.2769 Y40.2362
G01 X16.2847 Y40.2320
G01 X16.3646 Y40.1942
G01 X16.3728 Y40.1908
G01 X16.4560 Y40.1611
G01 X16.4645 Y40.1585
G01 X16.5502 Y40.1370
G01 X16.5590 Y40.1353
G01 X16.6463 Y40.1223
G01 X16.6552 Y40.1214
G01 X16.7434 Y40.1171
G01 X16.7524 Y40.1171
G01 X16.8406 Y40.1214
G01 X16.8495 Y40.1223
G01 X16.9368 Y40.1353
G01 X16.9456 Y40.1370
G01 X17.0313 Y40.1585
G01 X17.0398 Y40.1611
G01 X17.1230 Y40.1908
G01 X17.1312 Y40.1942
G01 X17.2111 Y40.2320
G01 X17.2189 Y40.2362
G01 X17.2947 Y40.2816
G01 X17.3021 Y40.2866
G01 X17.3731 Y40.3392
G01 X17.3800 Y40.3449
G01 X17.4454 Y40.4042
G01 X17.4517 Y40.4105
G01 X17.5110 Y40.4759
G01 X17.5167 Y40.4828
G01 X17.5693 Y40.5538
G01 X17.5743 Y40.5612
G01 X17.6197 Y40.6370
G01 X17.6239 Y40.6448
G01 X17.6617 Y40.7247
G01 X17.6651 Y40.7329
G01 X17.6948 Y40.8161
G01 X17.6974 Y40.8246
G01 X17.7189 Y40.9103
G01 X17.7206 Y40.9191
G01 X17.7336 Y41.0064
G00 Z2.0000
G00 X17.8866 Y40.9837
G01 F200.00
G01 Z-0.0710
G01 F170.00
G01 X17.8890 Y41.0077
G01 X17.8933 Y41.0959
G01 X17.8933 Y41.1201
G01 X17.8890 Y41.2083
G01 X17.8866 Y41.2323
G01 X17.8736 Y41.3196
G01 X17.8689 Y41.3433
G01 X17.8475 Y41.4290
G01 X17.8405 Y41.4520
G01 X17.8107 Y41.5352
G01 X17.8015 Y41.5575
G01 X17.7637 Y41.6373
G01 X17.7524 Y41.6586
G01 X17.7070 Y41.7343
G01 X17.6936 Y41.7544
G01 X17.6410 Y41.8253
G01 X17.6257 Y41.8440
G01 X17.5663 Y41.9094
G01 X17.5493 Y41.9264
G01 X17.4839 Y41.9858
G01 X17.4652 Y42.0011
G01 X17.3943 Y42.0537
G01 X17.3742 Y42.0671
G01 X17.2985 Y42.1125
G01 X17.2772 Y42.1238
G01 X17.1974 Y42.1616
G01 X17.1751 Y42.1708
G01 X17.0919 Y42.2006
G01 X17.0689 Y42.2076
G01 X16.9832 Y42.2290
G01 X16.9595 Y42.2337
G01 X16.8722 Y42.2467
G01 X16.8482 Y42.2491
G01 X16.7600 Y42.2534
G01 X16.7358 Y42.2534
G01 X16.6476 Y42.2491
G01 X16.6236 Y42.2467
G01 X16.5363 Y42.2337
G01 X16.5126 Y42.2290
G01 X16.4269 Y42.2076
G01 X16.4039 Y42.2006
G01 X16.3207 Y42.1708
G01 X16.2984 Y42.1616
G01 X16.2186 Y42.1238
G01 X16.1973 Y42.1125
G01 X16.1216 Y42.0671
G01 X16.1015 Y42.0537
G01 X16.0306 Y42.0011
G01 X16.0119 Y41.9858
G01 X15.9465 Y41.9264
G01 X15.9295 Y41.9094
G01 X15.8701 Y41.8440
G01 X15.8548 Y41.8253
G01 X15.8022 Y41.7544
G01 X15.7888 Y41.7343
G01 X15.7434 Y41.6586
G01 X15.7321 Y41.6373
G01 X15.6943 Y41.5575
G01 X15.6851 Y41.5352
G01 X15.6553 Y41.4520
G01 X15.6483 Y41.4290
G01 X15.6269 Y41.3433
G01 X15.6222 Y41.3196
G01 X15.6092 Y41.2323
G01 X15.6068 Y41.2083
G01 X15.6025 Y41.1201
G01 X15.6025 Y41.0959
G01 X15.6068 Y41.0077
G01 X15.6092 Y40.9837
G01 X15.6222 Y40.8964
G01 X15.6269 Y40.8727
G01 X15.6483 Y40.7870
G01 X15.6553 Y40.7640
G01 X15.6851 Y40.6808
G01 X15.6943 Y40.6585
G01 X15.7321 Y40.5787
G01 X15.7434 Y40.5574
G01 X15.7888 Y40.4817
G01 X15.8022 Y40.4616
G01 X15.8548 Y40.3907
G01 X15.8701 Y40.3720
G01 X15.9295 Y40.3066
G01 X15.9465 Y40.2896
G01 X16.0119 Y40.2302
G01 X16.0306 Y40.2149
G01 X16.1015 Y40.1623
G01 X16.1216 Y40.1489
G01 X16.1973 Y40.1035
G01 X16.2186 Y40.0922
G01 X16.2984 Y40.0544
G01 X16.3207 Y40.0452
G01 X16.4039 Y40.0154
G01 X16.4269 Y40.0084
G01 X16.5126 Y39.9870
G01 X16.5363 Y39.9823
G01 X16.6236 Y39.9693
G01 X16.6476 Y39.9669
G01 X16.7358 Y39.9626
G01 X16.7600 Y39.9626
G01 X16.8482 Y39.9669
G01 X16.8722 Y39.9693
G01 X16.9595 Y39.9823
G01 X16.9832 Y39.9870
G01 X17.0689 Y40.0084
G01 X17.0919 Y40.0154
G01 X17.1751 Y40.0452
G01 X17.1974 Y40.0544
G01 X17.2772 Y40.0922
G01 X17.2985 Y40.1035
G01 X17.3742 Y40.1489
G01 X17.3943 Y40.1623
G01 X17.4652 Y40.2149
G01 X17.4839 Y40.2302
G01 X17.5493 Y40.2896
G01 X17.5663 Y40.3066
G01 X17.6257 Y40.3720
G01 X17.6410 Y40.3907
G01 X17.6936 Y40.4616
G01 X17.7070 Y40.4817
G01 X17.7524 Y40.5574
G01 X17.7637 Y40.5787
G01 X17.8015 Y40.6585
G01 X17.8107 Y40.6808
G01 X17.8405 Y40.7640
G01 X17.8475 Y40.7870
G01 X17.8689 Y40.8727
G01 X17.8736 Y40.8964
G01 X17.8866 Y40.9837
G00 Z2.0000
G00 X17.0799 Y42.3917
G01 F200.00
G01 Z-0.0710
G01 F170.00
G01 X17.0252 Y42.3780
G01 X17.0799 Y42.3643
G01 X17.0799 Y42.3917
G00 Z2.0000
G00 X17.7336 Y43.5464
G01 F200.00
G01 Z-0.0710
G01 F170.00
G01 X17.7345 Y43.5553
G01 X17.7388 Y43.6435
G01 X17.7388 Y43.6525
G01 X17.7345 Y43.7407
G01 X17.7336 Y43.7496
G01 X17.7206 Y43.8369
G01 X17.7189 Y43.8457
G01 X17.6974 Y43.9314
G01 X17.6948 Y43.9399
G01 X17.6651 Y44.0231
G01 X17.6617 Y44.0313
G01 X17.6239 Y44.1112
G01 X17.6197 Y44.1190
G01 X17.5743 Y44.1948
G01 X17.5693 Y44.2022
G01 X17.5167 Y44.2732
G01 X17.5110 Y44.2801
G01 X17.4517 Y44.3455
G01 X17.4454 Y44.3518
G01 X17.3800 Y44.4111
G01 X17.3731 Y44.4168
G01 X17.3021 Y44.4694
G01 X17.2947 Y44.4744
G01 X17.2189 Y44.5198
G01 X17.2111 Y44.5240
G01 X17.1312 Y44.5618
G01 X17.1230 Y44.5652
G01 X17.0398 Y44.5949
G01 X17.0313 Y44.5975
G01 X16.9456 Y44.6190
G01 X16.9368 Y44.6207
G01 X16.8495 Y44.6337
G01 X16.8406 Y44.6346
G01 X16.7524 Y44.6389
G01 X16.7434 Y44.6389
G01 X16.6552 Y44.6346
G01 X16.6463 Y44.6337
G01 X16.5590 Y44.6207
G01 X16.5502 Y44.6190
G01 X16.4645 Y44.5975
G01 X16.4560 Y44.5949
G01 X16.3728 Y44.5652
G01 X16.3646 Y44.5618
G01 X16.2847 Y44.5240
G01 X16.2769 Y44.5198
G01 X16.2011 Y44.4744
G01 X16.1937 Y44.4694
G01 X16.1227 Y44.4168
G01 X16.1158 Y44.4111
G01 X16.0504 Y44.3518
G01 X16.0441 Y44.3455
G01 X15.9848 Y44.2801
G01 X15.9791 Y44.2732
G01 X15.9265 Y44.2022
G01 X15.9215 Y44.1948
G01 X15.8761 Y44.1190
G01 X15.8719 Y44.1112
G01 X15.8341 Y44.0313
G01 X15.8307 Y44.0231
G01 X15.8010 Y43.9399
G01 X15.7984 Y43.9314
G01 X15.7769 Y43.8457
G01 X15.7752 Y43.8369
G01 X15.7622 Y43.7496
G01 X15.7613 Y43.7407
G01 X15.7570 Y43.6525
G01 X15.7570 Y43.6435
G01 X15.7613 Y43.5553
G01 X15.7622 Y43.5464
G01 X15.7752 Y43.4591
G01 X15.7769 Y43.4503
G01 X15.7984 Y43.3646
G01 X15.8010 Y43.3561
G01 X15.8307 Y43.2729
G01 X15.8341 Y43.2647
G01 X15.8719 Y43.1848
G01 X15.8761 Y43.1770
G01 X15.9215 Y43.1012
G01 X15.9265 Y43.0938
G01 X15.9791 Y43.0228
G01 X15.9848 Y43.0159
G01 X16.0441 Y42.9505
G01 X16.0504 Y42.9442
G01 X16.1158 Y42.8849
G01 X16.1227 Y42.8792
G01 X16.1937 Y42.8266
G01 X16.2011 Y42.8216
G01 X16.2769 Y42.7762
G01 X16.2847 Y42.7720
G01 X16.3646 Y42.7342
G01 X16.3728 Y42.7308
G01 X16.4560 Y42.7011
G01 X16.4645 Y42.6985
G01 X16.5502 Y42.6770
G01 X16.5590 Y42.6753
G01 X16.6463 Y42.6623
G01 X16.6552 Y42.6614
G01 X16.7434 Y42.6571
G01 X16.7524 Y42.6571
G01 X16.8406 Y42.6614
G01 X16.8495 Y42.6623
G01 X16.9368 Y42.6753
G01 X16.9456 Y42.6770
G01 X17.0313 Y42.6985
G01 X17.0398 Y42.7011
G01 X17.1230 Y42.7308
G01 X17.1312 Y42.7342
G01 X17.2111 Y42.7720
G01 X17.2189 Y42.7762
G01 X17.2947 Y42.8216
G01 X17.3021 Y42.8266
G01 X17.3731 Y42.8792
G01 X17.3800 Y42.8849
G01 X17.4454 Y42.9442
G01 X17.4517 Y42.9505
G01 X17.5110 Y43.0159
G01 X17.5167 Y43.0228
G01 X17.5693 Y43.0938
G01 X17.5743 Y43.1012
G01 X17.6197 Y43.1770
G01 X17.6239 Y43.1848
G01 X17.6617 Y43.2647
G01 X17.6651 Y43.2729
G01 X17.6948 Y43.3561
G01 X17.6974 Y43.3646
G01 X17.7189 Y43.4503
G01 X17.7206 Y43.4591
G01 X17.7336 Y43.5464
G00 Z2.0000
G00 X17.8866 Y43.5237
G01 F200.00
G01 Z-0.0710
G01 F170.00
G01 X17.8890 Y43.5477
G01 X17.8933 Y43.6359
G01 X17.8933 Y43.6601
G01 X17.8890 Y43.7483
G01 X17.8866 Y43.7723
G01 X17.8736 Y43.8596
G01 X17.8689 Y43.8833
G01 X17.8475 Y43.9690
G01 X17.8405 Y43.9920
G01 X17.8107 Y44.0752
G01 X17.8015 Y44.0975
G01 X17.7637 Y44.1773
G01 X17.7524 Y44.1986
G01 X17.7070 Y44.2743
G01 X17.6936 Y44.2944
G01 X17.6410 Y44.3653
G01 X17.6257 Y44.3840
G01 X17.5663 Y44.4494
G01 X17.5493 Y44.4664
G01 X17.4839 Y44.5258
G01 X17.4652 Y44.5411
G01 X17.3943 Y44.5937
G01 X17.3742 Y44.6071
G01 X17.2985 Y44.6525
G01 X17.2772 Y44.6638
G01 X17.1974 Y44.7016
G01 X17.1751 Y44.7108
G01 X17.0919 Y44.7406
G01 X17.0689 Y44.7476
G01 X16.9832 Y44.7690
G01 X16.9595 Y44.7737
G01 X16.8722 Y44.7867
G01 X16.8482 Y44.7891
G01 X16.7600 Y44.7934
G01 X16.7358 Y44.7934
G01 X16.6476 Y44.7891
G01 X16.6236 Y44.7867
G01 X16.5363 Y44.7737
G01 X16.5126 Y44.7690
G01 X16.4269 Y44.7476
G01 X16.4039 Y44.7406
G01 X16.3207 Y44.7108
G01 X16.2984 Y44.7016
G01 X16.2186 Y44.6638
G01 X16.1973 Y44.6525
G01 X16.1216 Y44.6071
G01 X16.1015 Y44.5937
G01 X16.0306 Y44.5411
G01 X16.0119 Y44.5258
G01 X15.9465 Y44.4664
G01 X15.9295 Y44.4494
G01 X15.8701 Y44.3840
G01 X15.8548 Y44.3653
G01 X15.8022 Y44.2944
G01 X15.7888 Y44.2743
G01 X15.7434 Y44.1986
G01 X15.7321 Y44.1773
G01 X15.6943 Y44.0975
G01 X15.6851 Y44.0752
G01 X15.6553 Y43.9920
G01 X15.6483 Y43.9690
G01 X15.6269 Y43.8833
G01 X15.6222 Y43.8596
G01 X15.6092 Y43.7723
G01 X15.6068 Y43.7483
G01 X15.6025 Y43.6601
G01 X15.6025 Y43.6359
G01 X15.6068 Y43.5477
G01 X15.6092 Y43.5237
G01 X15.6222 Y43.4364
G01 X15.6269 Y43.4127
G01 X15.6483 Y43.3270
G01 X15.6553 Y43.3040
G01 X15.6851 Y43.2208
G01 X15.6943 Y43.1985
G01 X15.7321 Y43.1187
G01 X15.7434 Y43.0974
G01 X15.7888 Y43.0217
G01 X15.8022 Y43.0016
G01 X15.8548 Y42.9307
G01 X15.8701 Y42.9120
G01 X15.9295 Y42.8466
G01 X15.9465 Y42.8296
G01 X16.0119 Y42.7702
G01 X16.0306 Y42.7549
G01 X16.1015 Y42.7023
G01 X16.1216 Y42.6889
G01 X16.1973 Y42.6435
G01 X16.2186 Y42.6322
G01 X16.2984 Y42.5944
G01 X16.3207 Y42.5852
G01 X16.4039 Y42.5554
G01 X16.4269 Y42.5484
G01 X16.5126 Y42.5270
G01 X16.5363 Y42.5223
G01 X16.6236 Y42.5093
G01 X16.6476 Y42.5069
G01 X16.7358 Y42.5026
G01 X16.7600 Y42.5026
G01 X16.8482 Y42.5069
G01 X16.8722 Y42.5093
G01 X16.9595 Y42.5223
G01 X16.9832 Y42.5270
G01 X17.0689 Y42.5484
G01 X17.0919 Y42.5554
G01 X17.1751 Y42.5852
G01 X17.1974 Y42.5944
G01 X17.2772 Y42.6322
G01 X17.2985 Y42.6435
G01 X17.3742 Y42.6889
G01 X17.3943 Y42.7023
G01 X17.4652 Y42.7549
G01 X17.4839 Y42.7702
G01 X17.5493 Y42.8296
G01 X17.5663 Y42.8466
G01 X17.6257 Y42.9120
G01 X17.6410 Y42.9307
G01 X17.6936 Y43.0016
G01 X17.7070 Y43.0217
G01 X17.7524 Y43.0974
G01 X17.7637 Y43.1187
G01 X17.8015 Y43.1985
G01 X17.8107 Y43.2208
G01 X17.8405 Y43.3040
G01 X17.8475 Y43.3270
G01 X17.8689 Y43.4127
G01 X17.8736 Y43.4364
G01 X17.8866 Y43.5237
G00 Z2.0000
G00 X17.0799 Y44.9317
G01 F200.00
G01 Z-0.0710
G01 F170.00
G01 X17.0252 Y44.9180
G01 X17.0799 Y44.9043
G01 X17.0799 Y44.9317
G00 Z2.0000
G00 X17.7336 Y46.0864
G01 F200.00
G01 Z-0.0710
G01 F170.00
G01 X17.7345 Y46.0953
G01 X17.7388 Y46.1835
G01 X17.7388 Y46.1925
G01 X17.7345 Y46.2807
G01 X17.7336 Y46.2896
G01 X17.7206 Y46.3769
G01 X17.7189 Y46.3857
G01 X17.6974 Y46.4714
G01 X17.6948 Y46.4799
G01 X17.6651 Y46.5631
G01 X17.6617 Y46.5713
G01 X17.6239 Y46.6512
G01 X17.6197 Y46.6590
G01 X17.5743 Y46.7348
G01 X17.5693 Y46.7422
G01 X17.5167 Y46.8132
G01 X17.5110 Y46.8201
G01 X17.4517 Y46.8855
G01 X17.4454 Y46.8918
G01 X17.3800 Y46.9511
G01 X17.3731 Y46.9568
G01 X17.3021 Y47.0094
G01 X17.2947 Y47.0144
G01 X17.2189 Y47.0598
G01 X17.2111 Y47.0640
G01 X17.1312 Y47.1018
G01 X17.1230 Y47.1052
G01 X17.0398 Y47.1349
G01 X17.0313 Y47.1375
G01 X16.9456 Y47.1590
G01 X16.9368 Y47.1607
G01 X16.8495 Y47.1737
G01 X16.8406 Y47.1746
G01 X16.7524 Y47.1789
G01 X16.7434 Y47.1789
G01 X16.6552 Y47.1746
G01 X16.6463 Y47.1737
G01 X16.5590 Y47.1607
G01 X16.5502 Y47.1590
G01 X16.4645 Y47.1375
G01 X16.4560 Y47.1349
G01 X16.3728 Y47.1052
G01 X16.3646 Y47.1018
G01 X16.2847 Y47.0640
G01 X16.2769 Y47.0598
G01 X16.2011 Y47.0144
G01 X16.1937 Y47.0094
G01 X16.1227 Y46.9568
G01 X16.1158 Y46.9511
G01 X16.0504 Y46.8918
G01 X16.0441 Y46.8855
G01 X15.9848 Y46.8201
G01 X15.9791 Y46.8132
G01 X15.9265 Y46.7422
G01 X15.9215 Y46.7348
G01 X15.8761 Y46.6590
G01 X15.8719 Y46.6512
G01 X15.8341 Y46.5713
G01 X15.8307 Y46.5631
G01 X15.8010 Y46.4799
G01 X15.7984 Y46.4714
G01 X15.7769 Y46.3857
G01 X15.7752 Y46.3769
G01 X15.7622 Y46.2896
G01 X15.7613 Y46.2807
G01 X15.7570 Y46.1925
G01 X15.7570 Y46.1835
G01 X15.7613 Y46.0953
G01 X15.7622 Y46.0864
G01 X15.7752 Y45.9991
G01 X15.7769 Y45.9903
G01 X15.7984 Y45.9046
G01 X15.8010 Y45.8961
G01 X15.8307 Y45.8129
G01 X15.8341 Y45.8047
G01 X15.8719 Y45.7248
G01 X15.8761 Y45.7170
G01 X15.9215 Y45.6412
G01 X15.9265 Y45.6338
G01 X15.9791 Y45.5628
G01 X15.9848 Y45.5559
G01 X16.0441 Y45.4905
G01 X16.0504 Y45.4842
G01 X16.1158 Y45.4249
G01 X16.1227 Y45.4192
G01 X16.1937 Y45.3666
G01 X16.2011 Y45.3616
G01 X16.2769 Y45.3162
G01 X16.2847 Y45.3120
G01 X16.3646 Y45.2742
G01 X16.3728 Y45.2708
G01 X16.4560 Y45.2411
G01 X16.4645 Y45.2385
G01 X16.5502 Y45.2170
G01 X16.5590 Y45.2153
G01 X16.6463 Y45.2023
G01 X16.6552 Y45.2014
G01 X16.7434 Y45.1971
G01 X16.7524 Y45.1971
G01 X16.8406 Y45.2014
G01 X16.8495 Y45.2023
G01 X16.9368 Y45.2153
G01 X16.9456 Y45.2170
G01 X17.0313 Y45.2385
G01 X17.0398 Y45.2411
G01 X17.1230 Y45.2708
G01 X17.1312 Y45.2742
G01 X17.2111 Y45.3120
G01 X17.2189 Y45.3162
G01 X17.2947 Y45.3616
G01 X17.3021 Y45.3666
G01 X17.3731 Y45.4192
G01 X17.3800 Y45.4249
G01 X17.4454 Y45.4842
G01 X17.4517 Y45.4905
G01 X17.5110 Y45.5559
G01 X17.5167 Y45.5628
G01 X17.5693 Y45.6338
G01 X17.5743 Y45.6412
G01 X17.6197 Y45.7170
G01 X17.6239 Y45.7248
G01 X17.6617 Y45.8047
G01 X17.6651 Y45.8129
G01 X17.6948 Y45.8961
G01 X17.6974 Y45.9046
G01 X17.7189 Y45.9903
G01 X17.7206 Y45.9991
G01 X17.7336 Y46.0864
G00 Z2.0000
G00 X17.8866 Y46.0637
G01 F200.00
G01 Z-0.0710
G01 F170.00
G01 X17.8890 Y46.0877
G01 X17.8933 Y46.1759
G01 X17.8933 Y46.2001
G01 X17.8890 Y46.2883
G01 X17.8866 Y46.3123
G01 X17.8736 Y46.3996
G01 X17.8689 Y46.4233
G01 X17.8475 Y46.5090
G01 X17.8405 Y46.5320
G01 X17.8107 Y46.6152
G01 X17.8015 Y46.6375
G01 X17.7637 Y46.7173
G01 X17.7524 Y46.7386
G01 X17.7070 Y46.8143
G01 X17.6936 Y46.8344
G01 X17.6410 Y46.9053
G01 X17.6257 Y46.9240
G01 X17.5663 Y46.9894
G01 X17.5493 Y47.0064
G01 X17.4839 Y47.0658
G01 X17.4652 Y47.0811
G01 X17.3943 Y47.1337
G01 X17.3742 Y47.1471
G01 X17.2985 Y47.1925
G01 X17.2772 Y47.2038
G01 X17.1974 Y47.2416
G01 X17.1751 Y47.2508
G01 X17.0919 Y47.2806
G01 X17.0689 Y47.2876
G01 X16.9832 Y47.3090
G01 X16.9595 Y47.3137
G01 X16.8722 Y47.3267
G01 X16.8482 Y47.3291
G01 X16.7600 Y47.3334
G01 X16.7358 Y47.3334
G01 X16.6476 Y47.3291
G01 X16.6236 Y47.3267
G01 X16.5363 Y47.3137
G01 X16.5126 Y47.3090
G01 X16.4269 Y47.2876
G01 X16.4039 Y47.2806
G01 X16.3207 Y47.2508
G01 X16.2984 Y47.2416
G01 X16.2186 Y47.2038
G01 X16.1973 Y47.1925
G01 X16.1216 Y47.1471
G01 X16.1015 Y47.1337
G01 X16.0306 Y47.0811
G01 X16.0119 Y47.0658
G01 X15.9465 Y47.0064
G01 X15.9295 Y46.9894
G01 X15.8701 Y46.9240
G01 X15.8548 Y46.9053
G01 X15.8022 Y46.8344
G01 X15.7888 Y46.8143
G01 X15.7434 Y46.7386
G01 X15.7321 Y46.7173
G01 X15.6943 Y46.6375
G01 X15.6851 Y46.6152
G01 X15.6553 Y46.5320
G01 X15.6483 Y46.5090
G01 X15.6269 Y46.4233
G01 X15.6222 Y46.3996
G01 X15.6092 Y46.3123
G01 X15.6068 Y46.2883
G01 X15.6025 Y46.2001
G01 X15.6025 Y46.1759
G01 X15.6068 Y46.0877
G01 X15.6092 Y46.0637
G01 X15.6222 Y45.9764
G01 X15.6269 Y45.9527
G01 X15.6483 Y45.8670
G01 X15.6553 Y45.8440
G01 X15.6851 Y45.7608
G01 X15.6943 Y45.7385
G01 X15.7321 Y45.6587
G01 X15.7434 Y45.6374
G01 X15.7888 Y45.5617
G01 X15.8022 Y45.5416
G01 X15.8548 Y45.4707
G01 X15.8701 Y45.4520
G01 X15.9295 Y45.3866
G01 X15.9465 Y45.3696
G01 X16.0119 Y45.3102
G01 X16.0306 Y45.2949
G01 X16.1015 Y45.2423
G01 X16.1216 Y45.2289
G01 X16.1973 Y45.1835
G01 X16.2186 Y45.1722
G01 X16.2984 Y45.1344
G01 X16.3207 Y45.1252
G01 X16.4039 Y45.0954
G01 X16.4269 Y45.0884
G01 X16.5126 Y45.0670
G01 X16.5363 Y45.0623
G01 X16.6236 Y45.0493
G01 X16.6476 Y45.0469
G01 X16.7358 Y45.0426
G01 X16.7600 Y45.0426
G01 X16.8482 Y45.0469
G01 X16.8722 Y45.0493
G01 X16.9595 Y45.0623
G01 X16.9832 Y45.0670
G01 X17.0689 Y45.0884
G01 X17.0919 Y45.0954
G01 X17.1751 Y45.1252
G01 X17.1974 Y45.1344
G01 X17.2772 Y45.1722
G01 X17.2985 Y45.1835
G01 X17.3742 Y45.2289
G01 X17.3943 Y45.2423
G01 X17.4652 Y45.2949
G01 X17.4839 Y45.3102
G01 X17.5493 Y45.3696
G01 X17.5663 Y45.3866
G01 X17.6257 Y45.4520
G01 X17.6410 Y45.4707
G01 X17.6936 Y45.5416
G01 X17.7070 Y45.5617
G01 X17.7524 Y45.6374
G01 X17.7637 Y45.6587
G01 X17.8015 Y45.7385
G01 X17.8107 Y45.7608
G01 X17.8405 Y45.8440
G01 X17.8475 Y45.8670
G01 X17.8689 Y45.9527
G01 X17.8736 Y45.9764
G01 X17.8866 Y46.0637
G00 Z2.0000
G00 X17.0252 Y47.4580
G01 F200.00
G01 Z-0.0710
G01 F170.00
G01 X17.0799 Y47.4443
G01 X17.0799 Y47.4717
G01 X17.0252 Y47.4580
G00 Z2.0000
G00 X17.7336 Y48.6264
G01 F200.00
G01 Z-0.0710
G01 F170.00
G01 X17.7345 Y48.6353
G01 X17.7388 Y48.7235
G01 X17.7388 Y48.7325
G01 X17.7345 Y48.8207
G01 X17.7336 Y48.8296
G01 X17.7206 Y48.9169
G01 X17.7189 Y48.9257
G01 X17.6974 Y49.0114
G01 X17.6948 Y49.0199
G01 X17.6651 Y49.1031
G01 X17.6617 Y49.1113
G01 X17.6239 Y49.1912
G01 X17.6197 Y49.1990
G01 X17.5743 Y49.2748
G01 X17.5693 Y49.2822
G01 X17.5167 Y49.3532
G01 X17.5110 Y49.3601
G01 X17.4517 Y49.4255
G01 X17.4454 Y49.4318
G01 X17.3800 Y49.4911
G01 X17.3731 Y49.4968
G01 X17.3021 Y49.5494
G01 X17.2947 Y49.5544
G01 X17.2189 Y49.5998
G01 X17.2111 Y49.6040
G01 X17.1312 Y49.6418
G01 X17.1230 Y49.6452
G01 X17.0398 Y49.6749
G01 X17.0313 Y49.6775
G01 X16.9456 Y49.6990
G01 X16.9368 Y49.7007
G01 X16.8495 Y49.7137
G01 X16.8406 Y49.7146
G01 X16.7524 Y49.7189
G01 X16.7434 Y49.7189
G01 X16.6552 Y49.7146
G01 X16.6463 Y49.7137
G01 X16.5590 Y49.7007
G01 X16.5502 Y49.6990
G01 X16.4645 Y49.6775
G01 X16.4560 Y49.6749
G01 X16.3728 Y49.6452
G01 X16.3646 Y49.6418
G01 X16.2847 Y49.6040
G01 X16.2769 Y49.5998
G01 X16.2011 Y49.5544
G01 X16.1937 Y49.5494
G01 X16.1227 Y49.4968
G01 X16.1158 Y49.4911
G01 X16.0504 Y49.4318
G01 X16.0441 Y49.4255
G01 X15.9848 Y49.3601
G01 X15.9791 Y49.3532
G01 X15.9265 Y49.2822
G01 X15.9215 Y49.2748
G01 X15.8761 Y49.1990
G01 X15.8719 Y49.1912
G01 X15.8341 Y49.1113
G01 X15.8307 Y49.1031
G01 X15.8010 Y49.0199
G01 X15.7984 Y49.0114
G01 X15.7769 Y48.9257
G01 X15.7752 Y48.9169
G01 X15.7622 Y48.8296
G01 X15.7613 Y48.8207
G01 X15.7570 Y48.7325
G01 X15.7570 Y48.7235
G01 X15.7613 Y48.6353
G01 X15.7622 Y48.6264
G01 X15.7752 Y48.5391
G01 X15.7769 Y48.5303
G01 X15.7984 Y48.4446
G01 X15.8010 Y48.4361
G01 X15.8307 Y48.3529
G01 X15.8341 Y48.3447
G01 X15.8719 Y48.2648
G01 X15.8761 Y48.2570
G01 X15.9215 Y48.1812
G01 X15.9265 Y48.1738
G01 X15.9791 Y48.1028
G01 X15.9848 Y48.0959
G01 X16.0441 Y48.0305
G01 X16.0504 Y48.0242
G01 X16.1158 Y47.9649
G01 X16.1227 Y47.9592
G01 X16.1937 Y47.9066
G01 X16.2011 Y47.9016
G01 X16.2769 Y47.8562
G01 X16.2847 Y47.8520
G01 X16.3646 Y47.8142
G01 X16.3728 Y47.8108
G01 X16.4560 Y47.7811
G01 X16.4645 Y47.7785
G01 X16.5502 Y47.7570
G01 X16.5590 Y47.7553
G01 X16.6463 Y47.7423
G01 X16.6552 Y47.7414
G01 X16.7434 Y47.7371
G01 X16.7524 Y47.7371
G01 X16.8406 Y47.7414
G01 X16.8495 Y47.7423
G01 X16.9368 Y47.7553
G01 X16.9456 Y47.7570
G01 X17.0313 Y47.7785
G01 X17.0398 Y47.7811
G01 X17.1230 Y47.8108
G01 X17.1312 Y47.8142
G01 X17.2111 Y47.8520
G01 X17.2189 Y47.8562
G01 X17.2947 Y47.9016
G01 X17.3021 Y47.9066
G01 X17.3731 Y47.9592
G01 X17.3800 Y47.9649
G01 X17.4454 Y48.0242
G01 X17.4517 Y48.0305
G01 X17.5110 Y48.0959
G01 X17.5167 Y48.1028
G01 X17.5693 Y48.1738
G01 X17.5743 Y48.1812
G01 X17.6197 Y48.2570
G01 X17.6239 Y48.2648
G01 X17.6617 Y48.3447
G01 X17.6651 Y48.3529
G01 X17.6948 Y48.4361
G01 X17.6974 Y48.4446
G01 X17.7189 Y48.5303
G01 X17.7206 Y48.5391
G01 X17.7336 Y48.6264
G00 Z2.0000
G00 X17.8866 Y48.6037
G01 F200.00
G01 Z-0.0710
G01 F170.00
G01 X17.8890 Y48.6277
G01 X17.8933 Y48.7159
G01 X17.8933 Y48.7401
G01 X17.8890 Y48.8283
G01 X17.8866 Y48.8523
G01 X17.8736 Y48.9396
G01 X17.8689 Y48.9633
G01 X17.8475 Y49.0490
G01 X17.8405 Y49.0720
G01 X17.8107 Y49.1552
G01 X17.8015 Y49.1775
G01 X17.7637 Y49.2573
G01 X17.7524 Y49.2786
G01 X17.7070 Y49.3543
G01 X17.6936 Y49.3744
G01 X17.6410 Y49.4453
G01 X17.6257 Y49.4640
G01 X17.5663 Y49.5294
G01 X17.5493 Y49.5464
G01 X17.4839 Y49.6058
G01 X17.4652 Y49.6211
G01 X17.3943 Y49.6737
G01 X17.3742 Y49.6871
G01 X17.2985 Y49.7325
G01 X17.2772 Y49.7438
G01 X17.1974 Y49.7816
G01 X17.1751 Y49.7908
G01 X17.0919 Y49.8206
G01 X17.0689 Y49.8276
G01 X16.9832 Y49.8490
G01 X16.9595 Y49.8537
G01 X16.8722 Y49.8667
G01 X16.8482 Y49.8691
G01 X16.7600 Y49.8734
G01 X16.7358 Y49.8734
G01 X16.6476 Y49.8691
G01 X16.6236 Y49.8667
G01 X16.5363 Y49.8537
G01 X16.5126 Y49.8490
G01 X16.4269 Y49.8276
G01 X16.4039 Y49.8206
G01 X16.3207 Y49.7908
G01 X16.2984 Y49.7816
G01 X16.2186 Y49.7438
G01 X16.1973 Y49.7325
G01 X16.1216 Y49.6871
G01 X16.1015 Y49.6737
G01 X16.0306 Y49.6211
G01 X16.0119 Y49.6058
G01 X15.9465 Y49.5464
G01 X15.9295 Y49.5294
G01 X15.8701 Y49.4640
G01 X15.8548 Y49.4453
G01 X15.8022 Y49.3744
G01 X15.7888 Y49.3543
G01 X15.7434 Y49.2786
G01 X15.7321 Y49.2573
G01 X15.6943 Y49.1775
G01 X15.6851 Y49.1552
G01 X15.6553 Y49.0720
G01 X15.6483 Y49.0490
G01 X15.6269 Y48.9633
G01 X15.6222 Y48.9396
G01 X15.6092 Y48.8523
G01 X15.6068 Y48.8283
G01 X15.6025 Y48.7401
G01 X15.6025 Y48.7159
G01 X15.6068 Y48.6277
G01 X15.6092 Y48.6037
G01 X15.6222 Y48.5164
G01 X15.6269 Y48.4927
G01 X15.6483 Y48.4070
G01 X15.6553 Y48.3840
G01 X15.6851 Y48.3008
G01 X15.6943 Y48.2785
G01 X15.7321 Y48.1987
G01 X15.7434 Y48.1774
G01 X15.7888 Y48.1017
G01 X15.8022 Y48.0816
G01 X15.8548 Y48.0107
G01 X15.8701 Y47.9920
G01 X15.9295 Y47.9266
G01 X15.9465 Y47.9096
G01 X16.0119 Y47.8502
G01 X16.0306 Y47.8349
G01 X16.1015 Y47.7823
G01 X16.1216 Y47.7689
G01 X16.1973 Y47.7235
G01 X16.2186 Y47.7122
G01 X16.2984 Y47.6744
G01 X16.3207 Y47.6652
G01 X16.4039 Y47.6354
G01 X16.4269 Y47.6284
G01 X16.5126 Y47.6070
G01 X16.5363 Y47.6023
G01 X16.6236 Y47.5893
G01 X16.6476 Y47.5869
G01 X16.7358 Y47.5826
G01 X16.7600 Y47.5826
G01 X16.8482 Y47.5869
G01 X16.8722 Y47.5893
G01 X16.9595 Y47.6023
G01 X16.9832 Y47.6070
G01 X17.0689 Y47.6284
G01 X17.0919 Y47.6354
G01 X17.1751 Y47.6652
G01 X17.1974 Y47.6744
G01 X17.2772 Y47.7122
G01 X17.2985 Y47.7235
G01 X17.3742 Y47.7689
G01 X17.3943 Y47.7823
G01 X17.4652 Y47.8349
G01 X17.4839 Y47.8502
G01 X17.5493 Y47.9096
G01 X17.5663 Y47.9266
G01 X17.6257 Y47.9920
G01 X17.6410 Y48.0107
G01 X17.6936 Y48.0816
G01 X17.7070 Y48.1017
G01 X17.7524 Y48.1774
G01 X17.7637 Y48.1987
G01 X17.8015 Y48.2785
G01 X17.8107 Y48.3008
G01 X17.8405 Y48.3840
G01 X17.8475 Y48.4070
G01 X17.8689 Y48.4927
G01 X17.8736 Y48.5164
G01 X17.8866 Y48.6037
G00 Z2.0000
G00 X17.0799 Y50.0117
G01 F200.00
G01 Z-0.0710
G01 F170.00
G01 X17.0252 Y49.9980
G01 X17.0799 Y49.9843
G01 X17.0799 Y50.0117
G00 Z2.0000
G00 X17.7336 Y51.1664
G01 F200.00
G01 Z-0.0710
G01 F170.00
G01 X17.7345 Y51.1753
G01 X17.7388 Y51.2635
G01 X17.7388 Y51.2725
G01 X17.7345 Y51.3607
G01 X17.7336 Y51.3696
G01 X17.7206 Y51.4569
G01 X17.7189 Y51.4657
G01 X17.6974 Y51.5514
G01 X17.6948 Y51.5599
G01 X17.6651 Y51.6431
G01 X17.6617 Y51.6513
G01 X17.6239 Y51.7312
G01 X17.6197 Y51.7390
G01 X17.5743 Y51.8148
G01 X17.5693 Y51.8222
G01 X17.5167 Y51.8932
G01 X17.5110 Y51.9001
G01 X17.4517 Y51.9655
G01 X17.4454 Y51.9718
G01 X17.3800 Y52.0311
G01 X17.3731 Y52.0368
G01 X17.3021 Y52.0894
G01 X17.2947 Y52.0944
G01 X17.2189 Y52.1398
G01 X17.2111 Y52.1440
G01 X17.1312 Y52.1818
G01 X17.1230 Y52.1852
G01 X17.0398 Y52.2149
G01 X17.0313 Y52.2175
G01 X16.9456 Y52.2390
G01 X16.9368 Y52.2407
G01 X16.8495 Y52.2537
G01 X16.8406 Y52.2546
G01 X16.7524 Y52.2589
G01 X16.7434 Y52.2589
G01 X16.6552 Y52.2546
G01 X16.6463 Y52.2537
G01 X16.5590 Y52.2407
G01 X16.5502 Y52.2390
G01 X16.4645 Y52.2175
G01 X16.4560 Y52.2149
G01 X16.3728 Y52.1852
G01 X16.3646 Y52.1818
G01 X16.2847 Y52.1440
G01 X16.2769 Y52.1398
G01 X16.2011 Y52.0944
G01 X16.1937 Y52.0894
G01 X16.1227 Y52.0368
G01 X16.1158 Y52.0311
G01 X16.0504 Y51.9718
G01 X16.0441 Y51.9655
G01 X15.9848 Y51.9001
G01 X15.9791 Y51.8932
G01 X15.9265 Y51.8222
G01 X15.9215 Y51.8148
G01 X15.8761 Y51.7390
G01 X15.8719 Y51.7312
G01 X15.8341 Y51.6513
G01 X15.8307 Y51.6431
G01 X15.8010 Y51.5599
G01 X15.7984 Y51.5514
G01 X15.7769 Y51.4657
G01 X15.7752 Y51.4569
G01 X15.7622 Y51.3696
G01 X15.7613 Y51.3607
G01 X15.7570 Y51.2725
G01 X15.7570 Y51.2635
G01 X15.7613 Y51.1753
G01 X15.7622 Y51.1664
G01 X15.7752 Y51.0791
G01 X15.7769 Y51.0703
G01 X15.7984 Y50.9846
G01 X15.8010 Y50.9761
G01 X15.8307 Y50.8929
G01 X15.8341 Y50.8847
G01 X15.8719 Y50.8048
G01 X15.8761 Y50.7970
G01 X15.9215 Y50.7212
G01 X15.9265 Y50.7138
G01 X15.9791 Y50.6428
G01 X15.9848 Y50.6359
G01 X16.0441 Y50.5705
G01 X16.0504 Y50.5642
G01 X16.1158 Y50.5049
G01 X16.1227 Y50.4992
G01 X16.1937 Y50.4466
G01 X16.2011 Y50.4416
G01 X16.2769 Y50.3962
G01 X16.2847 Y50.3920
G01 X16.3646 Y50.3542
G01 X16.3728 Y50.3508
G01 X16.4560 Y50.3211
G01 X16.4645 Y50.3185
G01 X16.5502 Y50.2970
G01 X16.5590 Y50.2953
G01 X16.6463 Y50.2823
G01 X16.6552 Y50.2814
G01 X16.7434 Y50.2771
G01 X16.7524 Y50.2771
G01 X16.8406 Y50.2814
G01 X16.8495 Y50.2823
G01 X16.9368 Y50.2953
G01 X16.9456 Y50.2970
G01 X17.0313 Y50.3185
G01 X17.0398 Y50.3211
G01 X17.1230 Y50.3508
G01 X17.1312 Y50.3542
G01 X17.2111 Y50.3920
G01 X17.2189 Y50.3962
G01 X17.2947 Y50.4416
G01 X17.3021 Y50.4466
G01 X17.3731 Y50.4992
G01 X17.3800 Y50.5049
G01 X17.4454 Y50.5642
G01 X17.4517 Y50.5705
G01 X17.5110 Y50.6359
G01 X17.5167 Y50.6428
G01 X17.5693 Y50.7138
G01 X17.5743 Y50.7212
G01 X17.6197 Y50.7970
G01 X17.6239 Y50.8048
G01 X17.6617 Y50.8847
G01 X17.6651 Y50.8929
G01 X17.6948 Y50.9761
G01 X17.6974 Y50.9846
G01 X17.7189 Y51.0703
G01 X17.7206 Y51.0791
G01 X17.7336 Y51.1664
G00 Z2.0000
G00 X17.8866 Y51.1437
G01 F200.00
G01 Z-0.0710
G01 F170.00
G01 X17.8890 Y51.1677
G01 X17.8933 Y51.2559
G01 X17.8933 Y51.2801
G01 X17.8890 Y51.3683
G01 X17.8866 Y51.3923
G01 X17.8736 Y51.4796
G01 X17.8689 Y51.5033
G01 X17.8475 Y51.5890
G01 X17.8405 Y51.6120
G01 X17.8107 Y51.6952
G01 X17.8015 Y51.7175
G01 X17.7637 Y51.7973
G01 X17.7524 Y51.8186
G01 X17.7070 Y51.8943
G01 X17.6936 Y51.9144
G01 X17.6410 Y51.9853
G01 X17.6257 Y52.0040
G01 X17.5663 Y52.0694
G01 X17.5493 Y52.0864
G01 X17.4839 Y52.1458
G01 X17.4652 Y52.1611
G01 X17.3943 Y52.2137
G01 X17.3742 Y52.2271
G01 X17.2985 Y52.2725
G01 X17.2772 Y52.2838
G01 X17.1974 Y52.3216
G01 X17.1751 Y52.3308
G01 X17.0919 Y52.3606
G01 X17.0689 Y52.3676
G01 X16.9832 Y52.3890
G01 X16.9595 Y52.3937
G01 X16.8722 Y52.4067
G01 X16.8482 Y52.4091
G01 X16.7600 Y52.4134
G01 X16.7358 Y52.4134
G01 X16.6476 Y52.4091
G01 X16.6236 Y52.4067
G01 X16.5363 Y52.3937
G01 X16.5126 Y52.3890
G01 X16.4269 Y52.3676
G01 X16.4039 Y52.3606
G01 X16.3207 Y52.3308
G01 X16.2984 Y52.3216
G01 X16.2186 Y52.2838
G01 X16.1973 Y52.2725
G01 X16.1216 Y52.2271
G01 X16.1015 Y52.2137
G01 X16.0306 Y52.1611
G01 X16.0119 Y52.1458
G01 X15.9465 Y52.0864
G01 X15.9295 Y52.0694
G01 X15.8701 Y52.0040
G01 X15.8548 Y51.9853
G01 X15.8022 Y51.9144
G01 X15.7888 Y51.8943
G01 X15.7434 Y51.8186
G01 X15.7321 Y51.7973
G01 X15.6943 Y51.7175
G01 X15.6851 Y51.6952
G01 X15.6553 Y51.6120
G01 X15.6483 Y51.5890
G01 X15.6269 Y51.5033
G01 X15.6222 Y51.4796
G01 X15.6092 Y51.3923
G01 X15.6068 Y51.3683
G01 X15.6025 Y51.2801
G01 X15.6025 Y51.2559
G01 X15.6068 Y51.1677
G01 X15.6092 Y51.1437
G01 X15.6222 Y51.0564
G01 X15.6269 Y51.0327
G01 X15.6483 Y50.9470
G01 X15.6553 Y50.9240
G01 X15.6851 Y50.8408
G01 X15.6943 Y50.8185
G01 X15.7321 Y50.7387
G01 X15.7434 Y50.7174
G01 X15.7888 Y50.6417
G01 X15.8022 Y50.6216
G01 X15.8548 Y50.5507
G01 X15.8701 Y50.5320
G01 X15.9295 Y50.4666
G01 X15.9465 Y50.4496
G01 X16.0119 Y50.3902
G01 X16.0306 Y50.3749
G01 X16.1015 Y50.3223
G01 X16.1216 Y50.3089
G01 X16.1973 Y50.2635
G01 X16.2186 Y50.2522
G01 X16.2984 Y50.2144
G01 X16.3207 Y50.2052
G01 X16.4039 Y50.1754
G01 X16.4269 Y50.1684
G01 X16.5126 Y50.1470
G01 X16.5363 Y50.1423
G01 X16.6236 Y50.1293
G01 X16.6476 Y50.1269
G01 X16.7358 Y50.1226
G01 X16.7600 Y50.1226
G01 X16.8482 Y50.1269
G01 X16.8722 Y50.1293
G01 X16.9595 Y50.1423
G01 X16.9832 Y50.1470
G01 X17.0689 Y50.1684
G01 X17.0919 Y50.1754
G01 X17.1751 Y50.2052
G01 X17.1974 Y50.2144
G01 X17.2772 Y50.2522
G01 X17.2985 Y50.2635
G01 X17.3742 Y50.3089
G01 X17.3943 Y50.3223
G01 X17.4652 Y50.3749
G01 X17.4839 Y50.3902
G01 X17.5493 Y50.4496
G01 X17.5663 Y50.4666
G01 X17.6257 Y50.5320
G01 X17.6410 Y50.5507
G01 X17.6936 Y50.6216
G01 X17.7070 Y50.6417
G01 X17.7524 Y50.7174
G01 X17.7637 Y50.7387
G01 X17.8015 Y50.8185
G01 X17.8107 Y50.8408
G01 X17.8405 Y50.9240
G01 X17.8475 Y50.9470
G01 X17.8689 Y51.0327
G01 X17.8736 Y51.0564
G01 X17.8866 Y51.1437
G00 Z2.0000
G00 X17.0799 Y52.5517
G01 F200.00
G01 Z-0.0710
G01 F170.00
G01 X17.0252 Y52.5380
G01 X17.0799 Y52.5243
G01 X17.0799 Y52.5517
G00 Z2.0000
G00 X17.7336 Y53.7064
G01 F200.00
G01 Z-0.0710
G01 F170.00
G01 X17.7345 Y53.7153
G01 X17.7388 Y53.8035
G01 X17.7388 Y53.8125
G01 X17.7345 Y53.9007
G01 X17.7336 Y53.9096
G01 X17.7206 Y53.9969
G01 X17.7189 Y54.0057
G01 X17.6974 Y54.0914
G01 X17.6948 Y54.0999
G01 X17.6651 Y54.1831
G01 X17.6617 Y54.1913
G01 X17.6239 Y54.2712
G01 X17.6197 Y54.2790
G01 X17.5743 Y54.3548
G01 X17.5693 Y54.3622
G01 X17.5167 Y54.4332
G01 X17.5110 Y54.4401
G01 X17.4517 Y54.5055
G01 X17.4454 Y54.5118
G01 X17.3800 Y54.5711
G01 X17.3731 Y54.5768
G01 X17.3021 Y54.6294
G01 X17.2947 Y54.6344
G01 X17.2189 Y54.6798
G01 X17.2111 Y54.6840
G01 X17.1312 Y54.7218
G01 X17.1230 Y54.7252
G01 X17.0398 Y54.7549
G01 X17.0313 Y54.7575
G01 X16.9456 Y54.7790
G01 X16.9368 Y54.7807
G01 X16.8495 Y54.7937
G01 X16.8406 Y54.7946
G01 X16.7524 Y54.7989
G01 X16.7434 Y54.7989
G01 X16.6552 Y54.7946
G01 X16.6463 Y54.7937
G01 X16.5590 Y54.7807
G01 X16.5502 Y54.7790
G01 X16.4645 Y54.7575
G01 X16.4560 Y54.7549
G01 X16.3728 Y54.7252
G01 X16.3646 Y54.7218
G01 X16.2847 Y54.6840
G01 X16.2769 Y54.6798
G01 X16.2011 Y54.6344
G01 X16.1937 Y54.6294
G01 X16.1227 Y54.5768
G01 X16.1158 Y54.5711
G01 X16.0504 Y54.5118
G01 X16.0441 Y54.5055
G01 X15.9848 Y54.4401
G01 X15.9791 Y54.4332
G01 X15.9265 Y54.3622
G01 X15.9215 Y54.3548
G01 X15.8761 Y54.2790
G01 X15.8719 Y54.2712
G01 X15.8341 Y54.1913
G01 X15.8307 Y54.1831
G01 X15.8010 Y54.0999
G01 X15.7984 Y54.0914
G01 X15.7769 Y54.0057
G01 X15.7752 Y53.9969
G01 X15.7622 Y53.9096
G01 X15.7613 Y53.9007
G01 X15.7570 Y53.8125
G01 X15.7570 Y53.8035
G01 X15.7613 Y53.7153
G01 X15.7622 Y53.7064
G01 X15.7752 Y53.6191
G01 X15.7769 Y53.6103
G01 X15.7984 Y53.5246
G01 X15.8010 Y53.5161
G01 X15.8307 Y53.4329
G01 X15.8341 Y53.4247
G01 X15.8719 Y53.3448
G01 X15.8761 Y53.3370
G01 X15.9215 Y53.2612
G01 X15.9265 Y53.2538
G01 X15.9791 Y53.1828
G01 X15.9848 Y53.1759
G01 X16.0441 Y53.1105
G01 X16.0504 Y53.1042
G01 X16.1158 Y53.0449
G01 X16.1227 Y53.0392
G01 X16.1937 Y52.9866
G01 X16.2011 Y52.9816
G01 X16.2769 Y52.9362
G01 X16.2847 Y52.9320
G01 X16.3646 Y52.8942
G01 X16.3728 Y52.8908
G01 X16.4560 Y52.8611
G01 X16.4645 Y52.8585
G01 X16.5502 Y52.8370
G01 X16.5590 Y52.8353
G01 X16.6463 Y52.8223
G01 X16.6552 Y52.8214
G01 X16.7434 Y52.8171
G01 X16.7524 Y52.8171
G01 X16.8406 Y52.8214
G01 X16.8495 Y52.8223
G01 X16.9368 Y52.8353
G01 X16.9456 Y52.8370
G01 X17.0313 Y52.8585
G01 X17.0398 Y52.8611
G01 X17.1230 Y52.8908
G01 X17.1312 Y52.8942
G01 X17.2111 Y52.9320
G01 X17.2189 Y52.9362
G01 X17.2947 Y52.9816
G01 X17.3021 Y52.9866
G01 X17.3731 Y53.0392
G01 X17.3800 Y53.0449
G01 X17.4454 Y53.1042
G01 X17.4517 Y53.1105
G01 X17.5110 Y53.1759
G01 X17.5167 Y53.1828
G01 X17.5693 Y53.2538
G01 X17.5743 Y53.2612
G01 X17.6197 Y53.3370
G01 X17.6239 Y53.3448
G01 X17.6617 Y53.4247
G01 X17.6651 Y53.4329
G01 X17.6948 Y53.5161
G01 X17.6974 Y53.5246
G01 X17.7189 Y53.6103
G01 X17.7206 Y53.6191
G01 X17.7336 Y53.7064
G00 Z2.0000
G00 X17.8866 Y53.6837
G01 F200.00
G01 Z-0.0710
G01 F170.00
G01 X17.8890 Y53.7077
G01 X17.8933 Y53.7959
G01 X17.8933 Y53.8201
G01 X17.8890 Y53.9083
G01 X17.8866 Y53.9323
G01 X17.8736 Y54.0196
G01 X17.8689 Y54.0433
G01 X17.8475 Y54.1290
G01 X17.8405 Y54.1520
G01 X17.8107 Y54.2352
G01 X17.8015 Y54.2575
G01 X17.7637 Y54.3373
G01 X17.7524 Y54.3586
G01 X17.7070 Y54.4343
G01 X17.6936 Y54.4544
G01 X17.6410 Y54.5253
G01 X17.6257 Y54.5440
G01 X17.5663 Y54.6094
G01 X17.5493 Y54.6264
G01 X17.4839 Y54.6858
G01 X17.4652 Y54.7011
G01 X17.3943 Y54.7537
G01 X17.3742 Y54.7671
G01 X17.2985 Y54.8125
G01 X17.2772 Y54.8238
G01 X17.1974 Y54.8616
G01 X17.1751 Y54.8708
G01 X17.0919 Y54.9006
G01 X17.0689 Y54.9076
G01 X16.9832 Y54.9290
G01 X16.9595 Y54.9337
G01 X16.8722 Y54.9467
G01 X16.8482 Y54.9491
G01 X16.7600 Y54.9534
G01 X16.7358 Y54.9534
G01 X16.6476 Y54.9491
G01 X16.6236 Y54.9467
G01 X16.5363 Y54.9337
G01 X16.5126 Y54.9290
G01 X16.4269 Y54.9076
G01 X16.4039 Y54.9006
G01 X16.3207 Y54.8708
G01 X16.2984 Y54.8616
G01 X16.2186 Y54.8238
G01 X16.1973 Y54.8125
G01 X16.1216 Y54.7671
G01 X16.1015 Y54.7537
G01 X16.0306 Y54.7011
G01 X16.0119 Y54.6858
G01 X15.9465 Y54.6264
G01 X15.9295 Y54.6094
G01 X15.8701 Y54.5440
G01 X15.8548 Y54.5253
G01 X15.8022 Y54.4544
G01 X15.7888 Y54.4343
G01 X15.7434 Y54.3586
G01 X15.7321 Y54.3373
G01 X15.6943 Y54.2575
G01 X15.6851 Y54.2352
G01 X15.6553 Y54.1520
G01 X15.6483 Y54.1290
G01 X15.6269 Y54.0433
G01 X15.6222 Y54.0196
G01 X15.6092 Y53.9323
G01 X15.6068 Y53.9083
G01 X15.6025 Y53.8201
G01 X15.6025 Y53.7959
G01 X15.6068 Y53.7077
G01 X15.6092 Y53.6837
G01 X15.6222 Y53.5964
G01 X15.6269 Y53.5727
G01 X15.6483 Y53.4870
G01 X15.6553 Y53.4640
G01 X15.6851 Y53.3808
G01 X15.6943 Y53.3585
G01 X15.7321 Y53.2787
G01 X15.7434 Y53.2574
G01 X15.7888 Y53.1817
G01 X15.8022 Y53.1616
G01 X15.8548 Y53.0907
G01 X15.8701 Y53.0720
G01 X15.9295 Y53.0066
G01 X15.9465 Y52.9896
G01 X16.0119 Y52.9302
G01 X16.0306 Y52.9149
G01 X16.1015 Y52.8623
G01 X16.1216 Y52.8489
G01 X16.1973 Y52.8035
G01 X16.2186 Y52.7922
G01 X16.2984 Y52.7544
G01 X16.3207 Y52.7452
G01 X16.4039 Y52.7154
G01 X16.4269 Y52.7084
G01 X16.5126 Y52.6870
G01 X16.5363 Y52.6823
G01 X16.6236 Y52.6693
G01 X16.6476 Y52.6669
G01 X16.7358 Y52.6626
G01 X16.7600 Y52.6626
G01 X16.8482 Y52.6669
G01 X16.8722 Y52.6693
G01 X16.9595 Y52.6823
G01 X16.9832 Y52.6870
G01 X17.0689 Y52.7084
G01 X17.0919 Y52.7154
G01 X17.1751 Y52.7452
G01 X17.1974 Y52.7544
G01 X17.2772 Y52.7922
G01 X17.2985 Y52.8035
G01 X17.3742 Y52.8489
G01 X17.3943 Y52.8623
G01 X17.4652 Y52.9149
G01 X17.4839 Y52.9302
G01 X17.5493 Y52.9896
G01 X17.5663 Y53.0066
G01 X17.6257 Y53.0720
G01 X17.6410 Y53.0907
G01 X17.6936 Y53.1616
G01 X17.7070 Y53.1817
G01 X17.7524 Y53.2574
G01 X17.7637 Y53.2787
G01 X17.8015 Y53.3585
G01 X17.8107 Y53.3808
G01 X17.8405 Y53.4640
G01 X17.8475 Y53.4870
G01 X17.8689 Y53.5727
G01 X17.8736 Y53.5964
G01 X17.8866 Y53.6837
G00 Z2.0000
G00 X17.0252 Y55.0780
G01 F200.00
G01 Z-0.0710
G01 F170.00
G01 X17.0799 Y55.0643
G01 X17.0799 Y55.0917
G01 X17.0252 Y55.0780
G00 Z2.0000
G00 X17.7336 Y56.2464
G01 F200.00
G01 Z-0.0710
G01 F170.00
G01 X17.7345 Y56.2553
G01 X17.7388 Y56.3435
G01 X17.7388 Y56.3525
G01 X17.7345 Y56.4407
G01 X17.7336 Y56.4496
G01 X17.7206 Y56.5369
G01 X17.7189 Y56.5457
G01 X17.6974 Y56.6314
G01 X17.6948 Y56.6399
G01 X17.6651 Y56.7231
G01 X17.6617 Y56.7313
G01 X17.6239 Y56.8112
G01 X17.6197 Y56.8190
G01 X17.5743 Y56.8948
G01 X17.5693 Y56.9022
G01 X17.5167 Y56.9732
G01 X17.5110 Y56.9801
G01 X17.4517 Y57.0455
G01 X17.4454 Y57.0518
G01 X17.3800 Y57.1111
G01 X17.3731 Y57.1168
G01 X17.3021 Y57.1694
G01 X17.2947 Y57.1744
G01 X17.2189 Y57.2198
G01 X17.2111 Y57.2240
G01 X17.1312 Y57.2618
G01 X17.1230 Y57.2652
G01 X17.0398 Y57.2949
G01 X17.0313 Y57.2975
G01 X16.9456 Y57.3190
G01 X16.9368 Y57.3207
G01 X16.8495 Y57.3337
G01 X16.8406 Y57.3346
G01 X16.7524 Y57.3389
G01 X16.7434 Y57.3389
G01 X16.6552 Y57.3346
G01 X16.6463 Y57.3337
G01 X16.5590 Y57.3207
G01 X16.5502 Y57.3190
G01 X16.4645 Y57.2975
G01 X16.4560 Y57.2949
G01 X16.3728 Y57.2652
G01 X16.3646 Y57.2618
G01 X16.2847 Y57.2240
G01 X16.2769 Y57.2198
G01 X16.2011 Y57.1744
G01 X16.1937 Y57.1694
G01 X16.1227 Y57.1168
G01 X16.1158 Y57.1111
G01 X16.0504 Y57.0518
G01 X16.0441 Y57.0455
G01 X15.9848 Y56.9801
G01 X15.9791 Y56.9732
G01 X15.9265 Y56.9022
G01 X15.9215 Y56.8948
G01 X15.8761 Y56.8190
G01 X15.8719 Y56.8112
G01 X15.8341 Y56.7313
G01 X15.8307 Y56.7231
G01 X15.8010 Y56.6399
G01 X15.7984 Y56.6314
G01 X15.7769 Y56.5457
G01 X15.7752 Y56.5369
G01 X15.7622 Y56.4496
G01 X15.7613 Y56.4407
G01 X15.7570 Y56.3525
G01 X15.7570 Y56.3435
G01 X15.7613 Y56.2553
G01 X15.7622 Y56.2464
G01 X15.7752 Y56.1591
G01 X15.7769 Y56.1503
G01 X15.7984 Y56.0646
G01 X15.8010 Y56.0561
G01 X15.8307 Y55.9729
G01 X15.8341 Y55.9647
G01 X15.8719 Y55.8848
G01 X15.8761 Y55.8770
G01 X15.9215 Y55.8012
G01 X15.9265 Y55.7938
G01 X15.9791 Y55.7228
G01 X15.9848 Y55.7159
G01 X16.0441 Y55.6505
G01 X16.0504 Y55.6442
G01 X16.1158 Y55.5849
G01 X16.1227 Y55.5792
G01 X16.1937 Y55.5266
G01 X16.2011 Y55.5216
G01 X16.2769 Y55.4762
G01 X16.2847 Y55.4720
G01 X16.3646 Y55.4342
G01 X16.3728 Y55.4308
G01 X16.4560 Y55.4011
G01 X16.4645 Y55.3985
G01 X16.5502 Y55.3770
G01 X16.5590 Y55.3753
G01 X16.6463 Y55.3623
G01 X16.6552 Y55.3614
G01 X16.7434 Y55.3571
G01 X16.7524 Y55.3571
G01 X16.8406 Y55.3614
G01 X16.8495 Y55.3623
G01 X16.9368 Y55.3753
G01 X16.9456 Y55.3770
G01 X17.0313 Y55.3985
G01 X17.0398 Y55.4011
G01 X17.1230 Y55.4308
G01 X17.1312 Y55.4342
G01 X17.2111 Y55.4720
G01 X17.2189 Y55.4762
G01 X17.2947 Y55.5216
G01 X17.3021 Y55.5266
G01 X17.3731 Y55.5792
G01 X17.3800 Y55.5849
G01 X17.4454 Y55.6442
G01 X17.4517 Y55.6505
G01 X17.5110 Y55.7159
G01 X17.5167 Y55.7228
G01 X17.5693 Y55.7938
G01 X17.5743 Y55.8012
G01 X17.6197 Y55.8770
G01 X17.6239 Y55.8848
G01 X17.6617 Y55.9647
G01 X17.6651 Y55.9729
G01 X17.6948 Y56.0561
G01 X17.6974 Y56.0646
G01 X17.7189 Y56.1503
G01 X17.7206 Y56.1591
G01 X17.7336 Y56.2464
G00 Z2.0000
G00 X17.8866 Y56.2237
G01 F200.00
G01 Z-0.0710
G01 F170.00
G01 X17.8890 Y56.2477
G01 X17.8933 Y56.3359
G01 X17.8933 Y56.3601
G01 X17.8890 Y56.4483
G01 X17.8866 Y56.4723
G01 X17.8736 Y56.5596
G01 X17.8689 Y56.5833
G01 X17.8475 Y56.6690
G01 X17.8405 Y56.6920
G01 X17.8107 Y56.7752
G01 X17.8015 Y56.7975
G01 X17.7637 Y56.8773
G01 X17.7524 Y56.8986
G01 X17.7070 Y56.9743
G01 X17.6936 Y56.9944
G01 X17.6410 Y57.0653
G01 X17.6257 Y57.0840
G01 X17.5663 Y57.1494
G01 X17.5493 Y57.1664
G01 X17.4839 Y57.2258
G01 X17.4652 Y57.2411
G01 X17.3943 Y57.2937
G01 X17.3742 Y57.3071
G01 X17.2985 Y57.3525
G01 X17.2772 Y57.3638
G01 X17.1974 Y57.4016
G01 X17.1751 Y57.4108
G01 X17.0919 Y57.4406
G01 X17.0689 Y57.4476
G01 X16.9832 Y57.4690
G01 X16.9595 Y57.4737
G01 X16.8722 Y57.4867
G01 X16.8482 Y57.4891
G01 X16.7600 Y57.4934
G01 X16.7358 Y57.4934
G01 X16.6476 Y57.4891
G01 X16.6236 Y57.4867
G01 X16.5363 Y57.4737
G01 X16.5126 Y57.4690
G01 X16.4269 Y57.4476
G01 X16.4039 Y57.4406
G01 X16.3207 Y57.4108
G01 X16.2984 Y57.4016
G01 X16.2186 Y57.3638
G01 X16.1973 Y57.3525
G01 X16.1216 Y57.3071
G01 X16.1015 Y57.2937
G01 X16.0306 Y57.2411
G01 X16.0119 Y57.2258
G01 X15.9465 Y57.1664
G01 X15.9295 Y57.1494
G01 X15.8701 Y57.0840
G01 X15.8548 Y57.0653
G01 X15.8022 Y56.9944
G01 X15.7888 Y56.9743
G01 X15.7434 Y56.8986
G01 X15.7321 Y56.8773
G01 X15.6943 Y56.7975
G01 X15.6851 Y56.7752
G01 X15.6553 Y56.6920
G01 X15.6483 Y56.6690
G01 X15.6269 Y56.5833
G01 X15.6222 Y56.5596
G01 X15.6092 Y56.4723
G01 X15.6068 Y56.4483
G01 X15.6025 Y56.3601
G01 X15.6025 Y56.3359
G01 X15.6068 Y56.2477
G01 X15.6092 Y56.2237
G01 X15.6222 Y56.1364
G01 X15.6269 Y56.1127
G01 X15.6483 Y56.0270
G01 X15.6553 Y56.0040
G01 X15.6851 Y55.9208
G01 X15.6943 Y55.8985
G01 X15.7321 Y55.8187
G01 X15.7434 Y55.7974
G01 X15.7888 Y55.7217
G01 X15.8022 Y55.7016
G01 X15.8548 Y55.6307
G01 X15.8701 Y55.6120
G01 X15.9295 Y55.5466
G01 X15.9465 Y55.5296
G01 X16.0119 Y55.4702
G01 X16.0306 Y55.4549
G01 X16.1015 Y55.4023
G01 X16.1216 Y55.3889
G01 X16.1973 Y55.3435
G01 X16.2186 Y55.3322
G01 X16.2984 Y55.2944
G01 X16.3207 Y55.2852
G01 X16.4039 Y55.2554
G01 X16.4269 Y55.2484
G01 X16.5126 Y55.2270
G01 X16.5363 Y55.2223
G01 X16.6236 Y55.2093
G01 X16.6476 Y55.2069
G01 X16.7358 Y55.2026
G01 X16.7600 Y55.2026
G01 X16.8482 Y55.2069
G01 X16.8722 Y55.2093
G01 X16.9595 Y55.2223
G01 X16.9832 Y55.2270
G01 X17.0689 Y55.2484
G01 X17.0919 Y55.2554
G01 X17.1751 Y55.2852
G01 X17.1974 Y55.2944
G01 X17.2772 Y55.3322
G01 X17.2985 Y55.3435
G01 X17.3742 Y55.3889
G01 X17.3943 Y55.4023
G01 X17.4652 Y55.4549
G01 X17.4839 Y55.4702
G01 X17.5493 Y55.5296
G01 X17.5663 Y55.5466
G01 X17.6257 Y55.6120
G01 X17.6410 Y55.6307
G01 X17.6936 Y55.7016
G01 X17.7070 Y55.7217
G01 X17.7524 Y55.7974
G01 X17.7637 Y55.8187
G01 X17.8015 Y55.8985
G01 X17.8107 Y55.9208
G01 X17.8405 Y56.0040
G01 X17.8475 Y56.0270
G01 X17.8689 Y56.1127
G01 X17.8736 Y56.1364
G01 X17.8866 Y56.2237
G00 Z2.0000
G00 X17.0799 Y57.6317
G01 F200.00
G01 Z-0.0710
G01 F170.00
G01 X17.0252 Y57.6180
G01 X17.0799 Y57.6043
G01 X17.0799 Y57.6317
G00 Z2.0000
G00 X17.7336 Y58.7864
G01 F200.00
G01 Z-0.0710
G01 F170.00
G01 X17.7345 Y58.7953
G01 X17.7388 Y58.8835
G01 X17.7388 Y58.8925
G01 X17.7345 Y58.9807
G01 X17.7336 Y58.9896
G01 X17.7206 Y59.0769
G01 X17.7189 Y59.0857
G01 X17.6974 Y59.1714
G01 X17.6948 Y59.1799
G01 X17.6651 Y59.2631
G01 X17.6617 Y59.2713
G01 X17.6239 Y59.3512
G01 X17.6197 Y59.3590
G01 X17.5743 Y59.4348
G01 X17.5693 Y59.4422
G01 X17.5167 Y59.5132
G01 X17.5110 Y59.5201
G01 X17.4517 Y59.5855
G01 X17.4454 Y59.5918
G01 X17.3800 Y59.6511
G01 X17.3731 Y59.6568
G01 X17.3021 Y59.7094
G01 X17.2947 Y59.7144
G01 X17.2189 Y59.7598
G01 X17.2111 Y59.7640
G01 X17.1312 Y59.8018
G01 X17.1230 Y59.8052
G01 X17.0398 Y59.8349
G01 X17.0313 Y59.8375
G01 X16.9456 Y59.8590
G01 X16.9368 Y59.8607
G01 X16.8495 Y59.8737
G01 X16.8406 Y59.8746
G01 X16.7524 Y59.8789
G01 X16.7434 Y59.8789
G01 X16.6552 Y59.8746
G01 X16.6463 Y59.8737
G01 X16.5590 Y59.8607
G01 X16.5502 Y59.8590
G01 X16.4645 Y59.8375
G01 X16.4560 Y59.8349
G01 X16.3728 Y59.8052
G01 X16.3646 Y59.8018
G01 X16.2847 Y59.7640
G01 X16.2769 Y59.7598
G01 X16.2011 Y59.7144
G01 X16.1937 Y59.7094
G01 X16.1227 Y59.6568
G01 X16.1158 Y59.6511
G01 X16.0504 Y59.5918
G01 X16.0441 Y59.5855
G01 X15.9848 Y59.5201
G01 X15.9791 Y59.5132
G01 X15.9265 Y59.4422
G01 X15.9215 Y59.4348
G01 X15.8761 Y59.3590
G01 X15.8719 Y59.3512
G01 X15.8341 Y59.2713
G01 X15.8307 Y59.2631
G01 X15.8010 Y59.1799
G01 X15.7984 Y59.1714
G01 X15.7769 Y59.0857
G01 X15.7752 Y59.0769
G01 X15.7622 Y58.9896
G01 X15.7613 Y58.9807
G01 X15.7570 Y58.8925
G01 X15.7570 Y58.8835
G01 X15.7613 Y58.7953
G01 X15.7622 Y58.7864
G01 X15.7752 Y58.6991
G01 X15.7769 Y58.6903
G01 X15.7984 Y58.6046
G01 X15.8010 Y58.5961
G01 X15.8307 Y58.5129
G01 X15.8341 Y58.5047
G01 X15.8719 Y58.4248
G01 X15.8761 Y58.4170
G01 X15.9215 Y58.3412
G01 X15.9265 Y58.3338
G01 X15.9791 Y58.2628
G01 X15.9848 Y58.2559
G01 X16.0441 Y58.1905
G01 X16.0504 Y58.1842
G01 X16.1158 Y58.1249
G01 X16.1227 Y58.1192
G01 X16.1937 Y58.0666
G01 X16.2011 Y58.0616
G01 X16.2769 Y58.0162
G01 X16.2847 Y58.0120
G01 X16.3646 Y57.9742
G01 X16.3728 Y57.9708
G01 X16.4560 Y57.9411
G01 X16.4645 Y57.9385
G01 X16.5502 Y57.9170
G01 X16.5590 Y57.9153
G01 X16.6463 Y57.9023
G01 X16.6552 Y57.9014
G01 X16.7434 Y57.8971
G01 X16.7524 Y57.8971
G01 X16.8406 Y57.9014
G01 X16.8495 Y57.9023
G01 X16.9368 Y57.9153
G01 X16.9456 Y57.9170
G01 X17.0313 Y57.9385
G01 X17.0398 Y57.9411
G01 X17.1230 Y57.9708
G01 X17.1312 Y57.9742
G01 X17.2111 Y58.0120
G01 X17.2189 Y58.0162
G01 X17.2947 Y58.0616
G01 X17.3021 Y58.0666
G01 X17.3731 Y58.1192
G01 X17.3800 Y58.1249
G01 X17.4454 Y58.1842
G01 X17.4517 Y58.1905
G01 X17.5110 Y58.2559
G01 X17.5167 Y58.2628
G01 X17.5693 Y58.3338
G01 X17.5743 Y58.3412
G01 X17.6197 Y58.4170
G01 X17.6239 Y58.4248
G01 X17.6617 Y58.5047
G01 X17.6651 Y58.5129
G01 X17.6948 Y58.5961
G01 X17.6974 Y58.6046
G01 X17.7189 Y58.6903
G01 X17.7206 Y58.6991
G01 X17.7336 Y58.7864
G00 Z2.0000
G00 X17.8866 Y58.7637
G01 F200.00
G01 Z-0.0710
G01 F170.00
G01 X17.8890 Y58.7877
G01 X17.8933 Y58.8759
G01 X17.8933 Y58.9001
G01 X17.8890 Y58.9883
G01 X17.8866 Y59.0123
G01 X17.8736 Y59.0996
G01 X17.8689 Y59.1233
G01 X17.8475 Y59.2090
G01 X17.8405 Y59.2320
G01 X17.8107 Y59.3152
G01 X17.8015 Y59.3375
G01 X17.7637 Y59.4173
G01 X17.7524 Y59.4386
G01 X17.7070 Y59.5143
G01 X17.6936 Y59.5344
G01 X17.6410 Y59.6053
G01 X17.6257 Y59.6240
G01 X17.5663 Y59.6894
G01 X17.5493 Y59.7064
G01 X17.4839 Y59.7658
G01 X17.4652 Y59.7811
G01 X17.3943 Y59.8337
G01 X17.3742 Y59.8471
G01 X17.2985 Y59.8925
G01 X17.2772 Y59.9038
G01 X17.1974 Y59.9416
G01 X17.1751 Y59.9508
G01 X17.0919 Y59.9806
G01 X17.0689 Y59.9876
G01 X16.9832 Y60.0090
G01 X16.9595 Y60.0137
G01 X16.8722 Y60.0267
G01 X16.8482 Y60.0291
G01 X16.7600 Y60.0334
G01 X16.7358 Y60.0334
G01 X16.6476 Y60.0291
G01 X16.6236 Y60.0267
G01 X16.5363 Y60.0137
G01 X16.5126 Y60.0090
G01 X16.4269 Y59.9876
G01 X16.4039 Y59.9806
G01 X16.3207 Y59.9508
G01 X16.2984 Y59.9416
G01 X16.2186 Y59.9038
G01 X16.1973 Y59.8925
G01 X16.1216 Y59.8471
G01 X16.1015 Y59.8337
G01 X16.0306 Y59.7811
G01 X16.0119 Y59.7658
G01 X15.9465 Y59.7064
G01 X15.9295 Y59.6894
G01 X15.8701 Y59.6240
G01 X15.8548 Y59.6053
G01 X15.8022 Y59.5344
G01 X15.7888 Y59.5143
G01 X15.7434 Y59.4386
G01 X15.7321 Y59.4173
G01 X15.6943 Y59.3375
G01 X15.6851 Y59.3152
G01 X15.6553 Y59.2320
G01 X15.6483 Y59.2090
G01 X15.6269 Y59.1233
G01 X15.6222 Y59.0996
G01 X15.6092 Y59.0123
G01 X15.6068 Y58.9883
G01 X15.6025 Y58.9001
G01 X15.6025 Y58.8759
G01 X15.6068 Y58.7877
G01 X15.6092 Y58.7637
G01 X15.6222 Y58.6764
G01 X15.6269 Y58.6527
G01 X15.6483 Y58.5670
G01 X15.6553 Y58.5440
G01 X15.6851 Y58.4608
G01 X15.6943 Y58.4385
G01 X15.7321 Y58.3587
G01 X15.7434 Y58.3374
G01 X15.7888 Y58.2617
G01 X15.8022 Y58.2416
G01 X15.8548 Y58.1707
G01 X15.8701 Y58.1520
G01 X15.9295 Y58.0866
G01 X15.9465 Y58.0696
G01 X16.0119 Y58.0102
G01 X16.0306 Y57.9949
G01 X16.1015 Y57.9423
G01 X16.1216 Y57.9289
G01 X16.1973 Y57.8835
G01 X16.2186 Y57.8722
G01 X16.2984 Y57.8344
G01 X16.3207 Y57.8252
G01 X16.4039 Y57.7954
G01 X16.4269 Y57.7884
G01 X16.5126 Y57.7670
G01 X16.5363 Y57.7623
G01 X16.6236 Y57.7493
G01 X16.6476 Y57.7469
G01 X16.7358 Y57.7426
G01 X16.7600 Y57.7426
G01 X16.8482 Y57.7469
G01 X16.8722 Y57.7493
G01 X16.9595 Y57.7623
G01 X16.9832 Y57.7670
G01 X17.0689 Y57.7884
G01 X17.0919 Y57.7954
G01 X17.1751 Y57.8252
G01 X17.1974 Y57.8344
G01 X17.2772 Y57.8722
G01 X17.2985 Y57.8835
G01 X17.3742 Y57.9289
G01 X17.3943 Y57.9423
G01 X17.4652 Y57.9949
G01 X17.4839 Y58.0102
G01 X17.5493 Y58.0696
G01 X17.5663 Y58.0866
G01 X17.6257 Y58.1520
G01 X17.6410 Y58.1707
G01 X17.6936 Y58.2416
G01 X17.7070 Y58.2617
G01 X17.7524 Y58.3374
G01 X17.7637 Y58.3587
G01 X17.8015 Y58.4385
G01 X17.8107 Y58.4608
G01 X17.8405 Y58.5440
G01 X17.8475 Y58.5670
G01 X17.8689 Y58.6527
G01 X17.8736 Y58.6764
G01 X17.8866 Y58.7637
G00 Z2.0000
G00 X17.0252 Y60.1580
G01 F200.00
G01 Z-0.0710
G01 F170.00
G01 X17.0799 Y60.1443
G01 X17.0799 Y60.1717
G01 X17.0252 Y60.1580
G00 Z2.0000
G00 X17.7336 Y61.3264
G01 F200.00
G01 Z-0.0710
G01 F170.00
G01 X17.7345 Y61.3353
