(G-CODE GENERATED BY FLATCAM v8.994 - www.flatcam.org - Version Date: 2020/11/7)

(Name: Controle_Motor.GBL_cutout_cnc)
(Type: G-code from Geometry)
(Units: MM)

(Created on Wednesday, 24 February 2021 at 19:13)

(This preprocessor is the default preprocessor used by FlatCAM.)
(It is made to work with MACH3 compatible motion controllers.)

(TOOL DIAMETER: 1.5 mm)
(Feedrate_XY: 200.0 mm/min)
(Feedrate_Z: 60.0 mm/min)
(Feedrate rapids 1500.0 mm/min)

(Z_Cut: -2.0 mm)
(DepthPerCut: 0.6 mm <=>4 passes)
(Z_Move: 2.0 mm)
(Z Start: None mm)
(Z End: 20.0 mm)
(X,Y End: None mm)
(Steps per circle: 64)
(Preprocessor Geometry: default)

(X range:   -0.8500 ...   60.9210  mm)
(Y range:   -0.8500 ...  120.9920  mm)

(Spindle Speed: 1000.0 RPM)
G21
G90
G94

G01 F200.00

M5
G00 Z15.0000
G00 X0.0000 Y0.0000
T1
M6    
(MSG, Change to Tool Dia = 1.5000)
M0
G00 Z15.0000

M03 S1000.0
G01 F200.00
G00 X28.3855 Y-0.8500
G01 F60.00
G01 Z-0.6000
G01 F200.00
G01 X0.0000 Y-0.8500
G01 X-0.0833 Y-0.8459
G01 X-0.1658 Y-0.8337
G01 X-0.2467 Y-0.8134
G01 X-0.3253 Y-0.7853
G01 X-0.4007 Y-0.7496
G01 X-0.4722 Y-0.7067
G01 X-0.5392 Y-0.6571
G01 X-0.6010 Y-0.6010
G01 X-0.6571 Y-0.5392
G01 X-0.7067 Y-0.4722
G01 X-0.7496 Y-0.4007
G01 X-0.7853 Y-0.3253
G01 X-0.8134 Y-0.2467
G01 X-0.8337 Y-0.1658
G01 X-0.8459 Y-0.0833
G01 X-0.8500 Y0.0000
G01 X-0.8500 Y58.4210
G00 X-0.8500 Y58.4210
G01 F60.00
G01 Z-1.2000
G01 F200.00
G01 X-0.8500 Y0.0000
G01 X-0.8459 Y-0.0833
G01 X-0.8337 Y-0.1658
G01 X-0.8134 Y-0.2467
G01 X-0.7853 Y-0.3253
G01 X-0.7496 Y-0.4007
G01 X-0.7067 Y-0.4722
G01 X-0.6571 Y-0.5392
G01 X-0.6010 Y-0.6010
G01 X-0.5392 Y-0.6571
G01 X-0.4722 Y-0.7067
G01 X-0.4007 Y-0.7496
G01 X-0.3253 Y-0.7853
G01 X-0.2467 Y-0.8134
G01 X-0.1658 Y-0.8337
G01 X-0.0833 Y-0.8459
G01 X0.0000 Y-0.8500
G01 X28.3855 Y-0.8500
G00 X28.3855 Y-0.8500
G01 F60.00
G01 Z-1.8000
G01 F200.00
G01 X0.0000 Y-0.8500
G01 X-0.0833 Y-0.8459
G01 X-0.1658 Y-0.8337
G01 X-0.2467 Y-0.8134
G01 X-0.3253 Y-0.7853
G01 X-0.4007 Y-0.7496
G01 X-0.4722 Y-0.7067
G01 X-0.5392 Y-0.6571
G01 X-0.6010 Y-0.6010
G01 X-0.6571 Y-0.5392
G01 X-0.7067 Y-0.4722
G01 X-0.7496 Y-0.4007
G01 X-0.7853 Y-0.3253
G01 X-0.8134 Y-0.2467
G01 X-0.8337 Y-0.1658
G01 X-0.8459 Y-0.0833
G01 X-0.8500 Y0.0000
G01 X-0.8500 Y58.4210
G00 X-0.8500 Y58.4210
G01 F60.00
G01 Z-2.0000
G01 F200.00
G01 X-0.8500 Y0.0000
G01 X-0.8459 Y-0.0833
G01 X-0.8337 Y-0.1658
G01 X-0.8134 Y-0.2467
G01 X-0.7853 Y-0.3253
G01 X-0.7496 Y-0.4007
G01 X-0.7067 Y-0.4722
G01 X-0.6571 Y-0.5392
G01 X-0.6010 Y-0.6010
G01 X-0.5392 Y-0.6571
G01 X-0.4722 Y-0.7067
G01 X-0.4007 Y-0.7496
G01 X-0.3253 Y-0.7853
G01 X-0.2467 Y-0.8134
G01 X-0.1658 Y-0.8337
G01 X-0.0833 Y-0.8459
G01 X0.0000 Y-0.8500
G01 X28.3855 Y-0.8500
G00 Z2.0000
G00 X-0.8500 Y61.9210
G01 F60.00
G01 Z-0.6000
G01 F200.00
G01 X-0.8500 Y120.1420
G01 X-0.8459 Y120.2253
G01 X-0.8337 Y120.3078
G01 X-0.8134 Y120.3887
G01 X-0.7853 Y120.4673
G01 X-0.7496 Y120.5427
G01 X-0.7067 Y120.6142
G01 X-0.6571 Y120.6812
G01 X-0.6010 Y120.7430
G01 X-0.5392 Y120.7991
G01 X-0.4722 Y120.8487
G01 X-0.4007 Y120.8916
G01 X-0.3253 Y120.9273
G01 X-0.2467 Y120.9554
G01 X-0.1658 Y120.9757
G01 X-0.0833 Y120.9879
G01 X0.0000 Y120.9920
G01 X28.3855 Y120.9920
G00 X28.3855 Y120.9920
G01 F60.00
G01 Z-1.2000
G01 F200.00
G01 X0.0000 Y120.9920
G01 X-0.0833 Y120.9879
G01 X-0.1658 Y120.9757
G01 X-0.2467 Y120.9554
G01 X-0.3253 Y120.9273
G01 X-0.4007 Y120.8916
G01 X-0.4722 Y120.8487
G01 X-0.5392 Y120.7991
G01 X-0.6010 Y120.7430
G01 X-0.6571 Y120.6812
G01 X-0.7067 Y120.6142
G01 X-0.7496 Y120.5427
G01 X-0.7853 Y120.4673
G01 X-0.8134 Y120.3887
G01 X-0.8337 Y120.3078
G01 X-0.8459 Y120.2253
G01 X-0.8500 Y120.1420
G01 X-0.8500 Y61.9210
G00 X-0.8500 Y61.9210
G01 F60.00
G01 Z-1.8000
G01 F200.00
G01 X-0.8500 Y120.1420
G01 X-0.8459 Y120.2253
G01 X-0.8337 Y120.3078
G01 X-0.8134 Y120.3887
G01 X-0.7853 Y120.4673
G01 X-0.7496 Y120.5427
G01 X-0.7067 Y120.6142
G01 X-0.6571 Y120.6812
G01 X-0.6010 Y120.7430
G01 X-0.5392 Y120.7991
G01 X-0.4722 Y120.8487
G01 X-0.4007 Y120.8916
G01 X-0.3253 Y120.9273
G01 X-0.2467 Y120.9554
G01 X-0.1658 Y120.9757
G01 X-0.0833 Y120.9879
G01 X0.0000 Y120.9920
G01 X28.3855 Y120.9920
G00 X28.3855 Y120.9920
G01 F60.00
G01 Z-2.0000
G01 F200.00
G01 X0.0000 Y120.9920
G01 X-0.0833 Y120.9879
G01 X-0.1658 Y120.9757
G01 X-0.2467 Y120.9554
G01 X-0.3253 Y120.9273
G01 X-0.4007 Y120.8916
G01 X-0.4722 Y120.8487
G01 X-0.5392 Y120.7991
G01 X-0.6010 Y120.7430
G01 X-0.6571 Y120.6812
G01 X-0.7067 Y120.6142
G01 X-0.7496 Y120.5427
G01 X-0.7853 Y120.4673
G01 X-0.8134 Y120.3887
G01 X-0.8337 Y120.3078
G01 X-0.8459 Y120.2253
G01 X-0.8500 Y120.1420
G01 X-0.8500 Y61.9210
G00 Z2.0000
G00 X31.8855 Y120.9920
G01 F60.00
G01 Z-0.6000
G01 F200.00
G01 X60.0710 Y120.9920
G01 X60.1543 Y120.9879
G01 X60.2368 Y120.9757
G01 X60.3177 Y120.9554
G01 X60.3963 Y120.9273
G01 X60.4717 Y120.8916
G01 X60.5432 Y120.8487
G01 X60.6102 Y120.7991
G01 X60.6720 Y120.7430
G01 X60.7281 Y120.6812
G01 X60.7777 Y120.6142
G01 X60.8206 Y120.5427
G01 X60.8563 Y120.4673
G01 X60.8844 Y120.3887
G01 X60.9047 Y120.3078
G01 X60.9169 Y120.2253
G01 X60.9210 Y120.1420
G01 X60.9210 Y61.9210
G00 X60.9210 Y61.9210
G01 F60.00
G01 Z-1.2000
G01 F200.00
G01 X60.9210 Y120.1420
G01 X60.9169 Y120.2253
G01 X60.9047 Y120.3078
G01 X60.8844 Y120.3887
G01 X60.8563 Y120.4673
G01 X60.8206 Y120.5427
G01 X60.7777 Y120.6142
G01 X60.7281 Y120.6812
G01 X60.6720 Y120.7430
G01 X60.6102 Y120.7991
G01 X60.5432 Y120.8487
G01 X60.4717 Y120.8916
G01 X60.3963 Y120.9273
G01 X60.3177 Y120.9554
G01 X60.2368 Y120.9757
G01 X60.1543 Y120.9879
G01 X60.0710 Y120.9920
G01 X31.8855 Y120.9920
G00 X31.8855 Y120.9920
G01 F60.00
G01 Z-1.8000
G01 F200.00
G01 X60.0710 Y120.9920
G01 X60.1543 Y120.9879
G01 X60.2368 Y120.9757
G01 X60.3177 Y120.9554
G01 X60.3963 Y120.9273
G01 X60.4717 Y120.8916
G01 X60.5432 Y120.8487
G01 X60.6102 Y120.7991
G01 X60.6720 Y120.7430
G01 X60.7281 Y120.6812
G01 X60.7777 Y120.6142
G01 X60.8206 Y120.5427
G01 X60.8563 Y120.4673
G01 X60.8844 Y120.3887
G01 X60.9047 Y120.3078
G01 X60.9169 Y120.2253
G01 X60.9210 Y120.1420
G01 X60.9210 Y61.9210
G00 X60.9210 Y61.9210
G01 F60.00
G01 Z-2.0000
G01 F200.00
G01 X60.9210 Y120.1420
G01 X60.9169 Y120.2253
G01 X60.9047 Y120.3078
G01 X60.8844 Y120.3887
G01 X60.8563 Y120.4673
G01 X60.8206 Y120.5427
G01 X60.7777 Y120.6142
G01 X60.7281 Y120.6812
G01 X60.6720 Y120.7430
G01 X60.6102 Y120.7991
G01 X60.5432 Y120.8487
G01 X60.4717 Y120.8916
G01 X60.3963 Y120.9273
G01 X60.3177 Y120.9554
G01 X60.2368 Y120.9757
G01 X60.1543 Y120.9879
G01 X60.0710 Y120.9920
G01 X31.8855 Y120.9920
G00 Z2.0000
G00 X60.9210 Y58.4210
G01 F60.00
G01 Z-0.6000
G01 F200.00
G01 X60.9210 Y0.0000
G01 X60.9169 Y-0.0833
G01 X60.9047 Y-0.1658
G01 X60.8844 Y-0.2467
G01 X60.8563 Y-0.3253
G01 X60.8206 Y-0.4007
G01 X60.7777 Y-0.4722
G01 X60.7281 Y-0.5392
G01 X60.6720 Y-0.6010
G01 X60.6102 Y-0.6571
G01 X60.5432 Y-0.7067
G01 X60.4717 Y-0.7496
G01 X60.3963 Y-0.7853
G01 X60.3177 Y-0.8134
G01 X60.2368 Y-0.8337
G01 X60.1543 Y-0.8459
G01 X60.0710 Y-0.8500
G01 X31.8855 Y-0.8500
G00 X31.8855 Y-0.8500
G01 F60.00
G01 Z-1.2000
G01 F200.00
G01 X60.0710 Y-0.8500
G01 X60.1543 Y-0.8459
G01 X60.2368 Y-0.8337
G01 X60.3177 Y-0.8134
G01 X60.3963 Y-0.7853
G01 X60.4717 Y-0.7496
G01 X60.5432 Y-0.7067
G01 X60.6102 Y-0.6571
G01 X60.6720 Y-0.6010
G01 X60.7281 Y-0.5392
G01 X60.7777 Y-0.4722
G01 X60.8206 Y-0.4007
G01 X60.8563 Y-0.3253
G01 X60.8844 Y-0.2467
G01 X60.9047 Y-0.1658
G01 X60.9169 Y-0.0833
G01 X60.9210 Y0.0000
G01 X60.9210 Y58.4210
G00 X60.9210 Y58.4210
G01 F60.00
G01 Z-1.8000
G01 F200.00
G01 X60.9210 Y0.0000
G01 X60.9169 Y-0.0833
G01 X60.9047 Y-0.1658
G01 X60.8844 Y-0.2467
G01 X60.8563 Y-0.3253
G01 X60.8206 Y-0.4007
G01 X60.7777 Y-0.4722
G01 X60.7281 Y-0.5392
G01 X60.6720 Y-0.6010
G01 X60.6102 Y-0.6571
G01 X60.5432 Y-0.7067
G01 X60.4717 Y-0.7496
G01 X60.3963 Y-0.7853
G01 X60.3177 Y-0.8134
G01 X60.2368 Y-0.8337
G01 X60.1543 Y-0.8459
G01 X60.0710 Y-0.8500
G01 X31.8855 Y-0.8500
G00 X31.8855 Y-0.8500
G01 F60.00
G01 Z-2.0000
G01 F200.00
G01 X60.0710 Y-0.8500
G01 X60.1543 Y-0.8459
G01 X60.2368 Y-0.8337
G01 X60.3177 Y-0.8134
G01 X60.3963 Y-0.7853
G01 X60.4717 Y-0.7496
G01 X60.5432 Y-0.7067
G01 X60.6102 Y-0.6571
G01 X60.6720 Y-0.6010
G01 X60.7281 Y-0.5392
G01 X60.7777 Y-0.4722
G01 X60.8206 Y-0.4007
G01 X60.8563 Y-0.3253
G01 X60.8844 Y-0.2467
G01 X60.9047 Y-0.1658
G01 X60.9169 Y-0.0833
G01 X60.9210 Y0.0000
G01 X60.9210 Y58.4210
G00 Z2.0000
M05
G00 Z2.0000
G00 Z20.00


