(G-CODE GENERATED BY FLATCAM v8.994 - www.flatcam.org - Version Date: 2020/11/7)

(Name: Controle_Motor.TXT_cnc)
(Type: G-code from Geometry)
(Units: MM)

(Created on Wednesday, 24 February 2021 at 19:09)

(This preprocessor is the default preprocessor used by FlatCAM.)
(It is made to work with MACH3 compatible motion controllers.)


(TOOLS DIAMETER: )
(Tool: 1 -> Dia: 0.9)
(Tool: 2 -> Dia: 0.91)
(Tool: 3 -> Dia: 1.0)
(Tool: 4 -> Dia: 1.1)
(Tool: 5 -> Dia: 1.38)
(Tool: 6 -> Dia: 3.0)

(FEEDRATE Z: )
(Tool: 1 -> Feedrate: 150.0)
(Tool: 2 -> Feedrate: 150.0)
(Tool: 3 -> Feedrate: 150.0)
(Tool: 4 -> Feedrate: 300)
(Tool: 5 -> Feedrate: 300)
(Tool: 6 -> Feedrate: 300)

(FEEDRATE RAPIDS: )
(Tool: 1 -> Feedrate Rapids: 1500)
(Tool: 2 -> Feedrate Rapids: 1500)
(Tool: 3 -> Feedrate Rapids: 1500)
(Tool: 4 -> Feedrate Rapids: 1500)
(Tool: 5 -> Feedrate Rapids: 1500)
(Tool: 6 -> Feedrate Rapids: 1500)

(Z_CUT: )
(Tool: 1 -> Z_Cut: -3.0)
(Tool: 2 -> Z_Cut: -3.0)
(Tool: 3 -> Z_Cut: -3.0)
(Tool: 4 -> Z_Cut: -1.7)
(Tool: 5 -> Z_Cut: -1.7)
(Tool: 6 -> Z_Cut: -1.7)

(Tools Offset: )
(Tool: 1 -> Offset Z: 0.0)
(Tool: 2 -> Offset Z: 0.0)
(Tool: 3 -> Offset Z: 0.0)

(Z_MOVE: )
(Tool: 1 -> Z_Move: 2)
(Tool: 2 -> Z_Move: 2)
(Tool: 3 -> Z_Move: 2)
(Tool: 4 -> Z_Move: 2)
(Tool: 5 -> Z_Move: 2)
(Tool: 6 -> Z_Move: 2)

(Z Toolchange: 15 mm)
(X,Y Toolchange: 0.0000, 0.0000 mm)
(Z Start: None mm)
(Z End: 20.0 mm)
(X,Y End: None mm)
(Steps per circle: 64)
(Preprocessor Excellon: default)

(X range:    2.0670 ...   57.6450  mm)
(Y range:    2.1830 ...  118.0860  mm)

(Spindle Speed: 1000 RPM)
G21
G90
G94

G01 F150.00

M5
G00 Z15.0000
T1
G00 X0.0000 Y0.0000                
M6
(MSG, Change to Tool Dia = 0.9000 ||| Total drills for tool T1 = 55)
M0
G00 Z15.0000

G01 F150.00
M03 S1000
G00 X53.7320 Y44.4499
G01 Z-3.0000
G01 Z0
G00 Z2.0000
G00 X51.1920 Y44.4501
G01 Z-3.0000
G01 Z0
G00 Z2.0000
G00 X43.3310 Y48.4740
G01 Z-3.0000
G01 Z0
G00 Z2.0000
G00 X43.3310 Y45.9340
G01 Z-3.0000
G01 Z0
G00 Z2.0000
G00 X43.3310 Y43.3940
G01 Z-3.0000
G01 Z0
G00 Z2.0000
G00 X43.3310 Y40.8540
G01 Z-3.0000
G01 Z0
G00 Z2.0000
G00 X43.3310 Y38.3140
G01 Z-3.0000
G01 Z0
G00 Z2.0000
G00 X43.3310 Y35.7740
G01 Z-3.0000
G01 Z0
G00 Z2.0000
G00 X43.3310 Y33.2340
G01 Z-3.0000
G01 Z0
G00 Z2.0000
G00 X43.3310 Y30.7340
G01 Z-3.0000
G01 Z0
G00 Z2.0000
G00 X17.1560 Y30.7340
G01 Z-3.0000
G01 Z0
G00 Z2.0000
G00 X17.1560 Y33.2340
G01 Z-3.0000
G01 Z0
G00 Z2.0000
G00 X17.1560 Y35.7740
G01 Z-3.0000
G01 Z0
G00 Z2.0000
G00 X17.1560 Y38.3140
G01 Z-3.0000
G01 Z0
G00 Z2.0000
G00 X17.1560 Y40.8540
G01 Z-3.0000
G01 Z0
G00 Z2.0000
G00 X17.1560 Y43.3940
G01 Z-3.0000
G01 Z0
G00 Z2.0000
G00 X17.1560 Y45.9340
G01 Z-3.0000
G01 Z0
G00 Z2.0000
G00 X17.1560 Y48.4740
G01 Z-3.0000
G01 Z0
G00 Z2.0000
G00 X17.1560 Y51.0140
G01 Z-3.0000
G01 Z0
G00 Z2.0000
G00 X17.1560 Y53.5540
G01 Z-3.0000
G01 Z0
G00 Z2.0000
G00 X17.1560 Y56.0940
G01 Z-3.0000
G01 Z0
G00 Z2.0000
G00 X17.1560 Y58.6340
G01 Z-3.0000
G01 Z0
G00 Z2.0000
G00 X17.1560 Y61.1740
G01 Z-3.0000
G01 Z0
G00 Z2.0000
G00 X17.1560 Y63.7140
G01 Z-3.0000
G01 Z0
G00 Z2.0000
G00 X17.1560 Y66.2540
G01 Z-3.0000
G01 Z0
G00 Z2.0000
G00 X13.6000 Y75.3110
G01 Z-3.0000
G01 Z0
G00 Z2.0000
G00 X8.1390 Y75.3110
G01 Z-3.0000
G01 Z0
G00 Z2.0000
G00 X8.1390 Y85.4710
G01 Z-3.0000
G01 Z0
G00 Z2.0000
G00 X13.6000 Y85.4710
G01 Z-3.0000
G01 Z0
G00 Z2.0000
G00 X10.5520 Y97.2820
G01 Z-3.0000
G01 Z0
G00 Z2.0000
G00 X10.5520 Y102.1080
G01 Z-3.0000
G01 Z0
G00 Z2.0000
G00 X20.7120 Y102.1080
G01 Z-3.0000
G01 Z0
G00 Z2.0000
G00 X20.7120 Y97.2820
G01 Z-3.0000
G01 Z0
G00 Z2.0000
G00 X32.5230 Y98.2980
G01 Z-3.0000
G01 Z0
G00 Z2.0000
G00 X38.2380 Y98.4250
G01 Z-3.0000
G01 Z0
G00 Z2.0000
G00 X45.6040 Y98.1710
G01 Z-3.0000
G01 Z0
G00 Z2.0000
G00 X51.3190 Y98.0440
G01 Z-3.0000
G01 Z0
G00 Z2.0000
G00 X51.3190 Y87.8840
G01 Z-3.0000
G01 Z0
G00 Z2.0000
G00 X50.3030 Y84.0740
G01 Z-3.0000
G01 Z0
G00 Z2.0000
G00 X50.3030 Y81.5340
G01 Z-3.0000
G01 Z0
G00 Z2.0000
G00 X50.3030 Y78.9940
G01 Z-3.0000
G01 Z0
G00 Z2.0000
G00 X45.6040 Y88.0110
G01 Z-3.0000
G01 Z0
G00 Z2.0000
G00 X38.2380 Y88.2650
G01 Z-3.0000
G01 Z0
G00 Z2.0000
G00 X32.5230 Y88.1380
G01 Z-3.0000
G01 Z0
G00 Z2.0000
G00 X33.0310 Y82.1690
G01 Z-3.0000
G01 Z0
G00 Z2.0000
G00 X35.5710 Y82.1690
G01 Z-3.0000
G01 Z0
G00 Z2.0000
G00 X43.3310 Y66.2540
G01 Z-3.0000
G01 Z0
G00 Z2.0000
G00 X43.3310 Y63.7140
G01 Z-3.0000
G01 Z0
G00 Z2.0000
G00 X43.3310 Y61.1740
G01 Z-3.0000
G01 Z0
G00 Z2.0000
G00 X43.3310 Y58.6340
G01 Z-3.0000
G01 Z0
G00 Z2.0000
G00 X43.3310 Y56.0940
G01 Z-3.0000
G01 Z0
G00 Z2.0000
G00 X43.3310 Y53.5540
G01 Z-3.0000
G01 Z0
G00 Z2.0000
G00 X43.3310 Y51.0140
G01 Z-3.0000
G01 Z0
G00 Z2.0000
G00 X53.7320 Y64.7700
G01 Z-3.0000
G01 Z0
G00 Z2.0000
G00 X53.7320 Y54.6100
G01 Z-3.0000
G01 Z0
G00 Z2.0000
M05
G00 Z20.00


