(G-CODE GENERATED BY FLATCAM v8.994 - www.flatcam.org - Version Date: 2020/11/7)

(Name: Controle_Motor.GBL_iso_combined_cnc)
(Type: G-code from Geometry)
(Units: MM)

(Created on Wednesday, 24 February 2021 at 20:34)

(This preprocessor is the default preprocessor used by FlatCAM.)
(It is made to work with MACH3 compatible motion controllers.)

(TOOL DIAMETER: 0.1 mm)
(Feedrate_XY: 400.0 mm/min)
(Feedrate_Z: 150.0 mm/min)
(Feedrate rapids 1500.0 mm/min)

(Z_Cut: 0.0 mm)
(Z_Move: 2.0 mm)
(Z Start: None mm)
(Z End: 20.0 mm)
(X,Y End: None mm)
(Steps per circle: 64)
(Preprocessor Geometry: default)

(X range:   -0.2200 ...   60.2910  mm)
(Y range:   -0.2200 ...  120.3620  mm)

(Spindle Speed: 1000.0 RPM)
G21
G90
G94

G01 F400.00

M5
G00 Z15.0000
G00 X0.0000 Y0.0000
T1
M6    
(MSG, Change to Tool Dia = 0.1000)
M0
G00 Z15.0000

M03 S1000.0
G01 F400.00
G00 X5.0982 Y3.5286
G01 F150.00
G01 Z0.0000
G01 F400.00
G01 X5.1060 Y3.6830
G01 X5.0985 Y3.8349
G01 X5.0762 Y3.9854
G01 X5.0393 Y4.1329
G01 X4.9880 Y4.2762
G01 X4.9230 Y4.4137
G01 X4.8448 Y4.5441
G01 X4.7542 Y4.6663
G01 X4.6520 Y4.7790
G01 X4.5393 Y4.8812
G01 X4.4171 Y4.9718
G01 X4.2867 Y5.0500
G01 X4.1492 Y5.1150
G01 X4.0059 Y5.1663
G01 X3.8584 Y5.2032
G01 X3.7079 Y5.2255
G01 X3.5560 Y5.2330
G01 X3.4041 Y5.2255
G01 X3.2536 Y5.2032
G01 X3.1061 Y5.1663
G01 X2.9628 Y5.1150
G01 X2.8253 Y5.0500
G01 X2.6949 Y4.9718
G01 X2.5727 Y4.8812
G01 X2.4600 Y4.7790
G01 X2.3578 Y4.6663
G01 X2.2672 Y4.5441
G01 X2.1890 Y4.4137
G01 X2.1240 Y4.2762
G01 X2.0727 Y4.1329
G01 X2.0358 Y3.9854
G01 X2.0135 Y3.8349
G01 X2.0060 Y3.6830
G01 X2.0135 Y3.5311
G01 X2.0358 Y3.3806
G01 X2.0727 Y3.2331
G01 X2.1240 Y3.0898
G01 X2.1890 Y2.9523
G01 X2.2672 Y2.8219
G01 X2.3578 Y2.6997
G01 X2.4600 Y2.5870
G01 X2.5727 Y2.4848
G01 X2.6949 Y2.3942
G01 X2.8253 Y2.3160
G01 X2.9628 Y2.2510
G01 X3.1061 Y2.1997
G01 X3.2536 Y2.1628
G01 X3.4041 Y2.1405
G01 X3.5560 Y2.1330
G01 X3.7079 Y2.1405
G01 X3.8584 Y2.1628
G01 X4.0059 Y2.1997
G01 X4.1492 Y2.2510
G01 X4.2867 Y2.3160
G01 X4.4171 Y2.3942
G01 X4.5393 Y2.4848
G01 X4.6520 Y2.5870
G01 X4.7542 Y2.6997
G01 X4.8448 Y2.8219
G01 X4.9230 Y2.9523
G01 X4.9880 Y3.0898
G01 X5.0393 Y3.2331
G01 X5.0762 Y3.3806
G01 X5.0982 Y3.5286
G00 Z2.0000
G00 X5.1823 Y3.5162
G01 F150.00
G01 Z0.0000
G01 F400.00
G01 X5.1836 Y3.5294
G01 X5.1910 Y3.6830
G01 X5.1831 Y3.8433
G01 X5.1596 Y4.0020
G01 X5.1206 Y4.1576
G01 X5.0665 Y4.3087
G01 X4.9979 Y4.4537
G01 X4.9155 Y4.5914
G01 X4.8199 Y4.7202
G01 X4.7121 Y4.8391
G01 X4.5932 Y4.9469
G01 X4.4644 Y5.0425
G01 X4.3267 Y5.1249
G01 X4.1817 Y5.1935
G01 X4.0306 Y5.2476
G01 X3.8750 Y5.2866
G01 X3.7163 Y5.3101
G01 X3.5560 Y5.3180
G01 X3.3957 Y5.3101
G01 X3.2370 Y5.2866
G01 X3.0814 Y5.2476
G01 X2.9303 Y5.1935
G01 X2.7853 Y5.1249
G01 X2.6476 Y5.0425
G01 X2.5188 Y4.9469
G01 X2.3999 Y4.8391
G01 X2.2921 Y4.7202
G01 X2.1965 Y4.5914
G01 X2.1141 Y4.4537
G01 X2.0455 Y4.3087
G01 X1.9914 Y4.1576
G01 X1.9524 Y4.0020
G01 X1.9289 Y3.8433
G01 X1.9210 Y3.6830
G01 X1.9289 Y3.5227
G01 X1.9524 Y3.3640
G01 X1.9914 Y3.2084
G01 X2.0455 Y3.0573
G01 X2.1141 Y2.9123
G01 X2.1965 Y2.7746
G01 X2.2921 Y2.6458
G01 X2.3999 Y2.5269
G01 X2.5188 Y2.4191
G01 X2.6476 Y2.3235
G01 X2.7853 Y2.2411
G01 X2.9303 Y2.1725
G01 X3.0814 Y2.1184
G01 X3.2370 Y2.0794
G01 X3.3957 Y2.0559
G01 X3.5560 Y2.0480
G01 X3.7163 Y2.0559
G01 X3.8750 Y2.0794
G01 X4.0306 Y2.1184
G01 X4.1817 Y2.1725
G01 X4.3267 Y2.2411
G01 X4.4644 Y2.3235
G01 X4.5932 Y2.4191
G01 X4.7121 Y2.5269
G01 X4.8199 Y2.6458
G01 X4.9155 Y2.7746
G01 X4.9979 Y2.9123
G01 X5.0665 Y3.0573
G01 X5.1206 Y3.2084
G01 X5.1596 Y3.3640
G01 X5.1823 Y3.5162
G00 Z2.0000
G00 X5.2664 Y3.5037
G01 F150.00
G01 Z0.0000
G01 F400.00
G01 X5.2677 Y3.5144
G01 X5.2685 Y3.5252
G01 X5.2760 Y3.6830
G01 X5.2757 Y3.6938
G01 X5.2677 Y3.8516
G01 X5.2448 Y4.0079
G01 X5.2430 Y4.0186
G01 X5.2406 Y4.0291
G01 X5.2019 Y4.1823
G01 X5.1986 Y4.1925
G01 X5.1451 Y4.3412
G01 X5.0778 Y4.4842
G01 X5.0729 Y4.4938
G01 X5.0676 Y4.5032
G01 X4.9861 Y4.6386
G01 X4.9799 Y4.6474
G01 X4.8856 Y4.7742
G01 X4.7797 Y4.8914
G01 X4.7722 Y4.8992
G01 X4.7644 Y4.9067
G01 X4.6472 Y5.0126
G01 X4.5204 Y5.1069
G01 X4.5116 Y5.1131
G01 X4.3762 Y5.1946
G01 X4.3668 Y5.1999
G01 X4.3572 Y5.2048
G01 X4.2142 Y5.2721
G01 X4.2041 Y5.2760
G01 X4.0553 Y5.3289
G01 X3.9021 Y5.3676
G01 X3.8916 Y5.3700
G01 X3.8809 Y5.3718
G01 X3.7246 Y5.3947
G01 X3.5668 Y5.4027
G01 X3.5560 Y5.4030
G01 X3.5452 Y5.4027
G01 X3.3874 Y5.3947
G01 X3.2311 Y5.3718
G01 X3.2204 Y5.3700
G01 X3.2099 Y5.3676
G01 X3.0567 Y5.3289
G01 X3.0465 Y5.3256
G01 X2.8978 Y5.2721
G01 X2.7548 Y5.2048
G01 X2.7452 Y5.1999
G01 X2.7358 Y5.1946
G01 X2.6004 Y5.1131
G01 X2.5916 Y5.1069
G01 X2.4648 Y5.0126
G01 X2.3476 Y4.9067
G01 X2.3398 Y4.8992
G01 X2.3323 Y4.8914
G01 X2.2264 Y4.7742
G01 X2.1321 Y4.6474
G01 X2.1259 Y4.6386
G01 X2.0444 Y4.5032
G01 X2.0391 Y4.4938
G01 X2.0342 Y4.4842
G01 X1.9669 Y4.3412
G01 X1.9630 Y4.3311
G01 X1.9101 Y4.1823
G01 X1.8714 Y4.0291
G01 X1.8690 Y4.0186
G01 X1.8672 Y4.0079
G01 X1.8443 Y3.8516
G01 X1.8363 Y3.6938
G01 X1.8360 Y3.6830
G01 X1.8363 Y3.6722
G01 X1.8443 Y3.5144
G01 X1.8672 Y3.3581
G01 X1.8690 Y3.3474
G01 X1.8714 Y3.3369
G01 X1.9101 Y3.1837
G01 X1.9134 Y3.1735
G01 X1.9669 Y3.0248
G01 X2.0342 Y2.8818
G01 X2.0391 Y2.8722
G01 X2.0444 Y2.8628
G01 X2.1259 Y2.7274
G01 X2.1321 Y2.7186
G01 X2.2264 Y2.5918
G01 X2.3323 Y2.4746
G01 X2.3398 Y2.4668
G01 X2.3476 Y2.4593
G01 X2.4648 Y2.3534
G01 X2.5916 Y2.2591
G01 X2.6004 Y2.2529
G01 X2.7358 Y2.1714
G01 X2.7452 Y2.1661
G01 X2.7548 Y2.1612
G01 X2.8978 Y2.0939
G01 X2.9079 Y2.0900
G01 X3.0567 Y2.0371
G01 X3.2099 Y1.9984
G01 X3.2204 Y1.9960
G01 X3.2311 Y1.9942
G01 X3.3874 Y1.9713
G01 X3.5452 Y1.9633
G01 X3.5560 Y1.9630
G01 X3.5668 Y1.9633
G01 X3.7246 Y1.9713
G01 X3.8809 Y1.9942
G01 X3.8916 Y1.9960
G01 X3.9021 Y1.9984
G01 X4.0553 Y2.0371
G01 X4.0655 Y2.0404
G01 X4.2142 Y2.0939
G01 X4.3572 Y2.1612
G01 X4.3668 Y2.1661
G01 X4.3762 Y2.1714
G01 X4.5116 Y2.2529
G01 X4.5204 Y2.2591
G01 X4.6472 Y2.3534
G01 X4.7644 Y2.4593
G01 X4.7722 Y2.4668
G01 X4.7797 Y2.4746
G01 X4.8856 Y2.5918
G01 X4.9799 Y2.7186
G01 X4.9861 Y2.7274
G01 X5.0676 Y2.8628
G01 X5.0729 Y2.8722
G01 X5.0778 Y2.8818
G01 X5.1451 Y3.0248
G01 X5.1490 Y3.0349
G01 X5.2019 Y3.1837
G01 X5.2406 Y3.3369
G01 X5.2430 Y3.3474
G01 X5.2664 Y3.5037
G00 Z2.0000
G00 X3.3807 Y5.4630
G01 F150.00
G01 Z0.0000
G01 F400.00
G01 X3.0368 Y5.3946
G01 X2.7129 Y5.2604
G01 X2.4213 Y5.0656
G01 X2.1734 Y4.8176
G01 X1.9786 Y4.5262
G01 X1.8444 Y4.2022
G01 X1.7760 Y3.8583
G01 X1.7760 Y3.5077
G01 X1.8444 Y3.1638
G01 X1.9786 Y2.8399
G01 X2.1734 Y2.5483
G01 X2.4213 Y2.3004
G01 X2.7129 Y2.1056
G01 X3.0368 Y1.9714
G01 X3.3807 Y1.9030
G01 X3.7313 Y1.9030
G01 X4.0752 Y1.9714
G01 X4.3992 Y2.1056
G01 X4.6906 Y2.3004
G01 X4.9386 Y2.5483
G01 X5.1334 Y2.8399
G01 X5.2676 Y3.1638
G01 X5.3360 Y3.5077
G01 X5.3360 Y3.8583
G01 X5.2676 Y4.2022
G01 X5.1334 Y4.5262
G01 X4.9386 Y4.8176
G01 X4.6906 Y5.0656
G01 X4.3992 Y5.2604
G01 X4.0752 Y5.3946
G01 X3.7313 Y5.4630
G01 X3.3807 Y5.4630
G00 Z2.0000
G00 X3.3723 Y5.5480
G01 F150.00
G01 Z0.0000
G01 F400.00
G01 X3.0120 Y5.4763
G01 X2.6726 Y5.3358
G01 X2.3672 Y5.1316
G01 X2.1074 Y4.8718
G01 X1.9032 Y4.5665
G01 X1.7627 Y4.2270
G01 X1.6910 Y3.8667
G01 X1.6910 Y3.4993
G01 X1.7627 Y3.1390
G01 X1.9032 Y2.7996
G01 X2.1074 Y2.4942
G01 X2.3672 Y2.2344
G01 X2.6726 Y2.0302
G01 X3.0120 Y1.8897
G01 X3.3723 Y1.8180
G01 X3.7397 Y1.8180
G01 X4.1000 Y1.8897
G01 X4.4395 Y2.0302
G01 X4.7448 Y2.2344
G01 X5.0046 Y2.4942
G01 X5.2088 Y2.7996
G01 X5.3493 Y3.1390
G01 X5.4210 Y3.4993
G01 X5.4210 Y3.8667
G01 X5.3493 Y4.2270
G01 X5.2088 Y4.5665
G01 X5.0046 Y4.8718
G01 X4.7448 Y5.1316
G01 X4.4395 Y5.3358
G01 X4.1000 Y5.4763
G01 X3.7397 Y5.5480
G01 X3.3723 Y5.5480
G00 Z2.0000
G00 X3.3639 Y5.6330
G01 F150.00
G01 Z0.0000
G01 F400.00
G01 X2.9872 Y5.5580
G01 X2.6324 Y5.4111
G01 X2.3130 Y5.1977
G01 X2.0413 Y4.9260
G01 X1.8279 Y4.6067
G01 X1.6810 Y4.2518
G01 X1.6060 Y3.8751
G01 X1.6060 Y3.4909
G01 X1.6810 Y3.1142
G01 X1.8279 Y2.7594
G01 X2.0413 Y2.4400
G01 X2.3130 Y2.1683
G01 X2.6324 Y1.9549
G01 X2.9872 Y1.8080
G01 X3.3639 Y1.7330
G01 X3.7481 Y1.7330
G01 X4.1248 Y1.8080
G01 X4.4797 Y1.9549
G01 X4.7990 Y2.1683
G01 X5.0707 Y2.4400
G01 X5.2841 Y2.7594
G01 X5.4310 Y3.1142
G01 X5.5060 Y3.4909
G01 X5.5060 Y3.8751
G01 X5.4310 Y4.2518
G01 X5.2841 Y4.6067
G01 X5.0707 Y4.9260
G01 X4.7990 Y5.1977
G01 X4.4797 Y5.4111
G01 X4.1248 Y5.5580
G01 X3.7481 Y5.6330
G01 X3.3639 Y5.6330
G00 Z2.0000
G00 X12.1813 Y14.7196
G01 F150.00
G01 Z0.0000
G01 F400.00
G01 X12.0906 Y14.7150
G01 X11.9966 Y14.7012
G01 X11.9836 Y14.6987
G01 X11.8916 Y14.6754
G01 X11.8021 Y14.6436
G01 X11.7899 Y14.6385
G01 X11.7041 Y14.5978
G01 X11.6226 Y14.5491
G01 X11.6116 Y14.5418
G01 X11.5354 Y14.4851
G01 X11.4649 Y14.4214
G01 X11.4556 Y14.4121
G01 X11.3963 Y14.3466
G01 X11.3879 Y14.3364
G01 X11.3314 Y14.2600
G01 X11.2825 Y14.1787
G01 X11.2762 Y14.1670
G01 X11.2358 Y14.0811
G01 X11.2016 Y13.9854
G01 X11.1769 Y13.8869
G01 X11.1620 Y13.7864
G01 X11.1570 Y13.6850
G01 X11.1570 Y12.9850
G01 X11.1620 Y12.8836
G01 X11.1769 Y12.7831
G01 X11.2016 Y12.6846
G01 X11.2358 Y12.5889
G01 X11.2792 Y12.4971
G01 X11.3314 Y12.4100
G01 X11.3919 Y12.3284
G01 X11.4601 Y12.2531
G01 X11.5354 Y12.1849
G01 X11.6170 Y12.1244
G01 X11.7041 Y12.0722
G01 X11.7959 Y12.0288
G01 X11.8916 Y11.9946
G01 X11.9901 Y11.9699
G01 X12.0906 Y11.9550
G01 X12.1920 Y11.9500
G01 X12.2868 Y11.9545
G01 X12.3000 Y11.9558
G01 X12.3939 Y11.9699
G01 X12.4861 Y11.9928
G01 X12.4987 Y11.9966
G01 X12.5881 Y12.0288
G01 X12.6799 Y12.0722
G01 X12.7614 Y12.1209
G01 X12.7724 Y12.1282
G01 X12.8486 Y12.1849
G01 X12.9191 Y12.2486
G01 X12.9284 Y12.2579
G01 X12.9921 Y12.3284
G01 X13.0488 Y12.4046
G01 X13.0544 Y12.4128
G01 X13.1015 Y12.4913
G01 X13.1078 Y12.5030
G01 X13.1482 Y12.5889
G01 X13.1804 Y12.6783
G01 X13.1842 Y12.6909
G01 X13.2071 Y12.7831
G01 X13.2220 Y12.8836
G01 X13.2270 Y12.9850
G01 X13.2270 Y13.6883
G01 X13.2225 Y13.7798
G01 X13.2217 Y13.7897
G01 X13.2077 Y13.8837
G01 X13.2057 Y13.8934
G01 X13.1949 Y13.9365
G01 X14.0222 Y14.7638
G01 X14.0597 Y14.8050
G01 X14.0661 Y14.8126
G01 X14.1012 Y14.8601
G01 X14.1300 Y14.9078
G01 X14.1362 Y14.9195
G01 X14.1572 Y14.9638
G01 X14.1623 Y14.9761
G01 X14.1809 Y15.0286
G01 X14.1960 Y15.0891
G01 X14.2052 Y15.1507
G01 X14.2081 Y15.2064
G01 X14.2083 Y62.7053
G01 X14.2127 Y62.7243
G01 X14.2208 Y62.7794
G01 X14.2217 Y62.7893
G01 X14.2241 Y62.8384
G01 X14.2243 Y63.1091
G01 X16.3339 Y65.2187
G01 X17.8200 Y65.2190
G01 X17.8487 Y65.2202
G01 X17.8619 Y65.2215
G01 X17.8870 Y65.2253
G01 X17.8967 Y65.2274
G01 X17.9181 Y65.2327
G01 X17.9277 Y65.2355
G01 X17.9516 Y65.2440
G01 X17.9608 Y65.2477
G01 X17.9897 Y65.2615
G01 X18.0200 Y65.2797
G01 X18.0484 Y65.3007
G01 X18.0722 Y65.3221
G01 X18.0791 Y65.3292
G01 X18.0983 Y65.3506
G01 X18.1175 Y65.3763
G01 X18.1229 Y65.3846
G01 X18.1359 Y65.4064
G01 X18.1405 Y65.4152
G01 X18.1499 Y65.4352
G01 X18.1550 Y65.4474
G01 X18.1635 Y65.4713
G01 X18.1663 Y65.4809
G01 X18.1716 Y65.5023
G01 X18.1737 Y65.5120
G01 X18.1775 Y65.5371
G01 X18.1786 Y65.5470
G01 X18.1800 Y65.5790
G01 X18.1800 Y66.9290
G01 X18.1786 Y66.9610
G01 X18.1775 Y66.9709
G01 X18.1737 Y66.9960
G01 X18.1716 Y67.0057
G01 X18.1663 Y67.0271
G01 X18.1624 Y67.0398
G01 X18.1550 Y67.0606
G01 X18.1513 Y67.0698
G01 X18.1375 Y67.0987
G01 X18.1193 Y67.1290
G01 X18.0983 Y67.1574
G01 X18.0791 Y67.1788
G01 X18.0698 Y67.1881
G01 X18.0509 Y67.2052
G01 X18.0432 Y67.2114
G01 X18.0200 Y67.2283
G01 X17.9897 Y67.2465
G01 X17.9578 Y67.2616
G01 X17.9308 Y67.2714
G01 X17.9181 Y67.2753
G01 X17.8935 Y67.2814
G01 X17.8837 Y67.2832
G01 X17.8553 Y67.2873
G01 X17.8200 Y67.2890
G01 X16.4667 Y67.2890
G01 X16.4380 Y67.2876
G01 X16.4281 Y67.2865
G01 X16.3998 Y67.2821
G01 X16.3719 Y67.2753
G01 X16.3592 Y67.2714
G01 X16.3322 Y67.2616
G01 X16.3003 Y67.2465
G01 X16.2700 Y67.2283
G01 X16.2416 Y67.2073
G01 X16.2154 Y67.1836
G01 X16.1917 Y67.1574
G01 X16.1707 Y67.1290
G01 X16.1525 Y67.0987
G01 X16.1374 Y67.0668
G01 X16.1276 Y67.0398
G01 X16.1237 Y67.0271
G01 X16.1169 Y66.9992
G01 X16.1125 Y66.9709
G01 X16.1114 Y66.9610
G01 X16.1100 Y66.9323
G01 X16.1100 Y66.4893
G01 X16.0675 Y66.4892
G01 X16.0151 Y66.4867
G01 X16.0052 Y66.4858
G01 X15.9469 Y66.4770
G01 X15.8928 Y66.4637
G01 X15.8832 Y66.4609
G01 X15.8277 Y66.4409
G01 X15.7713 Y66.4142
G01 X15.7179 Y66.3822
G01 X15.6678 Y66.3451
G01 X15.6216 Y66.3032
G01 X14.2243 Y64.9058
G01 X14.2242 Y69.8533
G01 X14.2217 Y69.9057
G01 X14.2204 Y69.9188
G01 X14.2120 Y69.9739
G01 X14.1987 Y70.0280
G01 X14.1948 Y70.0407
G01 X14.1759 Y70.0931
G01 X14.1492 Y70.1495
G01 X14.1207 Y70.1973
G01 X14.1134 Y70.2083
G01 X14.0801 Y70.2530
G01 X14.0382 Y70.2992
G01 X9.1543 Y75.1831
G01 X9.1583 Y75.2129
G01 X9.1630 Y75.3077
G01 X9.1628 Y75.3176
G01 X9.1583 Y75.4091
G01 X9.1572 Y75.4190
G01 X9.1431 Y75.5129
G01 X9.1202 Y75.6051
G01 X9.1174 Y75.6146
G01 X9.0866 Y75.7009
G01 X9.0815 Y75.7131
G01 X9.0408 Y75.7989
G01 X8.9921 Y75.8804
G01 X8.9848 Y75.8914
G01 X8.9281 Y75.9676
G01 X8.8599 Y76.0429
G01 X8.7846 Y76.1111
G01 X8.7030 Y76.1716
G01 X8.6159 Y76.2238
G01 X8.5301 Y76.2645
G01 X8.5179 Y76.2696
G01 X8.4284 Y76.3014
G01 X8.3364 Y76.3247
G01 X8.3234 Y76.3272
G01 X8.2360 Y76.3402
G01 X8.2228 Y76.3415
G01 X8.1280 Y76.3460
G01 X8.0299 Y76.3413
G01 X8.0200 Y76.3402
G01 X7.9326 Y76.3272
G01 X7.9196 Y76.3247
G01 X7.8276 Y76.3014
G01 X7.7381 Y76.2696
G01 X7.7259 Y76.2645
G01 X7.6401 Y76.2238
G01 X7.5586 Y76.1751
G01 X7.5476 Y76.1678
G01 X7.4714 Y76.1111
G01 X7.4009 Y76.0474
G01 X7.3916 Y76.0381
G01 X7.3279 Y75.9676
G01 X7.2712 Y75.8914
G01 X7.2639 Y75.8804
G01 X7.2152 Y75.7989
G01 X7.1745 Y75.7131
G01 X7.1694 Y75.7009
G01 X7.1376 Y75.6114
G01 X7.1143 Y75.5194
G01 X7.1118 Y75.5064
G01 X7.0980 Y75.4124
G01 X7.0932 Y75.3176
G01 X7.0932 Y75.3044
G01 X7.0980 Y75.2096
G01 X7.1118 Y75.1156
G01 X7.1143 Y75.1026
G01 X7.1376 Y75.0106
G01 X7.1694 Y74.9211
G01 X7.1745 Y74.9089
G01 X7.2152 Y74.8231
G01 X7.2639 Y74.7416
G01 X7.2712 Y74.7306
G01 X7.3279 Y74.6544
G01 X7.3916 Y74.5839
G01 X7.4009 Y74.5746
G01 X7.4714 Y74.5109
G01 X7.5476 Y74.4542
G01 X7.5586 Y74.4469
G01 X7.6401 Y74.3982
G01 X7.7289 Y74.3561
G01 X7.7381 Y74.3524
G01 X7.8213 Y74.3226
G01 X7.8339 Y74.3188
G01 X7.9261 Y74.2959
G01 X8.0233 Y74.2813
G01 X8.0332 Y74.2805
G01 X8.1214 Y74.2762
G01 X8.1313 Y74.2760
G01 X8.2261 Y74.2807
G01 X8.2559 Y74.2847
G01 X12.9537 Y69.5869
G01 X12.9537 Y62.9687
G01 X12.9493 Y62.9497
G01 X12.9412 Y62.8946
G01 X12.9403 Y62.8847
G01 X12.9377 Y62.8290
G01 X12.9377 Y15.4761
G01 X12.1813 Y14.7196
G00 Z2.0000
G00 X13.1006 Y13.9624
G01 F150.00
G01 Z0.0000
G01 F400.00
G01 X13.9621 Y14.8239
G01 X13.9983 Y14.8639
G01 X14.0305 Y14.9073
G01 X14.0571 Y14.9515
G01 X14.0822 Y15.0047
G01 X14.0996 Y15.0533
G01 X14.1127 Y15.1057
G01 X14.1206 Y15.1591
G01 X14.1232 Y15.2118
G01 X14.1233 Y62.7157
G01 X14.1289 Y62.7389
G01 X14.1365 Y62.7898
G01 X14.1392 Y62.8425
G01 X14.1393 Y63.1443
G01 X16.2987 Y65.3037
G01 X17.8225 Y65.3041
G01 X17.8470 Y65.3053
G01 X17.8736 Y65.3093
G01 X17.8998 Y65.3158
G01 X17.9252 Y65.3249
G01 X17.9496 Y65.3365
G01 X17.9728 Y65.3503
G01 X17.9945 Y65.3664
G01 X18.0136 Y65.3837
G01 X18.0326 Y65.4045
G01 X18.0487 Y65.4262
G01 X18.0625 Y65.4494
G01 X18.0731 Y65.4715
G01 X18.0838 Y65.5015
G01 X18.0897 Y65.5254
G01 X18.0939 Y65.5545
G01 X18.0950 Y65.5790
G01 X18.0950 Y66.9290
G01 X18.0938 Y66.9547
G01 X18.0897 Y66.9826
G01 X18.0838 Y67.0065
G01 X18.0731 Y67.0365
G01 X18.0625 Y67.0586
G01 X18.0487 Y67.0818
G01 X18.0326 Y67.1035
G01 X18.0145 Y67.1235
G01 X17.9945 Y67.1416
G01 X17.9748 Y67.1562
G01 X17.9474 Y67.1726
G01 X17.9252 Y67.1831
G01 X17.8998 Y67.1922
G01 X17.8736 Y67.1987
G01 X17.8482 Y67.2025
G01 X17.8200 Y67.2040
G01 X16.4688 Y67.2040
G01 X16.4406 Y67.2024
G01 X16.4164 Y67.1987
G01 X16.3925 Y67.1928
G01 X16.3648 Y67.1831
G01 X16.3393 Y67.1709
G01 X16.3172 Y67.1577
G01 X16.2937 Y67.1400
G01 X16.2739 Y67.1217
G01 X16.2574 Y67.1035
G01 X16.2428 Y67.0838
G01 X16.2275 Y67.0586
G01 X16.2159 Y67.0342
G01 X16.2068 Y67.0088
G01 X16.2003 Y66.9826
G01 X16.1963 Y66.9560
G01 X16.1950 Y66.9290
G01 X16.1950 Y66.4043
G01 X16.0696 Y66.4042
G01 X16.0181 Y66.4017
G01 X15.9635 Y66.3937
G01 X15.9122 Y66.3809
G01 X15.8602 Y66.3624
G01 X15.8114 Y66.3393
G01 X15.7651 Y66.3115
G01 X15.7217 Y66.2793
G01 X15.6817 Y66.2431
G01 X14.1393 Y64.7006
G01 X14.1393 Y69.8500
G01 X14.1363 Y69.9064
G01 X14.1287 Y69.9573
G01 X14.1162 Y70.0074
G01 X14.0974 Y70.0606
G01 X14.0743 Y70.1094
G01 X14.0451 Y70.1577
G01 X14.0143 Y70.1991
G01 X13.9781 Y70.2391
G01 X9.0639 Y75.1533
G01 X9.0734 Y75.2179
G01 X9.0779 Y75.3085
G01 X9.0735 Y75.4029
G01 X9.0597 Y75.4963
G01 X9.0367 Y75.5879
G01 X9.0047 Y75.6768
G01 X8.9658 Y75.7588
G01 X8.9192 Y75.8367
G01 X8.8624 Y75.9137
G01 X8.7998 Y75.9828
G01 X8.7307 Y76.0454
G01 X8.6558 Y76.1009
G01 X8.5758 Y76.1488
G01 X8.4893 Y76.1896
G01 X8.4038 Y76.2201
G01 X8.3157 Y76.2422
G01 X8.2236 Y76.2561
G01 X8.1280 Y76.2610
G01 X8.0361 Y76.2565
G01 X7.9403 Y76.2422
G01 X7.8522 Y76.2201
G01 X7.7667 Y76.1896
G01 X7.6802 Y76.1488
G01 X7.5982 Y76.0995
G01 X7.5253 Y76.0454
G01 X7.4580 Y75.9844
G01 X7.3936 Y75.9137
G01 X7.3368 Y75.8367
G01 X7.2902 Y75.7588
G01 X7.2503 Y75.6745
G01 X7.2183 Y75.5844
G01 X7.1963 Y75.4963
G01 X7.1829 Y75.4066
G01 X7.1780 Y75.3110
G01 X7.1829 Y75.2154
G01 X7.1963 Y75.1257
G01 X7.2183 Y75.0376
G01 X7.2503 Y74.9475
G01 X7.2914 Y74.8610
G01 X7.3381 Y74.7832
G01 X7.3921 Y74.7103
G01 X7.4562 Y74.6392
G01 X7.5273 Y74.5751
G01 X7.6002 Y74.5211
G01 X7.6780 Y74.4744
G01 X7.7656 Y74.4329
G01 X7.8522 Y74.4019
G01 X7.9403 Y74.3798
G01 X8.0337 Y74.3657
G01 X8.1305 Y74.3611
G01 X8.2211 Y74.3656
G01 X8.2857 Y74.3751
G01 X13.0387 Y69.6221
G01 X13.0387 Y62.9583
G01 X13.0331 Y62.9351
G01 X13.0255 Y62.8842
G01 X13.0227 Y62.8290
G01 X13.0227 Y15.4409
G01 X12.2157 Y14.6339
G01 X12.1908 Y14.6350
G01 X12.1001 Y14.6305
G01 X12.0055 Y14.6165
G01 X11.9162 Y14.5941
G01 X11.8307 Y14.5636
G01 X11.7420 Y14.5216
G01 X11.6642 Y14.4749
G01 X11.5913 Y14.4209
G01 X11.5202 Y14.3568
G01 X11.4576 Y14.2877
G01 X11.4035 Y14.2148
G01 X11.3531 Y14.1306
G01 X11.3143 Y14.0485
G01 X11.2829 Y13.9608
G01 X11.2603 Y13.8703
G01 X11.2465 Y13.7769
G01 X11.2420 Y13.6850
G01 X11.2420 Y12.9850
G01 X11.2466 Y12.8919
G01 X11.2603 Y12.7997
G01 X11.2829 Y12.7092
G01 X11.3143 Y12.6215
G01 X11.3531 Y12.5394
G01 X11.4035 Y12.4552
G01 X11.4576 Y12.3823
G01 X11.5211 Y12.3124
G01 X11.5893 Y12.2506
G01 X11.6642 Y12.1951
G01 X11.7442 Y12.1472
G01 X11.8285 Y12.1073
G01 X11.9162 Y12.0759
G01 X12.0067 Y12.0533
G01 X12.0989 Y12.0396
G01 X12.1920 Y12.0350
G01 X12.2851 Y12.0396
G01 X12.3773 Y12.0533
G01 X12.4678 Y12.0759
G01 X12.5555 Y12.1073
G01 X12.6398 Y12.1472
G01 X12.7198 Y12.1951
G01 X12.7947 Y12.2506
G01 X12.8646 Y12.3141
G01 X12.9264 Y12.3823
G01 X12.9805 Y12.4552
G01 X13.0309 Y12.5394
G01 X13.0697 Y12.6215
G01 X13.1011 Y12.7092
G01 X13.1237 Y12.7997
G01 X13.1371 Y12.8894
G01 X13.1420 Y12.9850
G01 X13.1420 Y13.6862
G01 X13.1374 Y13.7781
G01 X13.1242 Y13.8679
G01 X13.1006 Y13.9624
G00 Z2.0000
G00 X14.6047 Y14.7114
G01 F150.00
G01 Z0.0000
G01 F400.00
G01 X14.5301 Y14.7001
G01 X14.4379 Y14.6772
G01 X14.4253 Y14.6734
G01 X14.3390 Y14.6424
G01 X14.3299 Y14.6385
G01 X14.2441 Y14.5978
G01 X14.1626 Y14.5491
G01 X14.1543 Y14.5437
G01 X14.0806 Y14.4891
G01 X14.0704 Y14.4807
G01 X14.0001 Y14.4169
G01 X13.9363 Y14.3466
G01 X13.9279 Y14.3364
G01 X13.8714 Y14.2600
G01 X13.8225 Y14.1787
G01 X13.8177 Y14.1700
G01 X13.7758 Y14.0811
G01 X13.7416 Y13.9854
G01 X13.7169 Y13.8869
G01 X13.7020 Y13.7864
G01 X13.6970 Y13.6850
G01 X13.6970 Y12.9850
G01 X13.7017 Y12.8869
G01 X13.7028 Y12.8770
G01 X13.7169 Y12.7831
G01 X13.7416 Y12.6846
G01 X13.7758 Y12.5889
G01 X13.8192 Y12.4971
G01 X13.8714 Y12.4100
G01 X13.9319 Y12.3284
G01 X14.0001 Y12.2531
G01 X14.0754 Y12.1849
G01 X14.1570 Y12.1244
G01 X14.2441 Y12.0722
G01 X14.3359 Y12.0288
G01 X14.4316 Y11.9946
G01 X14.5301 Y11.9699
G01 X14.6306 Y11.9550
G01 X14.7320 Y11.9500
G01 X14.8301 Y11.9547
G01 X14.8400 Y11.9558
G01 X14.9274 Y11.9688
G01 X14.9404 Y11.9713
G01 X15.0324 Y11.9946
G01 X15.1219 Y12.0264
G01 X15.1341 Y12.0315
G01 X15.2199 Y12.0722
G01 X15.3014 Y12.1209
G01 X15.3124 Y12.1282
G01 X15.3886 Y12.1849
G01 X15.4591 Y12.2486
G01 X15.4684 Y12.2579
G01 X15.5321 Y12.3284
G01 X15.5926 Y12.4100
G01 X15.6415 Y12.4913
G01 X15.6478 Y12.5030
G01 X15.6882 Y12.5889
G01 X15.7224 Y12.6846
G01 X15.7471 Y12.7831
G01 X15.7620 Y12.8836
G01 X15.7670 Y12.9817
G01 X15.7668 Y13.6916
G01 X15.7620 Y13.7864
G01 X15.7482 Y13.8804
G01 X15.7457 Y13.8934
G01 X15.7242 Y13.9791
G01 X15.7197 Y13.9937
G01 X15.7331 Y14.0091
G01 X15.7644 Y14.0512
G01 X15.7700 Y14.0594
G01 X15.8002 Y14.1100
G01 X15.8242 Y14.1603
G01 X15.8281 Y14.1695
G01 X15.8479 Y14.2251
G01 X15.8630 Y14.2856
G01 X15.8722 Y14.3472
G01 X15.8752 Y14.4062
G01 X15.8753 Y61.9646
G01 X16.6942 Y62.7835
G01 X16.7489 Y62.7578
G01 X16.8414 Y62.7246
G01 X16.8509 Y62.7218
G01 X16.9366 Y62.7003
G01 X16.9463 Y62.6983
G01 X17.0436 Y62.6840
G01 X17.1384 Y62.6792
G01 X17.1516 Y62.6792
G01 X17.2398 Y62.6835
G01 X17.2530 Y62.6848
G01 X17.3469 Y62.6989
G01 X17.4454 Y62.7236
G01 X17.5411 Y62.7578
G01 X17.6270 Y62.7982
G01 X17.6358 Y62.8028
G01 X17.7200 Y62.8534
G01 X17.7964 Y62.9099
G01 X17.8041 Y62.9161
G01 X17.8721 Y62.9776
G01 X17.8792 Y62.9845
G01 X17.9429 Y63.0549
G01 X17.9611 Y63.0787
G01 X19.0100 Y63.0787
G01 X19.0657 Y63.0813
G01 X19.0788 Y63.0826
G01 X19.1339 Y63.0910
G01 X19.1944 Y63.1061
G01 X19.2531 Y63.1271
G01 X19.3095 Y63.1538
G01 X19.3573 Y63.1823
G01 X19.3683 Y63.1896
G01 X19.4130 Y63.2229
G01 X19.4592 Y63.2648
G01 X20.7692 Y64.5748
G01 X20.8067 Y64.6160
G01 X20.8131 Y64.6236
G01 X20.8482 Y64.6711
G01 X20.8802 Y64.7245
G01 X20.9069 Y64.7809
G01 X20.9258 Y64.8333
G01 X20.9297 Y64.8460
G01 X20.9416 Y64.8936
G01 X20.9442 Y64.9066
G01 X20.9522 Y64.9617
G01 X20.9552 Y65.0207
G01 X20.9552 Y68.5833
G01 X20.9522 Y68.6423
G01 X20.9430 Y68.7039
G01 X20.9279 Y68.7644
G01 X20.9069 Y68.8231
G01 X20.8802 Y68.8795
G01 X20.8482 Y68.9329
G01 X20.8111 Y68.9830
G01 X20.7715 Y69.0268
G01 X14.6153 Y75.1831
G01 X14.6193 Y75.2129
G01 X14.6240 Y75.3077
G01 X14.6238 Y75.3176
G01 X14.6193 Y75.4091
G01 X14.6182 Y75.4190
G01 X14.6041 Y75.5129
G01 X14.5812 Y75.6051
G01 X14.5784 Y75.6146
G01 X14.5452 Y75.7071
G01 X14.5048 Y75.7930
G01 X14.4985 Y75.8047
G01 X14.4496 Y75.8860
G01 X14.3931 Y75.9624
G01 X14.3847 Y75.9726
G01 X14.3232 Y76.0405
G01 X14.3161 Y76.0474
G01 X14.2456 Y76.1111
G01 X14.1640 Y76.1716
G01 X14.0769 Y76.2238
G01 X13.9851 Y76.2672
G01 X13.8894 Y76.3014
G01 X13.7909 Y76.3261
G01 X13.6904 Y76.3410
G01 X13.5956 Y76.3458
G01 X13.5857 Y76.3460
G01 X13.4876 Y76.3410
G01 X13.3936 Y76.3272
G01 X13.3806 Y76.3247
G01 X13.2886 Y76.3014
G01 X13.1991 Y76.2696
G01 X13.1869 Y76.2645
G01 X13.1011 Y76.2238
G01 X13.0196 Y76.1751
G01 X13.0086 Y76.1678
G01 X12.9324 Y76.1111
G01 X12.8619 Y76.0474
G01 X12.8526 Y76.0381
G01 X12.7889 Y75.9676
G01 X12.7322 Y75.8914
G01 X12.7249 Y75.8804
G01 X12.6795 Y75.8047
G01 X12.6732 Y75.7930
G01 X12.6328 Y75.7071
G01 X12.6006 Y75.6177
G01 X12.5968 Y75.6051
G01 X12.5739 Y75.5129
G01 X12.5598 Y75.4190
G01 X12.5585 Y75.4058
G01 X12.5540 Y75.3110
G01 X12.5590 Y75.2096
G01 X12.5739 Y75.1091
G01 X12.5968 Y75.0169
G01 X12.6006 Y75.0043
G01 X12.6328 Y74.9149
G01 X12.6732 Y74.8290
G01 X12.6795 Y74.8173
G01 X12.7284 Y74.7360
G01 X12.7849 Y74.6596
G01 X12.7933 Y74.6494
G01 X12.8571 Y74.5791
G01 X12.9274 Y74.5153
G01 X12.9376 Y74.5069
G01 X13.0140 Y74.4504
G01 X13.0953 Y74.4015
G01 X13.1070 Y74.3952
G01 X13.1929 Y74.3548
G01 X13.2823 Y74.3226
G01 X13.2949 Y74.3188
G01 X13.3871 Y74.2959
G01 X13.4843 Y74.2813
G01 X13.4942 Y74.2805
G01 X13.5824 Y74.2762
G01 X13.5923 Y74.2760
G01 X13.6871 Y74.2807
G01 X13.7169 Y74.2847
G01 X19.6847 Y68.3169
G01 X19.6847 Y65.2871
G01 X18.7469 Y64.3493
G01 X17.9611 Y64.3493
G01 X17.9429 Y64.3731
G01 X17.8792 Y64.4435
G01 X17.8721 Y64.4504
G01 X17.8041 Y64.5119
G01 X17.7964 Y64.5181
G01 X17.7200 Y64.5746
G01 X17.6358 Y64.6252
G01 X17.6270 Y64.6298
G01 X17.5411 Y64.6702
G01 X17.4454 Y64.7044
G01 X17.3469 Y64.7291
G01 X17.2497 Y64.7437
G01 X17.2398 Y64.7445
G01 X17.1516 Y64.7488
G01 X17.1384 Y64.7488
G01 X17.0436 Y64.7440
G01 X16.9431 Y64.7291
G01 X16.8446 Y64.7044
G01 X16.7551 Y64.6726
G01 X16.7429 Y64.6675
G01 X16.6630 Y64.6298
G01 X16.6513 Y64.6235
G01 X16.5700 Y64.5746
G01 X16.4936 Y64.5181
G01 X16.4834 Y64.5097
G01 X16.4131 Y64.4459
G01 X16.3493 Y64.3756
G01 X16.3409 Y64.3654
G01 X16.2882 Y64.2944
G01 X16.2809 Y64.2834
G01 X16.2322 Y64.2019
G01 X16.1888 Y64.1101
G01 X16.1546 Y64.0144
G01 X16.1301 Y63.9171
G01 X16.0821 Y63.8997
G01 X16.0317 Y63.8760
G01 X16.0200 Y63.8698
G01 X15.9779 Y63.8446
G01 X15.9669 Y63.8372
G01 X15.9222 Y63.8039
G01 X15.8784 Y63.7643
G01 X14.7908 Y62.6769
G01 X14.7511 Y62.6333
G01 X14.7449 Y62.6255
G01 X14.7156 Y62.5861
G01 X14.7083 Y62.5750
G01 X14.6798 Y62.5272
G01 X14.6531 Y62.4708
G01 X14.6342 Y62.4184
G01 X14.6303 Y62.4057
G01 X14.6170 Y62.3516
G01 X14.6078 Y62.2900
G01 X14.6047 Y62.2277
G01 X14.6047 Y14.7114
G00 Z2.0000
G00 X10.7097 Y22.6189
G01 F150.00
G01 Z0.0000
G01 F400.00
G01 X10.7097 Y19.7802
G01 X5.2019 Y14.2723
G01 X5.1582 Y14.2238
G01 X5.1224 Y14.1759
G01 X5.1161 Y14.1670
G01 X5.1104 Y14.1579
G01 X5.0798 Y14.1064
G01 X5.0540 Y14.0524
G01 X5.0496 Y14.0425
G01 X5.0457 Y14.0325
G01 X5.0274 Y13.9811
G01 X5.0229 Y13.9656
G01 X5.0086 Y13.9074
G01 X4.9995 Y13.8482
G01 X4.9978 Y13.8321
G01 X4.9947 Y13.7669
G01 X4.9948 Y9.9006
G01 X4.9978 Y9.8408
G01 X4.9995 Y9.8247
G01 X5.0086 Y9.7655
G01 X5.0229 Y9.7073
G01 X5.0258 Y9.6969
G01 X5.0292 Y9.6867
G01 X5.0496 Y9.6304
G01 X5.0749 Y9.5761
G01 X5.0798 Y9.5665
G01 X5.1104 Y9.5150
G01 X5.1161 Y9.5059
G01 X5.1224 Y9.4970
G01 X5.1582 Y9.4491
G01 X5.1983 Y9.4045
G01 X5.2057 Y9.3967
G01 X9.2736 Y5.3289
G01 X9.3221 Y5.2852
G01 X9.3700 Y5.2494
G01 X9.3789 Y5.2431
G01 X9.3880 Y5.2374
G01 X9.4395 Y5.2068
G01 X9.4935 Y5.1810
G01 X9.5034 Y5.1766
G01 X9.5134 Y5.1727
G01 X9.5699 Y5.1528
G01 X9.6280 Y5.1380
G01 X9.6385 Y5.1356
G01 X9.6491 Y5.1337
G01 X9.7084 Y5.1252
G01 X9.7192 Y5.1244
G01 X9.7790 Y5.1217
G01 X43.9420 Y5.1217
G01 X44.0018 Y5.1244
G01 X44.0126 Y5.1252
G01 X44.0772 Y5.1346
G01 X44.0930 Y5.1380
G01 X44.1407 Y5.1499
G01 X44.1511 Y5.1528
G01 X44.1613 Y5.1562
G01 X44.2176 Y5.1766
G01 X44.2719 Y5.2019
G01 X44.2815 Y5.2068
G01 X44.3330 Y5.2374
G01 X44.3421 Y5.2431
G01 X44.3510 Y5.2494
G01 X44.3989 Y5.2852
G01 X44.4474 Y5.3289
G01 X48.0073 Y8.8887
G01 X48.0147 Y8.8965
G01 X48.0548 Y8.9411
G01 X48.0906 Y8.9890
G01 X48.0969 Y8.9979
G01 X48.1026 Y9.0070
G01 X48.1332 Y9.0585
G01 X48.1590 Y9.1125
G01 X48.1634 Y9.1224
G01 X48.1673 Y9.1324
G01 X48.1872 Y9.1889
G01 X48.2020 Y9.2470
G01 X48.2044 Y9.2575
G01 X48.2063 Y9.2681
G01 X48.2148 Y9.3274
G01 X48.2180 Y9.3872
G01 X48.2183 Y9.3980
G01 X48.2183 Y12.0361
G01 X48.2427 Y12.0508
G01 X48.2517 Y12.0568
G01 X48.3270 Y12.1126
G01 X48.3397 Y12.1227
G01 X48.4170 Y12.1930
G01 X48.4837 Y12.2663
G01 X48.4941 Y12.2787
G01 X48.5562 Y12.3628
G01 X48.6101 Y12.4523
G01 X48.6176 Y12.4667
G01 X48.6576 Y12.5514
G01 X48.6636 Y12.5665
G01 X48.6809 Y12.6147
G01 X49.1091 Y12.6147
G01 X49.1264 Y12.5665
G01 X49.1324 Y12.5514
G01 X49.1724 Y12.4667
G01 X49.1799 Y12.4523
G01 X49.2338 Y12.3628
G01 X49.2959 Y12.2787
G01 X49.3063 Y12.2663
G01 X49.3730 Y12.1930
G01 X49.4463 Y12.1263
G01 X49.4545 Y12.1192
G01 X49.4630 Y12.1126
G01 X49.5339 Y12.0600
G01 X49.5473 Y12.0508
G01 X49.6370 Y11.9972
G01 X49.7265 Y11.9546
G01 X49.7364 Y11.9503
G01 X49.7465 Y11.9464
G01 X49.8296 Y11.9166
G01 X49.8399 Y11.9132
G01 X49.8503 Y11.9103
G01 X49.9465 Y11.8865
G01 X50.0445 Y11.8717
G01 X50.0552 Y11.8704
G01 X50.0660 Y11.8696
G01 X50.1650 Y11.8650
G01 X50.2640 Y11.8696
G01 X50.2748 Y11.8704
G01 X50.2855 Y11.8717
G01 X50.3729 Y11.8847
G01 X50.3835 Y11.8865
G01 X50.3940 Y11.8889
G01 X50.4901 Y11.9132
G01 X50.5004 Y11.9166
G01 X50.5936 Y11.9503
G01 X50.6833 Y11.9924
G01 X50.6930 Y11.9972
G01 X50.7781 Y12.0480
G01 X50.7872 Y12.0538
G01 X50.7961 Y12.0600
G01 X50.8670 Y12.1126
G01 X50.8755 Y12.1192
G01 X50.8837 Y12.1263
G01 X50.9570 Y12.1930
G01 X51.0237 Y12.2663
G01 X51.0308 Y12.2745
G01 X51.0374 Y12.2830
G01 X51.0900 Y12.3539
G01 X51.0962 Y12.3628
G01 X51.1020 Y12.3719
G01 X51.1528 Y12.4570
G01 X51.1576 Y12.4667
G01 X51.1997 Y12.5564
G01 X51.2334 Y12.6496
G01 X51.2368 Y12.6599
G01 X51.2611 Y12.7560
G01 X51.2635 Y12.7665
G01 X51.2653 Y12.7771
G01 X51.2796 Y12.8752
G01 X51.2849 Y12.9796
G01 X51.2849 Y13.6904
G01 X51.2796 Y13.7948
G01 X51.2653 Y13.8929
G01 X51.2635 Y13.9035
G01 X51.2611 Y13.9140
G01 X51.2397 Y13.9997
G01 X51.2351 Y14.0153
G01 X51.1997 Y14.1136
G01 X51.1576 Y14.2033
G01 X51.1528 Y14.2130
G01 X51.1474 Y14.2224
G01 X51.0962 Y14.3072
G01 X51.0374 Y14.3870
G01 X51.0308 Y14.3955
G01 X51.0237 Y14.4037
G01 X50.9644 Y14.4691
G01 X50.9570 Y14.4770
G01 X50.9491 Y14.4844
G01 X50.8755 Y14.5508
G01 X50.7961 Y14.6100
G01 X50.7872 Y14.6162
G01 X50.7024 Y14.6674
G01 X50.6930 Y14.6728
G01 X50.6833 Y14.6776
G01 X50.5936 Y14.7197
G01 X50.5004 Y14.7534
G01 X50.4901 Y14.7568
G01 X50.4797 Y14.7597
G01 X50.3835 Y14.7835
G01 X50.2855 Y14.7983
G01 X50.2748 Y14.7996
G01 X50.2640 Y14.8004
G01 X50.1650 Y14.8050
G01 X50.0660 Y14.8004
G01 X50.0552 Y14.7996
G01 X50.0445 Y14.7983
G01 X49.9465 Y14.7835
G01 X49.8503 Y14.7597
G01 X49.8399 Y14.7568
G01 X49.7465 Y14.7236
G01 X49.7314 Y14.7176
G01 X49.6370 Y14.6728
G01 X49.6276 Y14.6674
G01 X49.5428 Y14.6162
G01 X49.4630 Y14.5574
G01 X49.4545 Y14.5508
G01 X49.3809 Y14.4844
G01 X49.3693 Y14.4731
G01 X49.2992 Y14.3955
G01 X49.2400 Y14.3161
G01 X49.2308 Y14.3027
G01 X49.1826 Y14.2224
G01 X49.1748 Y14.2082
G01 X49.1324 Y14.1186
G01 X49.1264 Y14.1035
G01 X49.1091 Y14.0553
G01 X48.6809 Y14.0553
G01 X48.6636 Y14.1035
G01 X48.6576 Y14.1186
G01 X48.6152 Y14.2082
G01 X48.6074 Y14.2224
G01 X48.5620 Y14.2981
G01 X48.5532 Y14.3117
G01 X48.4974 Y14.3870
G01 X48.4908 Y14.3955
G01 X48.4837 Y14.4037
G01 X48.4170 Y14.4770
G01 X48.3397 Y14.5473
G01 X48.3270 Y14.5574
G01 X48.2472 Y14.6162
G01 X48.1624 Y14.6674
G01 X48.1530 Y14.6728
G01 X48.1433 Y14.6776
G01 X48.0536 Y14.7197
G01 X47.9604 Y14.7534
G01 X47.9501 Y14.7568
G01 X47.9397 Y14.7597
G01 X47.8488 Y14.7824
G01 X47.8329 Y14.7853
G01 X47.7348 Y14.7996
G01 X47.7240 Y14.8004
G01 X47.6250 Y14.8050
G01 X47.5260 Y14.8004
G01 X47.5152 Y14.7996
G01 X47.4171 Y14.7853
G01 X47.4065 Y14.7835
G01 X47.3960 Y14.7811
G01 X47.3103 Y14.7597
G01 X47.2999 Y14.7568
G01 X47.2896 Y14.7534
G01 X47.1964 Y14.7197
G01 X47.1067 Y14.6776
G01 X47.0970 Y14.6728
G01 X47.0876 Y14.6674
G01 X47.0028 Y14.6162
G01 X46.9230 Y14.5574
G01 X46.9145 Y14.5508
G01 X46.9063 Y14.5437
G01 X46.8330 Y14.4770
G01 X46.7663 Y14.4037
G01 X46.7592 Y14.3955
G01 X46.7000 Y14.3161
G01 X46.6938 Y14.3072
G01 X46.6426 Y14.2224
G01 X46.6372 Y14.2130
G01 X46.6324 Y14.2033
G01 X46.5903 Y14.1136
G01 X46.5566 Y14.0204
G01 X46.5532 Y14.0101
G01 X46.5503 Y13.9997
G01 X46.5289 Y13.9140
G01 X46.5265 Y13.9035
G01 X46.5247 Y13.8929
G01 X46.5104 Y13.7948
G01 X46.5051 Y13.6904
G01 X46.5051 Y12.9796
G01 X46.5104 Y12.8752
G01 X46.5117 Y12.8645
G01 X46.5265 Y12.7665
G01 X46.5503 Y12.6703
G01 X46.5532 Y12.6599
G01 X46.5566 Y12.6496
G01 X46.5903 Y12.5564
G01 X46.6348 Y12.4618
G01 X46.6426 Y12.4476
G01 X46.6880 Y12.3719
G01 X46.6968 Y12.3583
G01 X46.7559 Y12.2787
G01 X46.7627 Y12.2703
G01 X46.7777 Y12.2536
G01 X46.7777 Y9.6963
G01 X43.6437 Y6.5623
G01 X10.0773 Y6.5623
G01 X6.4353 Y10.2043
G01 X6.4353 Y13.4686
G01 X11.9393 Y18.9726
G01 X11.9467 Y18.9804
G01 X11.9868 Y19.0250
G01 X12.0226 Y19.0729
G01 X12.0289 Y19.0818
G01 X12.0346 Y19.0909
G01 X12.0652 Y19.1424
G01 X12.0910 Y19.1964
G01 X12.0954 Y19.2063
G01 X12.0993 Y19.2163
G01 X12.1192 Y19.2728
G01 X12.1340 Y19.3309
G01 X12.1364 Y19.3414
G01 X12.1455 Y19.4006
G01 X12.1468 Y19.4113
G01 X12.1502 Y19.4765
G01 X12.1503 Y22.6189
G01 X12.2141 Y22.6666
G01 X12.2962 Y22.7406
G01 X12.3040 Y22.7480
G01 X12.3114 Y22.7558
G01 X12.3820 Y22.8338
G01 X12.3921 Y22.8464
G01 X12.4577 Y22.9353
G01 X12.5147 Y23.0300
G01 X12.5225 Y23.0441
G01 X12.5675 Y23.1391
G01 X12.5719 Y23.1490
G01 X12.5758 Y23.1591
G01 X12.6128 Y23.2632
G01 X12.6399 Y23.3703
G01 X12.6423 Y23.3809
G01 X12.6441 Y23.3915
G01 X12.6600 Y23.5009
G01 X12.6657 Y23.6112
G01 X12.6660 Y23.6220
G01 X12.6657 Y23.6328
G01 X12.6600 Y23.7431
G01 X12.6441 Y23.8525
G01 X12.6423 Y23.8631
G01 X12.6399 Y23.8737
G01 X12.6128 Y23.9808
G01 X12.5758 Y24.0849
G01 X12.5719 Y24.0950
G01 X12.5675 Y24.1049
G01 X12.5201 Y24.2046
G01 X12.5147 Y24.2140
G01 X12.4577 Y24.3087
G01 X12.3921 Y24.3976
G01 X12.3854 Y24.4061
G01 X12.3784 Y24.4143
G01 X12.3040 Y24.4960
G01 X12.2223 Y24.5704
G01 X12.2141 Y24.5774
G01 X12.2056 Y24.5841
G01 X12.1211 Y24.6466
G01 X12.1076 Y24.6555
G01 X12.0126 Y24.7121
G01 X12.0030 Y24.7169
G01 X11.9030 Y24.7639
G01 X11.8929 Y24.7678
G01 X11.7888 Y24.8048
G01 X11.6817 Y24.8319
G01 X11.6711 Y24.8343
G01 X11.6605 Y24.8361
G01 X11.5511 Y24.8520
G01 X11.4408 Y24.8577
G01 X11.4300 Y24.8580
G01 X11.4192 Y24.8577
G01 X11.3089 Y24.8520
G01 X11.1995 Y24.8361
G01 X11.1889 Y24.8343
G01 X11.1783 Y24.8319
G01 X11.0712 Y24.8048
G01 X11.0610 Y24.8014
G01 X10.9570 Y24.7639
G01 X10.8570 Y24.7169
G01 X10.8474 Y24.7121
G01 X10.8380 Y24.7067
G01 X10.7433 Y24.6497
G01 X10.6544 Y24.5841
G01 X10.6459 Y24.5774
G01 X10.6377 Y24.5704
G01 X10.5560 Y24.4960
G01 X10.4816 Y24.4143
G01 X10.4746 Y24.4061
G01 X10.4054 Y24.3131
G01 X10.3965 Y24.2996
G01 X10.3399 Y24.2046
G01 X10.3351 Y24.1950
G01 X10.2881 Y24.0950
G01 X10.2506 Y23.9910
G01 X10.2472 Y23.9808
G01 X10.2201 Y23.8737
G01 X10.2177 Y23.8631
G01 X10.2159 Y23.8525
G01 X10.2000 Y23.7431
G01 X10.1943 Y23.6328
G01 X10.1940 Y23.6220
G01 X10.1943 Y23.6112
G01 X10.2000 Y23.5009
G01 X10.2168 Y23.3862
G01 X10.2201 Y23.3703
G01 X10.2472 Y23.2632
G01 X10.2506 Y23.2530
G01 X10.2881 Y23.1490
G01 X10.3351 Y23.0490
G01 X10.3399 Y23.0394
G01 X10.3994 Y22.9398
G01 X10.4085 Y22.9265
G01 X10.4746 Y22.8379
G01 X10.5522 Y22.7519
G01 X10.5638 Y22.7406
G01 X10.6418 Y22.6700
G01 X10.6544 Y22.6599
G01 X10.7097 Y22.6189
G00 Z2.0000
G00 X10.7947 Y22.6623
G01 F150.00
G01 Z0.0000
G01 F400.00
G01 X10.7947 Y19.7450
G01 X5.2635 Y14.2137
G01 X5.2239 Y14.1699
G01 X5.1868 Y14.1198
G01 X5.1548 Y14.0664
G01 X5.1308 Y14.0161
G01 X5.1257 Y14.0038
G01 X5.1092 Y13.9576
G01 X5.1053 Y13.9449
G01 X5.0920 Y13.8908
G01 X5.0836 Y13.8357
G01 X5.0825 Y13.8259
G01 X5.0797 Y13.7669
G01 X5.0798 Y9.9027
G01 X5.0823 Y9.8503
G01 X5.0836 Y9.8372
G01 X5.0920 Y9.7821
G01 X5.1053 Y9.7280
G01 X5.1092 Y9.7153
G01 X5.1281 Y9.6629
G01 X5.1548 Y9.6065
G01 X5.1833 Y9.5587
G01 X5.1906 Y9.5477
G01 X5.2239 Y9.5030
G01 X5.2658 Y9.4568
G01 X9.3298 Y5.3928
G01 X9.3760 Y5.3509
G01 X9.4207 Y5.3176
G01 X9.4317 Y5.3103
G01 X9.4795 Y5.2818
G01 X9.5298 Y5.2578
G01 X9.5421 Y5.2527
G01 X9.5946 Y5.2341
G01 X9.6486 Y5.2204
G01 X9.6616 Y5.2178
G01 X9.7167 Y5.2098
G01 X9.7790 Y5.2067
G01 X43.9420 Y5.2067
G01 X44.0043 Y5.2098
G01 X44.0627 Y5.2183
G01 X44.0724 Y5.2204
G01 X44.1200 Y5.2323
G01 X44.1327 Y5.2362
G01 X44.1851 Y5.2551
G01 X44.2415 Y5.2818
G01 X44.2893 Y5.3103
G01 X44.3003 Y5.3176
G01 X44.3450 Y5.3509
G01 X44.3888 Y5.3905
G01 X47.9472 Y8.9488
G01 X47.9891 Y8.9950
G01 X48.0224 Y9.0397
G01 X48.0297 Y9.0507
G01 X48.0582 Y9.0985
G01 X48.0822 Y9.1488
G01 X48.0873 Y9.1611
G01 X48.1059 Y9.2136
G01 X48.1196 Y9.2676
G01 X48.1222 Y9.2806
G01 X48.1302 Y9.3357
G01 X48.1332 Y9.3947
G01 X48.1333 Y12.0842
G01 X48.2000 Y12.1244
G01 X48.2816 Y12.1849
G01 X48.3569 Y12.2531
G01 X48.4207 Y12.3234
G01 X48.4271 Y12.3310
G01 X48.4856 Y12.4100
G01 X48.5378 Y12.4971
G01 X48.5812 Y12.5889
G01 X48.6134 Y12.6783
G01 X48.6164 Y12.6877
G01 X48.6194 Y12.6997
G01 X49.1706 Y12.6997
G01 X49.1736 Y12.6877
G01 X49.1766 Y12.6783
G01 X49.2064 Y12.5951
G01 X49.2115 Y12.5829
G01 X49.2522 Y12.4971
G01 X49.3044 Y12.4100
G01 X49.3649 Y12.3284
G01 X49.4286 Y12.2579
G01 X49.4379 Y12.2486
G01 X49.5034 Y12.1893
G01 X49.5136 Y12.1809
G01 X49.5900 Y12.1244
G01 X49.6771 Y12.0722
G01 X49.7689 Y12.0288
G01 X49.8583 Y11.9966
G01 X49.8709 Y11.9928
G01 X49.9566 Y11.9713
G01 X49.9696 Y11.9688
G01 X50.0636 Y11.9550
G01 X50.1584 Y11.9502
G01 X50.1683 Y11.9500
G01 X50.2664 Y11.9550
G01 X50.3669 Y11.9699
G01 X50.4654 Y11.9946
G01 X50.5549 Y12.0264
G01 X50.5671 Y12.0315
G01 X50.6470 Y12.0692
G01 X50.6587 Y12.0755
G01 X50.7400 Y12.1244
G01 X50.8216 Y12.1849
G01 X50.8969 Y12.2531
G01 X50.9607 Y12.3234
G01 X50.9691 Y12.3336
G01 X51.0218 Y12.4046
G01 X51.0291 Y12.4156
G01 X51.0778 Y12.4971
G01 X51.1212 Y12.5889
G01 X51.1554 Y12.6846
G01 X51.1787 Y12.7766
G01 X51.1812 Y12.7896
G01 X51.1950 Y12.8836
G01 X51.2000 Y12.9817
G01 X51.2000 Y13.6883
G01 X51.1950 Y13.7864
G01 X51.1812 Y13.8804
G01 X51.1787 Y13.8934
G01 X51.1572 Y13.9791
G01 X51.1544 Y13.9886
G01 X51.1212 Y14.0811
G01 X51.0808 Y14.1670
G01 X51.0745 Y14.1787
G01 X51.0256 Y14.2600
G01 X50.9691 Y14.3364
G01 X50.9607 Y14.3466
G01 X50.9014 Y14.4121
G01 X50.8921 Y14.4214
G01 X50.8216 Y14.4851
G01 X50.7400 Y14.5456
G01 X50.6529 Y14.5978
G01 X50.5611 Y14.6412
G01 X50.4654 Y14.6754
G01 X50.3669 Y14.7001
G01 X50.2664 Y14.7150
G01 X50.1716 Y14.7198
G01 X50.1584 Y14.7198
G01 X50.0702 Y14.7155
G01 X50.0570 Y14.7142
G01 X49.9631 Y14.7001
G01 X49.8709 Y14.6772
G01 X49.8583 Y14.6734
G01 X49.7689 Y14.6412
G01 X49.6830 Y14.6008
G01 X49.6713 Y14.5945
G01 X49.5900 Y14.5456
G01 X49.5084 Y14.4851
G01 X49.4331 Y14.4169
G01 X49.3649 Y14.3416
G01 X49.3044 Y14.2600
G01 X49.2522 Y14.1729
G01 X49.2088 Y14.0811
G01 X49.1766 Y13.9917
G01 X49.1736 Y13.9823
G01 X49.1706 Y13.9703
G01 X48.6194 Y13.9703
G01 X48.6164 Y13.9823
G01 X48.6134 Y13.9917
G01 X48.5812 Y14.0811
G01 X48.5408 Y14.1670
G01 X48.5345 Y14.1787
G01 X48.4856 Y14.2600
G01 X48.4291 Y14.3364
G01 X48.4207 Y14.3466
G01 X48.3614 Y14.4121
G01 X48.3521 Y14.4214
G01 X48.2816 Y14.4851
G01 X48.2054 Y14.5418
G01 X48.1944 Y14.5491
G01 X48.1129 Y14.5978
G01 X48.0271 Y14.6385
G01 X48.0149 Y14.6436
G01 X47.9254 Y14.6754
G01 X47.8302 Y14.6994
G01 X47.8204 Y14.7012
G01 X47.7264 Y14.7150
G01 X47.6250 Y14.7200
G01 X47.5236 Y14.7150
G01 X47.4296 Y14.7012
G01 X47.4166 Y14.6987
G01 X47.3309 Y14.6772
G01 X47.3183 Y14.6734
G01 X47.2289 Y14.6412
G01 X47.1430 Y14.6008
G01 X47.1313 Y14.5945
G01 X47.0500 Y14.5456
G01 X46.9684 Y14.4851
G01 X46.8931 Y14.4169
G01 X46.8249 Y14.3416
G01 X46.7644 Y14.2600
G01 X46.7155 Y14.1787
G01 X46.7092 Y14.1670
G01 X46.6688 Y14.0811
G01 X46.6366 Y13.9917
G01 X46.6328 Y13.9791
G01 X46.6113 Y13.8934
G01 X46.6088 Y13.8804
G01 X46.5950 Y13.7864
G01 X46.5900 Y13.6883
G01 X46.5900 Y12.9817
G01 X46.5950 Y12.8836
G01 X46.6099 Y12.7831
G01 X46.6328 Y12.6909
G01 X46.6366 Y12.6783
G01 X46.6688 Y12.5889
G01 X46.7107 Y12.5000
G01 X46.7155 Y12.4913
G01 X46.7609 Y12.4156
G01 X46.7663 Y12.4073
G01 X46.8229 Y12.3310
G01 X46.8293 Y12.3234
G01 X46.8627 Y12.2864
G01 X46.8627 Y9.6611
G01 X43.6789 Y6.4773
G01 X10.0421 Y6.4773
G01 X6.3503 Y10.1691
G01 X6.3503 Y13.5038
G01 X11.8792 Y19.0327
G01 X11.9211 Y19.0789
G01 X11.9544 Y19.1236
G01 X11.9617 Y19.1346
G01 X11.9870 Y19.1767
G01 X11.9932 Y19.1884
G01 X12.0142 Y19.2327
G01 X12.0193 Y19.2450
G01 X12.0379 Y19.2975
G01 X12.0516 Y19.3515
G01 X12.0542 Y19.3645
G01 X12.0622 Y19.4196
G01 X12.0652 Y19.4786
G01 X12.0653 Y22.6623
G01 X12.0749 Y22.6688
G01 X12.1602 Y22.7323
G01 X12.2391 Y22.8036
G01 X12.2484 Y22.8129
G01 X12.3197 Y22.8918
G01 X12.3832 Y22.9771
G01 X12.3906 Y22.9881
G01 X12.4451 Y23.0794
G01 X12.4934 Y23.1815
G01 X12.5294 Y23.2816
G01 X12.5332 Y23.2943
G01 X12.5589 Y23.3975
G01 X12.5746 Y23.5026
G01 X12.5759 Y23.5158
G01 X12.5810 Y23.6187
G01 X12.5808 Y23.6286
G01 X12.5755 Y23.7348
G01 X12.5600 Y23.8400
G01 X12.5574 Y23.8530
G01 X12.5314 Y23.9561
G01 X12.4958 Y24.0563
G01 X12.4907 Y24.0685
G01 X12.4451 Y24.1646
G01 X12.3870 Y24.2615
G01 X12.3238 Y24.3470
G01 X12.3154 Y24.3572
G01 X12.2439 Y24.4359
G01 X12.1652 Y24.5074
G01 X12.1550 Y24.5158
G01 X12.0695 Y24.5790
G01 X11.9726 Y24.6371
G01 X11.8705 Y24.6854
G01 X11.7641 Y24.7234
G01 X11.6545 Y24.7509
G01 X11.5428 Y24.7675
G01 X11.4300 Y24.7730
G01 X11.3172 Y24.7675
G01 X11.2055 Y24.7509
G01 X11.0959 Y24.7234
G01 X10.9895 Y24.6854
G01 X10.8874 Y24.6371
G01 X10.7905 Y24.5790
G01 X10.6998 Y24.5117
G01 X10.6161 Y24.4359
G01 X10.5403 Y24.3522
G01 X10.4730 Y24.2615
G01 X10.4149 Y24.1646
G01 X10.3666 Y24.0625
G01 X10.3286 Y23.9561
G01 X10.3011 Y23.8465
G01 X10.2845 Y23.7348
G01 X10.2790 Y23.6220
G01 X10.2845 Y23.5092
G01 X10.3011 Y23.3975
G01 X10.3286 Y23.2879
G01 X10.3666 Y23.1815
G01 X10.4149 Y23.0794
G01 X10.4730 Y22.9825
G01 X10.5403 Y22.8918
G01 X10.6161 Y22.8081
G01 X10.6998 Y22.7323
G01 X10.7851 Y22.6688
G01 X10.7947 Y22.6623
G00 Z2.0000
G00 X18.0901 Y38.2184
G01 F150.00
G01 Z0.0000
G01 F400.00
G01 X18.0950 Y38.3140
G01 X18.0904 Y38.4071
G01 X18.0767 Y38.4993
G01 X18.0541 Y38.5898
G01 X18.0227 Y38.6775
G01 X17.9828 Y38.7618
G01 X17.9349 Y38.8418
G01 X17.8794 Y38.9167
G01 X17.8168 Y38.9858
G01 X17.7477 Y39.0484
G01 X17.6728 Y39.1039
G01 X17.5928 Y39.1518
G01 X17.5085 Y39.1917
G01 X17.4208 Y39.2231
G01 X17.3303 Y39.2457
G01 X17.2381 Y39.2594
G01 X17.1450 Y39.2640
G01 X17.0519 Y39.2594
G01 X16.9597 Y39.2457
G01 X16.8692 Y39.2231
G01 X16.7815 Y39.1917
G01 X16.6972 Y39.1518
G01 X16.6172 Y39.1039
G01 X16.5423 Y39.0484
G01 X16.4732 Y38.9858
G01 X16.4106 Y38.9167
G01 X16.3551 Y38.8418
G01 X16.3072 Y38.7618
G01 X16.2673 Y38.6775
G01 X16.2359 Y38.5898
G01 X16.2133 Y38.4993
G01 X16.1996 Y38.4071
G01 X16.1950 Y38.3140
G01 X16.1996 Y38.2209
G01 X16.2133 Y38.1287
G01 X16.2359 Y38.0382
G01 X16.2673 Y37.9505
G01 X16.3072 Y37.8662
G01 X16.3551 Y37.7862
G01 X16.4106 Y37.7113
G01 X16.4732 Y37.6422
G01 X16.5423 Y37.5796
G01 X16.6172 Y37.5241
G01 X16.6972 Y37.4762
G01 X16.7815 Y37.4363
G01 X16.8692 Y37.4049
G01 X16.9597 Y37.3823
G01 X17.0519 Y37.3686
G01 X17.1450 Y37.3640
G01 X17.2381 Y37.3686
G01 X17.3303 Y37.3823
G01 X17.4208 Y37.4049
G01 X17.5085 Y37.4363
G01 X17.5928 Y37.4762
G01 X17.6728 Y37.5241
G01 X17.7477 Y37.5796
G01 X17.8168 Y37.6422
G01 X17.8794 Y37.7113
G01 X17.9349 Y37.7862
G01 X17.9828 Y37.8662
G01 X18.0227 Y37.9505
G01 X18.0541 Y38.0382
G01 X18.0767 Y38.1287
G01 X18.0901 Y38.2184
G00 Z2.0000
G00 X18.1742 Y38.2060
G01 F150.00
G01 Z0.0000
G01 F400.00
G01 X18.1755 Y38.2192
G01 X18.1800 Y38.3140
G01 X18.1750 Y38.4154
G01 X18.1601 Y38.5159
G01 X18.1354 Y38.6144
G01 X18.1012 Y38.7101
G01 X18.0578 Y38.8019
G01 X18.0056 Y38.8890
G01 X17.9451 Y38.9706
G01 X17.8769 Y39.0459
G01 X17.8016 Y39.1141
G01 X17.7200 Y39.1746
G01 X17.6329 Y39.2268
G01 X17.5411 Y39.2702
G01 X17.4454 Y39.3044
G01 X17.3469 Y39.3291
G01 X17.2464 Y39.3440
G01 X17.1450 Y39.3490
G01 X17.0436 Y39.3440
G01 X16.9431 Y39.3291
G01 X16.8446 Y39.3044
G01 X16.7489 Y39.2702
G01 X16.6571 Y39.2268
G01 X16.5700 Y39.1746
G01 X16.4884 Y39.1141
G01 X16.4131 Y39.0459
G01 X16.3449 Y38.9706
G01 X16.2844 Y38.8890
G01 X16.2322 Y38.8019
G01 X16.1888 Y38.7101
G01 X16.1546 Y38.6144
G01 X16.1299 Y38.5159
G01 X16.1150 Y38.4154
G01 X16.1100 Y38.3140
G01 X16.1150 Y38.2126
G01 X16.1299 Y38.1121
G01 X16.1546 Y38.0136
G01 X16.1888 Y37.9179
G01 X16.2322 Y37.8261
G01 X16.2844 Y37.7390
G01 X16.3449 Y37.6574
G01 X16.4131 Y37.5821
G01 X16.4884 Y37.5139
G01 X16.5700 Y37.4534
G01 X16.6571 Y37.4012
G01 X16.7489 Y37.3578
G01 X16.8446 Y37.3236
G01 X16.9431 Y37.2989
G01 X17.0436 Y37.2840
G01 X17.1450 Y37.2790
G01 X17.2464 Y37.2840
G01 X17.3469 Y37.2989
G01 X17.4454 Y37.3236
G01 X17.5411 Y37.3578
G01 X17.6329 Y37.4012
G01 X17.7200 Y37.4534
G01 X17.8016 Y37.5139
G01 X17.8769 Y37.5821
G01 X17.9451 Y37.6574
G01 X18.0056 Y37.7390
G01 X18.0578 Y37.8261
G01 X18.1012 Y37.9179
G01 X18.1354 Y38.0136
G01 X18.1601 Y38.1121
G01 X18.1742 Y38.2060
G00 Z2.0000
G00 X18.2583 Y38.1935
G01 F150.00
G01 Z0.0000
G01 F400.00
G01 X18.2596 Y38.2042
G01 X18.2604 Y38.2150
G01 X18.2650 Y38.3140
G01 X18.2604 Y38.4130
G01 X18.2596 Y38.4238
G01 X18.2583 Y38.4345
G01 X18.2435 Y38.5325
G01 X18.2197 Y38.6287
G01 X18.2168 Y38.6391
G01 X18.2134 Y38.6494
G01 X18.1797 Y38.7426
G01 X18.1376 Y38.8323
G01 X18.1328 Y38.8420
G01 X18.1274 Y38.8514
G01 X18.0762 Y38.9362
G01 X18.0174 Y39.0160
G01 X18.0108 Y39.0245
G01 X18.0037 Y39.0327
G01 X17.9370 Y39.1060
G01 X17.8637 Y39.1727
G01 X17.8555 Y39.1798
G01 X17.8470 Y39.1864
G01 X17.7672 Y39.2452
G01 X17.6824 Y39.2964
G01 X17.6730 Y39.3018
G01 X17.6633 Y39.3066
G01 X17.5736 Y39.3487
G01 X17.4804 Y39.3824
G01 X17.4701 Y39.3858
G01 X17.4597 Y39.3887
G01 X17.3635 Y39.4125
G01 X17.2655 Y39.4273
G01 X17.2548 Y39.4286
G01 X17.2440 Y39.4294
G01 X17.1450 Y39.4340
G01 X17.0460 Y39.4294
G01 X17.0352 Y39.4286
G01 X17.0245 Y39.4273
G01 X16.9265 Y39.4125
G01 X16.8303 Y39.3887
G01 X16.8199 Y39.3858
G01 X16.8096 Y39.3824
G01 X16.7164 Y39.3487
G01 X16.6267 Y39.3066
G01 X16.6170 Y39.3018
G01 X16.6076 Y39.2964
G01 X16.5228 Y39.2452
G01 X16.4430 Y39.1864
G01 X16.4345 Y39.1798
G01 X16.4263 Y39.1727
G01 X16.3530 Y39.1060
G01 X16.2863 Y39.0327
G01 X16.2792 Y39.0245
G01 X16.2726 Y39.0160
G01 X16.2138 Y38.9362
G01 X16.1626 Y38.8514
G01 X16.1572 Y38.8420
G01 X16.1524 Y38.8323
G01 X16.1103 Y38.7426
G01 X16.0766 Y38.6494
G01 X16.0732 Y38.6391
G01 X16.0489 Y38.5430
G01 X16.0465 Y38.5325
G01 X16.0317 Y38.4345
G01 X16.0304 Y38.4238
G01 X16.0296 Y38.4130
G01 X16.0250 Y38.3140
G01 X16.0296 Y38.2150
G01 X16.0304 Y38.2042
G01 X16.0317 Y38.1935
G01 X16.0465 Y38.0955
G01 X16.0703 Y37.9993
G01 X16.0732 Y37.9889
G01 X16.0766 Y37.9786
G01 X16.1103 Y37.8854
G01 X16.1524 Y37.7957
G01 X16.1572 Y37.7860
G01 X16.1626 Y37.7766
G01 X16.2138 Y37.6918
G01 X16.2726 Y37.6120
G01 X16.2792 Y37.6035
G01 X16.2863 Y37.5953
G01 X16.3530 Y37.5220
G01 X16.4263 Y37.4553
G01 X16.4345 Y37.4482
G01 X16.5139 Y37.3890
G01 X16.5228 Y37.3828
G01 X16.6076 Y37.3316
G01 X16.6170 Y37.3262
G01 X16.6267 Y37.3214
G01 X16.7164 Y37.2793
G01 X16.8096 Y37.2456
G01 X16.8199 Y37.2422
G01 X16.9160 Y37.2179
G01 X16.9265 Y37.2155
G01 X17.0245 Y37.2007
G01 X17.0352 Y37.1994
G01 X17.0460 Y37.1986
G01 X17.1450 Y37.1940
G01 X17.2440 Y37.1986
G01 X17.2548 Y37.1994
G01 X17.2655 Y37.2007
G01 X17.3635 Y37.2155
G01 X17.4597 Y37.2393
G01 X17.4701 Y37.2422
G01 X17.4804 Y37.2456
G01 X17.5736 Y37.2793
G01 X17.6633 Y37.3214
G01 X17.6730 Y37.3262
G01 X17.6824 Y37.3316
G01 X17.7672 Y37.3828
G01 X17.8470 Y37.4416
G01 X17.8555 Y37.4482
G01 X17.8637 Y37.4553
G01 X17.9370 Y37.5220
G01 X18.0037 Y37.5953
G01 X18.0108 Y37.6035
G01 X18.0174 Y37.6120
G01 X18.0762 Y37.6918
G01 X18.1274 Y37.7766
G01 X18.1328 Y37.7860
G01 X18.1376 Y37.7957
G01 X18.1797 Y37.8854
G01 X18.2134 Y37.9786
G01 X18.2168 Y37.9889
G01 X18.2197 Y37.9993
G01 X18.2435 Y38.0955
G01 X18.2583 Y38.1935
G00 Z2.0000
G00 X18.2583 Y40.7335
G01 F150.00
G01 Z0.0000
G01 F400.00
G01 X18.2596 Y40.7442
G01 X18.2604 Y40.7550
G01 X18.2650 Y40.8540
G01 X18.2604 Y40.9530
G01 X18.2596 Y40.9638
G01 X18.2583 Y40.9745
G01 X18.2435 Y41.0725
G01 X18.2197 Y41.1687
G01 X18.2168 Y41.1791
G01 X18.2134 Y41.1894
G01 X18.1797 Y41.2826
G01 X18.1376 Y41.3723
G01 X18.1328 Y41.3820
G01 X18.1274 Y41.3914
G01 X18.0762 Y41.4762
G01 X18.0174 Y41.5560
G01 X18.0108 Y41.5645
G01 X18.0037 Y41.5727
G01 X17.9370 Y41.6460
G01 X17.8637 Y41.7127
G01 X17.8555 Y41.7198
G01 X17.8470 Y41.7264
G01 X17.7672 Y41.7852
G01 X17.6824 Y41.8364
G01 X17.6730 Y41.8418
G01 X17.6633 Y41.8466
G01 X17.5736 Y41.8887
G01 X17.4804 Y41.9224
G01 X17.4701 Y41.9258
G01 X17.4597 Y41.9287
G01 X17.3635 Y41.9525
G01 X17.2655 Y41.9673
G01 X17.2548 Y41.9686
G01 X17.2440 Y41.9694
G01 X17.1450 Y41.9740
G01 X17.0460 Y41.9694
G01 X17.0352 Y41.9686
G01 X17.0245 Y41.9673
G01 X16.9265 Y41.9525
G01 X16.8303 Y41.9287
G01 X16.8199 Y41.9258
G01 X16.8096 Y41.9224
G01 X16.7164 Y41.8887
G01 X16.6267 Y41.8466
G01 X16.6170 Y41.8418
G01 X16.6076 Y41.8364
G01 X16.5228 Y41.7852
G01 X16.4430 Y41.7264
G01 X16.4345 Y41.7198
G01 X16.4263 Y41.7127
G01 X16.3530 Y41.6460
G01 X16.2863 Y41.5727
G01 X16.2792 Y41.5645
G01 X16.2726 Y41.5560
G01 X16.2138 Y41.4762
G01 X16.1626 Y41.3914
G01 X16.1572 Y41.3820
G01 X16.1524 Y41.3723
G01 X16.1103 Y41.2826
G01 X16.0766 Y41.1894
G01 X16.0732 Y41.1791
G01 X16.0489 Y41.0830
G01 X16.0465 Y41.0725
G01 X16.0317 Y40.9745
G01 X16.0304 Y40.9638
G01 X16.0296 Y40.9530
G01 X16.0250 Y40.8540
G01 X16.0296 Y40.7550
G01 X16.0304 Y40.7442
G01 X16.0317 Y40.7335
G01 X16.0465 Y40.6355
G01 X16.0703 Y40.5393
G01 X16.0732 Y40.5289
G01 X16.0766 Y40.5186
G01 X16.1103 Y40.4254
G01 X16.1524 Y40.3357
G01 X16.1572 Y40.3260
G01 X16.1626 Y40.3166
G01 X16.2138 Y40.2318
G01 X16.2726 Y40.1520
G01 X16.2792 Y40.1435
G01 X16.2863 Y40.1353
G01 X16.3530 Y40.0620
G01 X16.4263 Y39.9953
G01 X16.4345 Y39.9882
G01 X16.4430 Y39.9816
G01 X16.5228 Y39.9228
G01 X16.6076 Y39.8716
G01 X16.6170 Y39.8662
G01 X16.6267 Y39.8614
G01 X16.7164 Y39.8193
G01 X16.8096 Y39.7856
G01 X16.8199 Y39.7822
G01 X16.9160 Y39.7579
G01 X16.9265 Y39.7555
G01 X17.0245 Y39.7407
G01 X17.0352 Y39.7394
G01 X17.0460 Y39.7386
G01 X17.1450 Y39.7340
G01 X17.2440 Y39.7386
G01 X17.2548 Y39.7394
G01 X17.2655 Y39.7407
G01 X17.3635 Y39.7555
G01 X17.4597 Y39.7793
G01 X17.4701 Y39.7822
G01 X17.4804 Y39.7856
G01 X17.5736 Y39.8193
G01 X17.6633 Y39.8614
G01 X17.6730 Y39.8662
G01 X17.6824 Y39.8716
G01 X17.7672 Y39.9228
G01 X17.8470 Y39.9816
G01 X17.8555 Y39.9882
G01 X17.8637 Y39.9953
G01 X17.9370 Y40.0620
G01 X18.0037 Y40.1353
G01 X18.0108 Y40.1435
G01 X18.0174 Y40.1520
G01 X18.0762 Y40.2318
G01 X18.1274 Y40.3166
G01 X18.1328 Y40.3260
G01 X18.1376 Y40.3357
G01 X18.1797 Y40.4254
G01 X18.2134 Y40.5186
G01 X18.2168 Y40.5289
G01 X18.2411 Y40.6250
G01 X18.2435 Y40.6355
G01 X18.2583 Y40.7335
G00 Z2.0000
G00 X18.1742 Y40.7460
G01 F150.00
G01 Z0.0000
G01 F400.00
G01 X18.1755 Y40.7592
G01 X18.1800 Y40.8540
G01 X18.1750 Y40.9554
G01 X18.1601 Y41.0559
G01 X18.1354 Y41.1544
G01 X18.1012 Y41.2501
G01 X18.0578 Y41.3419
G01 X18.0056 Y41.4290
G01 X17.9451 Y41.5106
G01 X17.8769 Y41.5859
G01 X17.8016 Y41.6541
G01 X17.7200 Y41.7146
G01 X17.6329 Y41.7668
G01 X17.5411 Y41.8102
G01 X17.4454 Y41.8444
G01 X17.3469 Y41.8691
G01 X17.2464 Y41.8840
G01 X17.1450 Y41.8890
G01 X17.0436 Y41.8840
G01 X16.9431 Y41.8691
G01 X16.8446 Y41.8444
G01 X16.7489 Y41.8102
G01 X16.6571 Y41.7668
G01 X16.5700 Y41.7146
G01 X16.4884 Y41.6541
G01 X16.4131 Y41.5859
G01 X16.3449 Y41.5106
G01 X16.2844 Y41.4290
G01 X16.2322 Y41.3419
G01 X16.1888 Y41.2501
G01 X16.1546 Y41.1544
G01 X16.1299 Y41.0559
G01 X16.1150 Y40.9554
G01 X16.1100 Y40.8540
G01 X16.1150 Y40.7526
G01 X16.1299 Y40.6521
G01 X16.1546 Y40.5536
G01 X16.1888 Y40.4579
G01 X16.2322 Y40.3661
G01 X16.2844 Y40.2790
G01 X16.3449 Y40.1974
G01 X16.4131 Y40.1221
G01 X16.4884 Y40.0539
G01 X16.5700 Y39.9934
G01 X16.6571 Y39.9412
G01 X16.7489 Y39.8978
G01 X16.8446 Y39.8636
G01 X16.9431 Y39.8389
G01 X17.0436 Y39.8240
G01 X17.1450 Y39.8190
G01 X17.2464 Y39.8240
G01 X17.3469 Y39.8389
G01 X17.4454 Y39.8636
G01 X17.5411 Y39.8978
G01 X17.6329 Y39.9412
G01 X17.7200 Y39.9934
G01 X17.8016 Y40.0539
G01 X17.8769 Y40.1221
G01 X17.9451 Y40.1974
G01 X18.0056 Y40.2790
G01 X18.0578 Y40.3661
G01 X18.1012 Y40.4579
G01 X18.1354 Y40.5536
G01 X18.1601 Y40.6521
G01 X18.1742 Y40.7460
G00 Z2.0000
G00 X18.0901 Y40.7584
G01 F150.00
G01 Z0.0000
G01 F400.00
G01 X18.0950 Y40.8540
G01 X18.0904 Y40.9471
G01 X18.0767 Y41.0393
G01 X18.0541 Y41.1298
G01 X18.0227 Y41.2175
G01 X17.9828 Y41.3018
G01 X17.9349 Y41.3818
G01 X17.8794 Y41.4567
G01 X17.8168 Y41.5258
G01 X17.7477 Y41.5884
G01 X17.6728 Y41.6439
G01 X17.5928 Y41.6918
G01 X17.5085 Y41.7317
G01 X17.4208 Y41.7631
G01 X17.3303 Y41.7857
G01 X17.2381 Y41.7994
G01 X17.1450 Y41.8040
G01 X17.0519 Y41.7994
G01 X16.9597 Y41.7857
G01 X16.8692 Y41.7631
G01 X16.7815 Y41.7317
G01 X16.6972 Y41.6918
G01 X16.6172 Y41.6439
G01 X16.5423 Y41.5884
G01 X16.4732 Y41.5258
G01 X16.4106 Y41.4567
G01 X16.3551 Y41.3818
G01 X16.3072 Y41.3018
G01 X16.2673 Y41.2175
G01 X16.2359 Y41.1298
G01 X16.2133 Y41.0393
G01 X16.1996 Y40.9471
G01 X16.1950 Y40.8540
G01 X16.1996 Y40.7609
G01 X16.2133 Y40.6687
G01 X16.2359 Y40.5782
G01 X16.2673 Y40.4905
G01 X16.3072 Y40.4062
G01 X16.3551 Y40.3262
G01 X16.4106 Y40.2513
G01 X16.4732 Y40.1822
G01 X16.5423 Y40.1196
G01 X16.6172 Y40.0641
G01 X16.6972 Y40.0162
G01 X16.7815 Y39.9763
G01 X16.8692 Y39.9449
G01 X16.9597 Y39.9223
G01 X17.0519 Y39.9086
G01 X17.1450 Y39.9040
G01 X17.2381 Y39.9086
G01 X17.3303 Y39.9223
G01 X17.4208 Y39.9449
G01 X17.5085 Y39.9763
G01 X17.5928 Y40.0162
G01 X17.6728 Y40.0641
G01 X17.7477 Y40.1196
G01 X17.8168 Y40.1822
G01 X17.8794 Y40.2513
G01 X17.9349 Y40.3262
G01 X17.9828 Y40.4062
G01 X18.0227 Y40.4905
G01 X18.0541 Y40.5782
G01 X18.0767 Y40.6687
G01 X18.0901 Y40.7584
G00 Z2.0000
G00 X18.2583 Y43.2735
G01 F150.00
G01 Z0.0000
G01 F400.00
G01 X18.2596 Y43.2842
G01 X18.2604 Y43.2950
G01 X18.2650 Y43.3940
G01 X18.2604 Y43.4930
G01 X18.2596 Y43.5038
G01 X18.2583 Y43.5145
G01 X18.2435 Y43.6125
G01 X18.2197 Y43.7087
G01 X18.2168 Y43.7191
G01 X18.2134 Y43.7294
G01 X18.1797 Y43.8226
G01 X18.1376 Y43.9123
G01 X18.1328 Y43.9220
G01 X18.1274 Y43.9314
G01 X18.0762 Y44.0162
G01 X18.0174 Y44.0960
G01 X18.0108 Y44.1045
G01 X18.0037 Y44.1127
G01 X17.9370 Y44.1860
G01 X17.8637 Y44.2527
G01 X17.8555 Y44.2598
G01 X17.8470 Y44.2664
G01 X17.7672 Y44.3252
G01 X17.6824 Y44.3764
G01 X17.6730 Y44.3818
G01 X17.6633 Y44.3866
G01 X17.5736 Y44.4287
G01 X17.4804 Y44.4624
G01 X17.4701 Y44.4658
G01 X17.4597 Y44.4687
G01 X17.3635 Y44.4925
G01 X17.2655 Y44.5073
G01 X17.2548 Y44.5086
G01 X17.2440 Y44.5094
G01 X17.1450 Y44.5140
G01 X17.0460 Y44.5094
G01 X17.0352 Y44.5086
G01 X17.0245 Y44.5073
G01 X16.9265 Y44.4925
G01 X16.8303 Y44.4687
G01 X16.8199 Y44.4658
G01 X16.8096 Y44.4624
G01 X16.7164 Y44.4287
G01 X16.6267 Y44.3866
G01 X16.6170 Y44.3818
G01 X16.6076 Y44.3764
G01 X16.5228 Y44.3252
G01 X16.4430 Y44.2664
G01 X16.4345 Y44.2598
G01 X16.4263 Y44.2527
G01 X16.3530 Y44.1860
G01 X16.2863 Y44.1127
G01 X16.2792 Y44.1045
G01 X16.2726 Y44.0960
G01 X16.2138 Y44.0162
G01 X16.1626 Y43.9314
G01 X16.1572 Y43.9220
G01 X16.1524 Y43.9123
G01 X16.1103 Y43.8226
G01 X16.0766 Y43.7294
G01 X16.0732 Y43.7191
G01 X16.0489 Y43.6230
G01 X16.0465 Y43.6125
G01 X16.0317 Y43.5145
G01 X16.0304 Y43.5038
G01 X16.0296 Y43.4930
G01 X16.0250 Y43.3940
G01 X16.0296 Y43.2950
G01 X16.0304 Y43.2842
G01 X16.0317 Y43.2735
G01 X16.0465 Y43.1755
G01 X16.0703 Y43.0793
G01 X16.0732 Y43.0689
G01 X16.0766 Y43.0586
G01 X16.1103 Y42.9654
G01 X16.1524 Y42.8757
G01 X16.1572 Y42.8660
G01 X16.1626 Y42.8566
G01 X16.2138 Y42.7718
G01 X16.2726 Y42.6920
G01 X16.2792 Y42.6835
G01 X16.2863 Y42.6753
G01 X16.3530 Y42.6020
G01 X16.4263 Y42.5353
G01 X16.4345 Y42.5282
G01 X16.4430 Y42.5216
G01 X16.5228 Y42.4628
G01 X16.6076 Y42.4116
G01 X16.6170 Y42.4062
G01 X16.6267 Y42.4014
G01 X16.7164 Y42.3593
G01 X16.8096 Y42.3256
G01 X16.8199 Y42.3222
G01 X16.9160 Y42.2979
G01 X16.9265 Y42.2955
G01 X17.0245 Y42.2807
G01 X17.0352 Y42.2794
G01 X17.0460 Y42.2786
G01 X17.1450 Y42.2740
G01 X17.2440 Y42.2786
G01 X17.2548 Y42.2794
G01 X17.2655 Y42.2807
G01 X17.3635 Y42.2955
G01 X17.4597 Y42.3193
G01 X17.4701 Y42.3222
G01 X17.4804 Y42.3256
G01 X17.5736 Y42.3593
G01 X17.6633 Y42.4014
G01 X17.6730 Y42.4062
G01 X17.6824 Y42.4116
G01 X17.7672 Y42.4628
G01 X17.8470 Y42.5216
G01 X17.8555 Y42.5282
G01 X17.8637 Y42.5353
G01 X17.9370 Y42.6020
G01 X18.0037 Y42.6753
G01 X18.0108 Y42.6835
G01 X18.0700 Y42.7629
G01 X18.0762 Y42.7718
G01 X18.1274 Y42.8566
G01 X18.1328 Y42.8660
G01 X18.1376 Y42.8757
G01 X18.1797 Y42.9654
G01 X18.2134 Y43.0586
G01 X18.2168 Y43.0689
G01 X18.2411 Y43.1650
G01 X18.2435 Y43.1755
G01 X18.2583 Y43.2735
G00 Z2.0000
G00 X18.1742 Y43.2860
G01 F150.00
G01 Z0.0000
G01 F400.00
G01 X18.1755 Y43.2992
G01 X18.1800 Y43.3940
G01 X18.1750 Y43.4954
G01 X18.1601 Y43.5959
G01 X18.1354 Y43.6944
G01 X18.1012 Y43.7901
G01 X18.0578 Y43.8819
G01 X18.0056 Y43.9690
G01 X17.9451 Y44.0506
G01 X17.8769 Y44.1259
G01 X17.8016 Y44.1941
G01 X17.7200 Y44.2546
G01 X17.6329 Y44.3068
G01 X17.5411 Y44.3502
G01 X17.4454 Y44.3844
G01 X17.3469 Y44.4091
G01 X17.2464 Y44.4240
G01 X17.1450 Y44.4290
G01 X17.0436 Y44.4240
G01 X16.9431 Y44.4091
G01 X16.8446 Y44.3844
G01 X16.7489 Y44.3502
G01 X16.6571 Y44.3068
G01 X16.5700 Y44.2546
G01 X16.4884 Y44.1941
G01 X16.4131 Y44.1259
G01 X16.3449 Y44.0506
G01 X16.2844 Y43.9690
G01 X16.2322 Y43.8819
G01 X16.1888 Y43.7901
G01 X16.1546 Y43.6944
G01 X16.1299 Y43.5959
G01 X16.1150 Y43.4954
G01 X16.1100 Y43.3940
G01 X16.1150 Y43.2926
G01 X16.1299 Y43.1921
G01 X16.1546 Y43.0936
G01 X16.1888 Y42.9979
G01 X16.2322 Y42.9061
G01 X16.2844 Y42.8190
G01 X16.3449 Y42.7374
G01 X16.4131 Y42.6621
G01 X16.4884 Y42.5939
G01 X16.5700 Y42.5334
G01 X16.6571 Y42.4812
G01 X16.7489 Y42.4378
G01 X16.8446 Y42.4036
G01 X16.9431 Y42.3789
G01 X17.0436 Y42.3640
G01 X17.1450 Y42.3590
G01 X17.2464 Y42.3640
G01 X17.3469 Y42.3789
G01 X17.4454 Y42.4036
G01 X17.5411 Y42.4378
G01 X17.6329 Y42.4812
G01 X17.7200 Y42.5334
G01 X17.8016 Y42.5939
G01 X17.8769 Y42.6621
G01 X17.9451 Y42.7374
G01 X18.0056 Y42.8190
G01 X18.0578 Y42.9061
G01 X18.1012 Y42.9979
G01 X18.1354 Y43.0936
G01 X18.1601 Y43.1921
G01 X18.1742 Y43.2860
G00 Z2.0000
G00 X18.0901 Y43.2984
G01 F150.00
G01 Z0.0000
G01 F400.00
G01 X18.0950 Y43.3940
G01 X18.0904 Y43.4871
G01 X18.0767 Y43.5793
G01 X18.0541 Y43.6698
G01 X18.0227 Y43.7575
G01 X17.9828 Y43.8418
G01 X17.9349 Y43.9218
G01 X17.8794 Y43.9967
G01 X17.8168 Y44.0658
G01 X17.7477 Y44.1284
G01 X17.6728 Y44.1839
G01 X17.5928 Y44.2318
G01 X17.5085 Y44.2717
G01 X17.4208 Y44.3031
G01 X17.3303 Y44.3257
G01 X17.2381 Y44.3394
G01 X17.1450 Y44.3440
G01 X17.0519 Y44.3394
G01 X16.9597 Y44.3257
G01 X16.8692 Y44.3031
G01 X16.7815 Y44.2717
G01 X16.6972 Y44.2318
G01 X16.6172 Y44.1839
G01 X16.5423 Y44.1284
G01 X16.4732 Y44.0658
G01 X16.4106 Y43.9967
G01 X16.3551 Y43.9218
G01 X16.3072 Y43.8418
G01 X16.2673 Y43.7575
G01 X16.2359 Y43.6698
G01 X16.2133 Y43.5793
G01 X16.1996 Y43.4871
G01 X16.1950 Y43.3940
G01 X16.1996 Y43.3009
G01 X16.2133 Y43.2087
G01 X16.2359 Y43.1182
G01 X16.2673 Y43.0305
G01 X16.3072 Y42.9462
G01 X16.3551 Y42.8662
G01 X16.4106 Y42.7913
G01 X16.4732 Y42.7222
G01 X16.5423 Y42.6596
G01 X16.6172 Y42.6041
G01 X16.6972 Y42.5562
G01 X16.7815 Y42.5163
G01 X16.8692 Y42.4849
G01 X16.9597 Y42.4623
G01 X17.0519 Y42.4486
G01 X17.1450 Y42.4440
G01 X17.2381 Y42.4486
G01 X17.3303 Y42.4623
G01 X17.4208 Y42.4849
G01 X17.5085 Y42.5163
G01 X17.5928 Y42.5562
G01 X17.6728 Y42.6041
G01 X17.7477 Y42.6596
G01 X17.8168 Y42.7222
G01 X17.8794 Y42.7913
G01 X17.9349 Y42.8662
G01 X17.9828 Y42.9462
G01 X18.0227 Y43.0305
G01 X18.0541 Y43.1182
G01 X18.0767 Y43.2087
G01 X18.0901 Y43.2984
G00 Z2.0000
G00 X18.2583 Y45.8135
G01 F150.00
G01 Z0.0000
G01 F400.00
G01 X18.2596 Y45.8242
G01 X18.2604 Y45.8350
G01 X18.2650 Y45.9340
G01 X18.2604 Y46.0330
G01 X18.2596 Y46.0438
G01 X18.2583 Y46.0545
G01 X18.2435 Y46.1525
G01 X18.2197 Y46.2487
G01 X18.2168 Y46.2591
G01 X18.2134 Y46.2694
G01 X18.1797 Y46.3626
G01 X18.1376 Y46.4523
G01 X18.1328 Y46.4620
G01 X18.1274 Y46.4714
G01 X18.0762 Y46.5562
G01 X18.0174 Y46.6360
G01 X18.0108 Y46.6445
G01 X18.0037 Y46.6527
G01 X17.9370 Y46.7260
G01 X17.8637 Y46.7927
G01 X17.8555 Y46.7998
G01 X17.8470 Y46.8064
G01 X17.7672 Y46.8652
G01 X17.6824 Y46.9164
G01 X17.6730 Y46.9218
G01 X17.6633 Y46.9266
G01 X17.5736 Y46.9687
G01 X17.4804 Y47.0024
G01 X17.4701 Y47.0058
G01 X17.3740 Y47.0301
G01 X17.3635 Y47.0325
G01 X17.2655 Y47.0473
G01 X17.2548 Y47.0486
G01 X17.2440 Y47.0494
G01 X17.1450 Y47.0540
G01 X17.0460 Y47.0494
G01 X17.0352 Y47.0486
G01 X17.0245 Y47.0473
G01 X16.9265 Y47.0325
G01 X16.8303 Y47.0087
G01 X16.8199 Y47.0058
G01 X16.8096 Y47.0024
G01 X16.7164 Y46.9687
G01 X16.6267 Y46.9266
G01 X16.6170 Y46.9218
G01 X16.6076 Y46.9164
G01 X16.5228 Y46.8652
G01 X16.4430 Y46.8064
G01 X16.4345 Y46.7998
G01 X16.4263 Y46.7927
G01 X16.3530 Y46.7260
G01 X16.2863 Y46.6527
G01 X16.2792 Y46.6445
G01 X16.2726 Y46.6360
G01 X16.2138 Y46.5562
G01 X16.1626 Y46.4714
G01 X16.1572 Y46.4620
G01 X16.1524 Y46.4523
G01 X16.1103 Y46.3626
G01 X16.0766 Y46.2694
G01 X16.0732 Y46.2591
G01 X16.0489 Y46.1630
G01 X16.0465 Y46.1525
G01 X16.0317 Y46.0545
G01 X16.0304 Y46.0438
G01 X16.0296 Y46.0330
G01 X16.0250 Y45.9340
G01 X16.0296 Y45.8350
G01 X16.0304 Y45.8242
G01 X16.0317 Y45.8135
G01 X16.0465 Y45.7155
G01 X16.0703 Y45.6193
G01 X16.0732 Y45.6089
G01 X16.0766 Y45.5986
G01 X16.1103 Y45.5054
G01 X16.1524 Y45.4157
G01 X16.1572 Y45.4060
G01 X16.1626 Y45.3966
G01 X16.2138 Y45.3118
G01 X16.2726 Y45.2320
G01 X16.2792 Y45.2235
G01 X16.2863 Y45.2153
G01 X16.3530 Y45.1420
G01 X16.4263 Y45.0753
G01 X16.4345 Y45.0682
G01 X16.4430 Y45.0616
G01 X16.5228 Y45.0028
G01 X16.6076 Y44.9516
G01 X16.6170 Y44.9462
G01 X16.6267 Y44.9414
G01 X16.7164 Y44.8993
G01 X16.8096 Y44.8656
G01 X16.8199 Y44.8622
G01 X16.9160 Y44.8379
G01 X16.9265 Y44.8355
G01 X17.0245 Y44.8207
G01 X17.0352 Y44.8194
G01 X17.0460 Y44.8186
G01 X17.1450 Y44.8140
G01 X17.2440 Y44.8186
G01 X17.2548 Y44.8194
G01 X17.2655 Y44.8207
G01 X17.3635 Y44.8355
G01 X17.4597 Y44.8593
G01 X17.4701 Y44.8622
G01 X17.4804 Y44.8656
G01 X17.5736 Y44.8993
G01 X17.6633 Y44.9414
G01 X17.6730 Y44.9462
G01 X17.6824 Y44.9516
G01 X17.7672 Y45.0028
G01 X17.8470 Y45.0616
G01 X17.8555 Y45.0682
G01 X17.8637 Y45.0753
G01 X17.9370 Y45.1420
G01 X18.0037 Y45.2153
G01 X18.0108 Y45.2235
G01 X18.0700 Y45.3029
G01 X18.0762 Y45.3118
G01 X18.1274 Y45.3966
G01 X18.1328 Y45.4060
G01 X18.1376 Y45.4157
G01 X18.1797 Y45.5054
G01 X18.2134 Y45.5986
G01 X18.2168 Y45.6089
G01 X18.2411 Y45.7050
G01 X18.2435 Y45.7155
G01 X18.2583 Y45.8135
G00 Z2.0000
G00 X18.1742 Y45.8260
G01 F150.00
G01 Z0.0000
G01 F400.00
G01 X18.1755 Y45.8392
G01 X18.1800 Y45.9340
G01 X18.1750 Y46.0354
G01 X18.1601 Y46.1359
G01 X18.1354 Y46.2344
G01 X18.1012 Y46.3301
G01 X18.0578 Y46.4219
G01 X18.0056 Y46.5090
G01 X17.9451 Y46.5906
G01 X17.8769 Y46.6659
G01 X17.8016 Y46.7341
G01 X17.7200 Y46.7946
G01 X17.6329 Y46.8468
G01 X17.5411 Y46.8902
G01 X17.4454 Y46.9244
G01 X17.3469 Y46.9491
G01 X17.2464 Y46.9640
G01 X17.1450 Y46.9690
G01 X17.0436 Y46.9640
G01 X16.9431 Y46.9491
G01 X16.8446 Y46.9244
G01 X16.7489 Y46.8902
G01 X16.6571 Y46.8468
G01 X16.5700 Y46.7946
G01 X16.4884 Y46.7341
G01 X16.4131 Y46.6659
G01 X16.3449 Y46.5906
G01 X16.2844 Y46.5090
G01 X16.2322 Y46.4219
G01 X16.1888 Y46.3301
G01 X16.1546 Y46.2344
G01 X16.1299 Y46.1359
G01 X16.1150 Y46.0354
G01 X16.1100 Y45.9340
G01 X16.1150 Y45.8326
G01 X16.1299 Y45.7321
G01 X16.1546 Y45.6336
G01 X16.1888 Y45.5379
G01 X16.2322 Y45.4461
G01 X16.2844 Y45.3590
G01 X16.3449 Y45.2774
G01 X16.4131 Y45.2021
G01 X16.4884 Y45.1339
G01 X16.5700 Y45.0734
G01 X16.6571 Y45.0212
G01 X16.7489 Y44.9778
G01 X16.8446 Y44.9436
G01 X16.9431 Y44.9189
G01 X17.0436 Y44.9040
G01 X17.1450 Y44.8990
G01 X17.2464 Y44.9040
G01 X17.3469 Y44.9189
G01 X17.4454 Y44.9436
G01 X17.5411 Y44.9778
G01 X17.6329 Y45.0212
G01 X17.7200 Y45.0734
G01 X17.8016 Y45.1339
G01 X17.8769 Y45.2021
G01 X17.9451 Y45.2774
G01 X18.0056 Y45.3590
G01 X18.0578 Y45.4461
G01 X18.1012 Y45.5379
G01 X18.1354 Y45.6336
G01 X18.1601 Y45.7321
G01 X18.1742 Y45.8260
G00 Z2.0000
G00 X18.0901 Y45.8384
G01 F150.00
G01 Z0.0000
G01 F400.00
G01 X18.0950 Y45.9340
G01 X18.0904 Y46.0271
G01 X18.0767 Y46.1193
G01 X18.0541 Y46.2098
G01 X18.0227 Y46.2975
G01 X17.9828 Y46.3818
G01 X17.9349 Y46.4618
G01 X17.8794 Y46.5367
G01 X17.8168 Y46.6058
G01 X17.7477 Y46.6684
G01 X17.6728 Y46.7239
G01 X17.5928 Y46.7718
G01 X17.5085 Y46.8117
G01 X17.4208 Y46.8431
G01 X17.3303 Y46.8657
G01 X17.2381 Y46.8794
G01 X17.1450 Y46.8840
G01 X17.0519 Y46.8794
G01 X16.9597 Y46.8657
G01 X16.8692 Y46.8431
G01 X16.7815 Y46.8117
G01 X16.6972 Y46.7718
G01 X16.6172 Y46.7239
G01 X16.5423 Y46.6684
G01 X16.4732 Y46.6058
G01 X16.4106 Y46.5367
G01 X16.3551 Y46.4618
G01 X16.3072 Y46.3818
G01 X16.2673 Y46.2975
G01 X16.2359 Y46.2098
G01 X16.2133 Y46.1193
G01 X16.1996 Y46.0271
G01 X16.1950 Y45.9340
G01 X16.1996 Y45.8409
G01 X16.2133 Y45.7487
G01 X16.2359 Y45.6582
G01 X16.2673 Y45.5705
G01 X16.3072 Y45.4862
G01 X16.3551 Y45.4062
G01 X16.4106 Y45.3313
G01 X16.4732 Y45.2622
G01 X16.5423 Y45.1996
G01 X16.6172 Y45.1441
G01 X16.6972 Y45.0962
G01 X16.7815 Y45.0563
G01 X16.8692 Y45.0249
G01 X16.9597 Y45.0023
G01 X17.0519 Y44.9886
G01 X17.1450 Y44.9840
G01 X17.2381 Y44.9886
G01 X17.3303 Y45.0023
G01 X17.4208 Y45.0249
G01 X17.5085 Y45.0563
G01 X17.5928 Y45.0962
G01 X17.6728 Y45.1441
G01 X17.7477 Y45.1996
G01 X17.8168 Y45.2622
G01 X17.8794 Y45.3313
G01 X17.9349 Y45.4062
G01 X17.9828 Y45.4862
G01 X18.0227 Y45.5705
G01 X18.0541 Y45.6582
G01 X18.0767 Y45.7487
G01 X18.0901 Y45.8384
G00 Z2.0000
G00 X18.2583 Y48.3535
G01 F150.00
G01 Z0.0000
G01 F400.00
G01 X18.2596 Y48.3642
G01 X18.2604 Y48.3750
G01 X18.2650 Y48.4740
G01 X18.2604 Y48.5730
G01 X18.2596 Y48.5838
G01 X18.2583 Y48.5945
G01 X18.2435 Y48.6925
G01 X18.2197 Y48.7887
G01 X18.2168 Y48.7991
G01 X18.2134 Y48.8094
G01 X18.1797 Y48.9026
G01 X18.1376 Y48.9923
G01 X18.1328 Y49.0020
G01 X18.1274 Y49.0114
G01 X18.0762 Y49.0962
G01 X18.0174 Y49.1760
G01 X18.0108 Y49.1845
G01 X18.0037 Y49.1927
G01 X17.9370 Y49.2660
G01 X17.8637 Y49.3327
G01 X17.8555 Y49.3398
G01 X17.8470 Y49.3464
G01 X17.7672 Y49.4052
G01 X17.6824 Y49.4564
G01 X17.6730 Y49.4618
G01 X17.6633 Y49.4666
G01 X17.5736 Y49.5087
G01 X17.4804 Y49.5424
G01 X17.4701 Y49.5458
G01 X17.3740 Y49.5701
G01 X17.3635 Y49.5725
G01 X17.2655 Y49.5873
G01 X17.2548 Y49.5886
G01 X17.2440 Y49.5894
G01 X17.1450 Y49.5940
G01 X17.0460 Y49.5894
G01 X17.0352 Y49.5886
G01 X17.0245 Y49.5873
G01 X16.9265 Y49.5725
G01 X16.8303 Y49.5487
G01 X16.8199 Y49.5458
G01 X16.8096 Y49.5424
G01 X16.7164 Y49.5087
G01 X16.6267 Y49.4666
G01 X16.6170 Y49.4618
G01 X16.6076 Y49.4564
G01 X16.5228 Y49.4052
G01 X16.4430 Y49.3464
G01 X16.4345 Y49.3398
G01 X16.4263 Y49.3327
G01 X16.3530 Y49.2660
G01 X16.2863 Y49.1927
G01 X16.2792 Y49.1845
G01 X16.2726 Y49.1760
G01 X16.2138 Y49.0962
G01 X16.1626 Y49.0114
G01 X16.1572 Y49.0020
G01 X16.1524 Y48.9923
G01 X16.1103 Y48.9026
G01 X16.0766 Y48.8094
G01 X16.0732 Y48.7991
G01 X16.0489 Y48.7030
G01 X16.0465 Y48.6925
G01 X16.0317 Y48.5945
G01 X16.0304 Y48.5838
G01 X16.0296 Y48.5730
G01 X16.0250 Y48.4740
G01 X16.0296 Y48.3750
G01 X16.0304 Y48.3642
G01 X16.0317 Y48.3535
G01 X16.0465 Y48.2555
G01 X16.0703 Y48.1593
G01 X16.0732 Y48.1489
G01 X16.0766 Y48.1386
G01 X16.1103 Y48.0454
G01 X16.1524 Y47.9557
G01 X16.1572 Y47.9460
G01 X16.1626 Y47.9366
G01 X16.2138 Y47.8518
G01 X16.2726 Y47.7720
G01 X16.2792 Y47.7635
G01 X16.2863 Y47.7553
G01 X16.3530 Y47.6820
G01 X16.4263 Y47.6153
G01 X16.4345 Y47.6082
G01 X16.4430 Y47.6016
G01 X16.5228 Y47.5428
G01 X16.6076 Y47.4916
G01 X16.6170 Y47.4862
G01 X16.6267 Y47.4814
G01 X16.7164 Y47.4393
G01 X16.8096 Y47.4056
G01 X16.8199 Y47.4022
G01 X16.9160 Y47.3779
G01 X16.9265 Y47.3755
G01 X17.0245 Y47.3607
G01 X17.0352 Y47.3594
G01 X17.0460 Y47.3586
G01 X17.1450 Y47.3540
G01 X17.2440 Y47.3586
G01 X17.2548 Y47.3594
G01 X17.2655 Y47.3607
G01 X17.3635 Y47.3755
G01 X17.4597 Y47.3993
G01 X17.4701 Y47.4022
G01 X17.4804 Y47.4056
G01 X17.5736 Y47.4393
G01 X17.6633 Y47.4814
G01 X17.6730 Y47.4862
G01 X17.6824 Y47.4916
G01 X17.7672 Y47.5428
G01 X17.8470 Y47.6016
G01 X17.8555 Y47.6082
G01 X17.8637 Y47.6153
G01 X17.9370 Y47.6820
G01 X18.0037 Y47.7553
G01 X18.0108 Y47.7635
G01 X18.0700 Y47.8429
G01 X18.0762 Y47.8518
G01 X18.1274 Y47.9366
G01 X18.1328 Y47.9460
G01 X18.1376 Y47.9557
G01 X18.1797 Y48.0454
G01 X18.2134 Y48.1386
G01 X18.2168 Y48.1489
G01 X18.2411 Y48.2450
G01 X18.2435 Y48.2555
G01 X18.2583 Y48.3535
G00 Z2.0000
G00 X18.1742 Y48.3660
G01 F150.00
G01 Z0.0000
G01 F400.00
G01 X18.1755 Y48.3792
G01 X18.1800 Y48.4740
G01 X18.1750 Y48.5754
G01 X18.1601 Y48.6759
G01 X18.1354 Y48.7744
G01 X18.1012 Y48.8701
G01 X18.0578 Y48.9619
G01 X18.0056 Y49.0490
G01 X17.9451 Y49.1306
G01 X17.8769 Y49.2059
G01 X17.8016 Y49.2741
G01 X17.7200 Y49.3346
G01 X17.6329 Y49.3868
G01 X17.5411 Y49.4302
G01 X17.4454 Y49.4644
G01 X17.3469 Y49.4891
G01 X17.2464 Y49.5040
G01 X17.1450 Y49.5090
G01 X17.0436 Y49.5040
G01 X16.9431 Y49.4891
G01 X16.8446 Y49.4644
G01 X16.7489 Y49.4302
G01 X16.6571 Y49.3868
G01 X16.5700 Y49.3346
G01 X16.4884 Y49.2741
G01 X16.4131 Y49.2059
G01 X16.3449 Y49.1306
G01 X16.2844 Y49.0490
G01 X16.2322 Y48.9619
G01 X16.1888 Y48.8701
G01 X16.1546 Y48.7744
G01 X16.1299 Y48.6759
G01 X16.1150 Y48.5754
G01 X16.1100 Y48.4740
G01 X16.1150 Y48.3726
G01 X16.1299 Y48.2721
G01 X16.1546 Y48.1736
G01 X16.1888 Y48.0779
G01 X16.2322 Y47.9861
G01 X16.2844 Y47.8990
G01 X16.3449 Y47.8174
G01 X16.4131 Y47.7421
G01 X16.4884 Y47.6739
G01 X16.5700 Y47.6134
G01 X16.6571 Y47.5612
G01 X16.7489 Y47.5178
G01 X16.8446 Y47.4836
G01 X16.9431 Y47.4589
G01 X17.0436 Y47.4440
G01 X17.1450 Y47.4390
G01 X17.2464 Y47.4440
G01 X17.3469 Y47.4589
G01 X17.4454 Y47.4836
G01 X17.5411 Y47.5178
G01 X17.6329 Y47.5612
G01 X17.7200 Y47.6134
G01 X17.8016 Y47.6739
G01 X17.8769 Y47.7421
G01 X17.9451 Y47.8174
G01 X18.0056 Y47.8990
G01 X18.0578 Y47.9861
G01 X18.1012 Y48.0779
G01 X18.1354 Y48.1736
G01 X18.1601 Y48.2721
G01 X18.1742 Y48.3660
G00 Z2.0000
G00 X18.0901 Y48.3784
G01 F150.00
G01 Z0.0000
G01 F400.00
G01 X18.0950 Y48.4740
G01 X18.0904 Y48.5671
G01 X18.0767 Y48.6593
G01 X18.0541 Y48.7498
G01 X18.0227 Y48.8375
G01 X17.9828 Y48.9218
G01 X17.9349 Y49.0018
G01 X17.8794 Y49.0767
G01 X17.8168 Y49.1458
G01 X17.7477 Y49.2084
G01 X17.6728 Y49.2639
G01 X17.5928 Y49.3118
G01 X17.5085 Y49.3517
G01 X17.4208 Y49.3831
G01 X17.3303 Y49.4057
G01 X17.2381 Y49.4194
G01 X17.1450 Y49.4240
G01 X17.0519 Y49.4194
G01 X16.9597 Y49.4057
G01 X16.8692 Y49.3831
G01 X16.7815 Y49.3517
G01 X16.6972 Y49.3118
G01 X16.6172 Y49.2639
G01 X16.5423 Y49.2084
G01 X16.4732 Y49.1458
G01 X16.4106 Y49.0767
G01 X16.3551 Y49.0018
G01 X16.3072 Y48.9218
G01 X16.2673 Y48.8375
G01 X16.2359 Y48.7498
G01 X16.2133 Y48.6593
G01 X16.1996 Y48.5671
G01 X16.1950 Y48.4740
G01 X16.1996 Y48.3809
G01 X16.2133 Y48.2887
G01 X16.2359 Y48.1982
G01 X16.2673 Y48.1105
G01 X16.3072 Y48.0262
G01 X16.3551 Y47.9462
G01 X16.4106 Y47.8713
G01 X16.4732 Y47.8022
G01 X16.5423 Y47.7396
G01 X16.6172 Y47.6841
G01 X16.6972 Y47.6362
G01 X16.7815 Y47.5963
G01 X16.8692 Y47.5649
G01 X16.9597 Y47.5423
G01 X17.0519 Y47.5286
G01 X17.1450 Y47.5240
G01 X17.2381 Y47.5286
G01 X17.3303 Y47.5423
G01 X17.4208 Y47.5649
G01 X17.5085 Y47.5963
G01 X17.5928 Y47.6362
G01 X17.6728 Y47.6841
G01 X17.7477 Y47.7396
G01 X17.8168 Y47.8022
G01 X17.8794 Y47.8713
G01 X17.9349 Y47.9462
G01 X17.9828 Y48.0262
G01 X18.0227 Y48.1105
G01 X18.0541 Y48.1982
G01 X18.0767 Y48.2887
G01 X18.0901 Y48.3784
G00 Z2.0000
G00 X18.2583 Y50.8935
G01 F150.00
G01 Z0.0000
G01 F400.00
G01 X18.2596 Y50.9042
G01 X18.2604 Y50.9150
G01 X18.2650 Y51.0140
G01 X18.2604 Y51.1130
G01 X18.2596 Y51.1238
G01 X18.2583 Y51.1345
G01 X18.2435 Y51.2325
G01 X18.2197 Y51.3287
G01 X18.2168 Y51.3391
G01 X18.2134 Y51.3494
G01 X18.1797 Y51.4426
G01 X18.1376 Y51.5323
G01 X18.1328 Y51.5420
G01 X18.1274 Y51.5514
G01 X18.0762 Y51.6362
G01 X18.0174 Y51.7160
G01 X18.0108 Y51.7245
G01 X18.0037 Y51.7327
G01 X17.9370 Y51.8060
G01 X17.8637 Y51.8727
G01 X17.8555 Y51.8798
G01 X17.8470 Y51.8864
G01 X17.7672 Y51.9452
G01 X17.6824 Y51.9964
G01 X17.6730 Y52.0018
G01 X17.6633 Y52.0066
G01 X17.5736 Y52.0487
G01 X17.4804 Y52.0824
G01 X17.4701 Y52.0858
G01 X17.3740 Y52.1101
G01 X17.3635 Y52.1125
G01 X17.2655 Y52.1273
G01 X17.2548 Y52.1286
G01 X17.2440 Y52.1294
G01 X17.1450 Y52.1340
G01 X17.0460 Y52.1294
G01 X17.0352 Y52.1286
G01 X17.0245 Y52.1273
G01 X16.9265 Y52.1125
G01 X16.8303 Y52.0887
G01 X16.8199 Y52.0858
G01 X16.8096 Y52.0824
G01 X16.7164 Y52.0487
G01 X16.6267 Y52.0066
G01 X16.6170 Y52.0018
G01 X16.6076 Y51.9964
G01 X16.5228 Y51.9452
G01 X16.4430 Y51.8864
G01 X16.4345 Y51.8798
G01 X16.4263 Y51.8727
G01 X16.3530 Y51.8060
G01 X16.2863 Y51.7327
G01 X16.2792 Y51.7245
G01 X16.2726 Y51.7160
G01 X16.2138 Y51.6362
G01 X16.1626 Y51.5514
G01 X16.1572 Y51.5420
G01 X16.1524 Y51.5323
G01 X16.1103 Y51.4426
G01 X16.0766 Y51.3494
G01 X16.0732 Y51.3391
G01 X16.0489 Y51.2430
G01 X16.0465 Y51.2325
G01 X16.0317 Y51.1345
G01 X16.0304 Y51.1238
G01 X16.0296 Y51.1130
G01 X16.0250 Y51.0140
G01 X16.0296 Y50.9150
G01 X16.0304 Y50.9042
G01 X16.0317 Y50.8935
G01 X16.0465 Y50.7955
G01 X16.0703 Y50.6993
G01 X16.0732 Y50.6889
G01 X16.0766 Y50.6786
G01 X16.1103 Y50.5854
G01 X16.1524 Y50.4957
G01 X16.1572 Y50.4860
G01 X16.1626 Y50.4766
G01 X16.2138 Y50.3918
G01 X16.2726 Y50.3120
G01 X16.2792 Y50.3035
G01 X16.2863 Y50.2953
G01 X16.3530 Y50.2220
G01 X16.4263 Y50.1553
G01 X16.4345 Y50.1482
G01 X16.5139 Y50.0890
G01 X16.5228 Y50.0828
G01 X16.6076 Y50.0316
G01 X16.6170 Y50.0262
G01 X16.6267 Y50.0214
G01 X16.7164 Y49.9793
G01 X16.8096 Y49.9456
G01 X16.8199 Y49.9422
G01 X16.9160 Y49.9179
G01 X16.9265 Y49.9155
G01 X17.0245 Y49.9007
G01 X17.0352 Y49.8994
G01 X17.0460 Y49.8986
G01 X17.1450 Y49.8940
G01 X17.2440 Y49.8986
G01 X17.2548 Y49.8994
G01 X17.2655 Y49.9007
G01 X17.3635 Y49.9155
G01 X17.4597 Y49.9393
G01 X17.4701 Y49.9422
G01 X17.4804 Y49.9456
G01 X17.5736 Y49.9793
G01 X17.6633 Y50.0214
G01 X17.6730 Y50.0262
G01 X17.6824 Y50.0316
G01 X17.7672 Y50.0828
G01 X17.8470 Y50.1416
G01 X17.8555 Y50.1482
G01 X17.8637 Y50.1553
G01 X17.9370 Y50.2220
G01 X18.0037 Y50.2953
G01 X18.0108 Y50.3035
G01 X18.0700 Y50.3829
G01 X18.0762 Y50.3918
G01 X18.1274 Y50.4766
G01 X18.1328 Y50.4860
G01 X18.1376 Y50.4957
G01 X18.1797 Y50.5854
G01 X18.2134 Y50.6786
G01 X18.2168 Y50.6889
G01 X18.2411 Y50.7850
G01 X18.2435 Y50.7955
G01 X18.2583 Y50.8935
G00 Z2.0000
G00 X18.1742 Y50.9060
G01 F150.00
G01 Z0.0000
G01 F400.00
G01 X18.1755 Y50.9192
G01 X18.1800 Y51.0140
G01 X18.1750 Y51.1154
G01 X18.1601 Y51.2159
G01 X18.1354 Y51.3144
G01 X18.1012 Y51.4101
G01 X18.0578 Y51.5019
G01 X18.0056 Y51.5890
G01 X17.9451 Y51.6706
G01 X17.8769 Y51.7459
G01 X17.8016 Y51.8141
G01 X17.7200 Y51.8746
G01 X17.6329 Y51.9268
G01 X17.5411 Y51.9702
G01 X17.4454 Y52.0044
G01 X17.3469 Y52.0291
G01 X17.2464 Y52.0440
G01 X17.1450 Y52.0490
G01 X17.0436 Y52.0440
G01 X16.9431 Y52.0291
G01 X16.8446 Y52.0044
G01 X16.7489 Y51.9702
G01 X16.6571 Y51.9268
G01 X16.5700 Y51.8746
G01 X16.4884 Y51.8141
G01 X16.4131 Y51.7459
G01 X16.3449 Y51.6706
G01 X16.2844 Y51.5890
G01 X16.2322 Y51.5019
G01 X16.1888 Y51.4101
G01 X16.1546 Y51.3144
G01 X16.1299 Y51.2159
G01 X16.1150 Y51.1154
G01 X16.1100 Y51.0140
G01 X16.1150 Y50.9126
G01 X16.1299 Y50.8121
G01 X16.1546 Y50.7136
G01 X16.1888 Y50.6179
G01 X16.2322 Y50.5261
G01 X16.2844 Y50.4390
G01 X16.3449 Y50.3574
G01 X16.4131 Y50.2821
G01 X16.4884 Y50.2139
G01 X16.5700 Y50.1534
G01 X16.6571 Y50.1012
G01 X16.7489 Y50.0578
G01 X16.8446 Y50.0236
G01 X16.9431 Y49.9989
G01 X17.0436 Y49.9840
G01 X17.1450 Y49.9790
G01 X17.2464 Y49.9840
G01 X17.3469 Y49.9989
G01 X17.4454 Y50.0236
G01 X17.5411 Y50.0578
G01 X17.6329 Y50.1012
G01 X17.7200 Y50.1534
G01 X17.8016 Y50.2139
G01 X17.8769 Y50.2821
G01 X17.9451 Y50.3574
G01 X18.0056 Y50.4390
G01 X18.0578 Y50.5261
G01 X18.1012 Y50.6179
G01 X18.1354 Y50.7136
G01 X18.1601 Y50.8121
G01 X18.1742 Y50.9060
G00 Z2.0000
G00 X18.0901 Y50.9184
G01 F150.00
G01 Z0.0000
G01 F400.00
G01 X18.0950 Y51.0140
G01 X18.0904 Y51.1071
G01 X18.0767 Y51.1993
G01 X18.0541 Y51.2898
G01 X18.0227 Y51.3775
G01 X17.9828 Y51.4618
G01 X17.9349 Y51.5418
G01 X17.8794 Y51.6167
G01 X17.8168 Y51.6858
G01 X17.7477 Y51.7484
G01 X17.6728 Y51.8039
G01 X17.5928 Y51.8518
G01 X17.5085 Y51.8917
G01 X17.4208 Y51.9231
G01 X17.3303 Y51.9457
G01 X17.2381 Y51.9594
G01 X17.1450 Y51.9640
G01 X17.0519 Y51.9594
G01 X16.9597 Y51.9457
G01 X16.8692 Y51.9231
G01 X16.7815 Y51.8917
G01 X16.6972 Y51.8518
G01 X16.6172 Y51.8039
G01 X16.5423 Y51.7484
G01 X16.4732 Y51.6858
G01 X16.4106 Y51.6167
G01 X16.3551 Y51.5418
G01 X16.3072 Y51.4618
G01 X16.2673 Y51.3775
G01 X16.2359 Y51.2898
G01 X16.2133 Y51.1993
G01 X16.1996 Y51.1071
G01 X16.1950 Y51.0140
G01 X16.1996 Y50.9209
G01 X16.2133 Y50.8287
G01 X16.2359 Y50.7382
G01 X16.2673 Y50.6505
G01 X16.3072 Y50.5662
G01 X16.3551 Y50.4862
G01 X16.4106 Y50.4113
G01 X16.4732 Y50.3422
G01 X16.5423 Y50.2796
G01 X16.6172 Y50.2241
G01 X16.6972 Y50.1762
G01 X16.7815 Y50.1363
G01 X16.8692 Y50.1049
G01 X16.9597 Y50.0823
G01 X17.0519 Y50.0686
G01 X17.1450 Y50.0640
G01 X17.2381 Y50.0686
G01 X17.3303 Y50.0823
G01 X17.4208 Y50.1049
G01 X17.5085 Y50.1363
G01 X17.5928 Y50.1762
G01 X17.6728 Y50.2241
G01 X17.7477 Y50.2796
G01 X17.8168 Y50.3422
G01 X17.8794 Y50.4113
G01 X17.9349 Y50.4862
G01 X17.9828 Y50.5662
G01 X18.0227 Y50.6505
G01 X18.0541 Y50.7382
G01 X18.0767 Y50.8287
G01 X18.0901 Y50.9184
G00 Z2.0000
G00 X18.2583 Y53.4335
G01 F150.00
G01 Z0.0000
G01 F400.00
G01 X18.2596 Y53.4442
G01 X18.2604 Y53.4550
G01 X18.2650 Y53.5540
G01 X18.2604 Y53.6530
G01 X18.2596 Y53.6638
G01 X18.2583 Y53.6745
G01 X18.2435 Y53.7725
G01 X18.2197 Y53.8687
G01 X18.2168 Y53.8791
G01 X18.2134 Y53.8894
G01 X18.1797 Y53.9826
G01 X18.1376 Y54.0723
G01 X18.1328 Y54.0820
G01 X18.1274 Y54.0914
G01 X18.0762 Y54.1762
G01 X18.0174 Y54.2560
G01 X18.0108 Y54.2645
G01 X18.0037 Y54.2727
G01 X17.9370 Y54.3460
G01 X17.8637 Y54.4127
G01 X17.8555 Y54.4198
G01 X17.8470 Y54.4264
G01 X17.7672 Y54.4852
G01 X17.6824 Y54.5364
G01 X17.6730 Y54.5418
G01 X17.6633 Y54.5466
G01 X17.5736 Y54.5887
G01 X17.4804 Y54.6224
G01 X17.4701 Y54.6258
G01 X17.3740 Y54.6501
G01 X17.3635 Y54.6525
G01 X17.2655 Y54.6673
G01 X17.2548 Y54.6686
G01 X17.2440 Y54.6694
G01 X17.1450 Y54.6740
G01 X17.0460 Y54.6694
G01 X17.0352 Y54.6686
G01 X17.0245 Y54.6673
G01 X16.9265 Y54.6525
G01 X16.8303 Y54.6287
G01 X16.8199 Y54.6258
G01 X16.8096 Y54.6224
G01 X16.7164 Y54.5887
G01 X16.6267 Y54.5466
G01 X16.6170 Y54.5418
G01 X16.6076 Y54.5364
G01 X16.5228 Y54.4852
G01 X16.4430 Y54.4264
G01 X16.4345 Y54.4198
G01 X16.4263 Y54.4127
G01 X16.3530 Y54.3460
G01 X16.2863 Y54.2727
G01 X16.2792 Y54.2645
G01 X16.2726 Y54.2560
G01 X16.2138 Y54.1762
G01 X16.1626 Y54.0914
G01 X16.1572 Y54.0820
G01 X16.1524 Y54.0723
G01 X16.1103 Y53.9826
G01 X16.0766 Y53.8894
G01 X16.0732 Y53.8791
G01 X16.0489 Y53.7830
G01 X16.0465 Y53.7725
G01 X16.0317 Y53.6745
G01 X16.0304 Y53.6638
G01 X16.0296 Y53.6530
G01 X16.0250 Y53.5540
G01 X16.0296 Y53.4550
G01 X16.0304 Y53.4442
G01 X16.0317 Y53.4335
G01 X16.0465 Y53.3355
G01 X16.0703 Y53.2393
G01 X16.0732 Y53.2289
G01 X16.0766 Y53.2186
G01 X16.1103 Y53.1254
G01 X16.1524 Y53.0357
G01 X16.1572 Y53.0260
G01 X16.1626 Y53.0166
G01 X16.2138 Y52.9318
G01 X16.2726 Y52.8520
G01 X16.2792 Y52.8435
G01 X16.2863 Y52.8353
G01 X16.3530 Y52.7620
G01 X16.4263 Y52.6953
G01 X16.4345 Y52.6882
G01 X16.5139 Y52.6290
G01 X16.5228 Y52.6228
G01 X16.6076 Y52.5716
G01 X16.6170 Y52.5662
G01 X16.6267 Y52.5614
G01 X16.7164 Y52.5193
G01 X16.8096 Y52.4856
G01 X16.8199 Y52.4822
G01 X16.9160 Y52.4579
G01 X16.9265 Y52.4555
G01 X17.0245 Y52.4407
G01 X17.0352 Y52.4394
G01 X17.0460 Y52.4386
G01 X17.1450 Y52.4340
G01 X17.2440 Y52.4386
G01 X17.2548 Y52.4394
G01 X17.2655 Y52.4407
G01 X17.3635 Y52.4555
G01 X17.4597 Y52.4793
G01 X17.4701 Y52.4822
G01 X17.4804 Y52.4856
G01 X17.5736 Y52.5193
G01 X17.6633 Y52.5614
G01 X17.6730 Y52.5662
G01 X17.6824 Y52.5716
G01 X17.7672 Y52.6228
G01 X17.8470 Y52.6816
G01 X17.8555 Y52.6882
G01 X17.8637 Y52.6953
G01 X17.9370 Y52.7620
G01 X18.0037 Y52.8353
G01 X18.0108 Y52.8435
G01 X18.0174 Y52.8520
G01 X18.0762 Y52.9318
G01 X18.1274 Y53.0166
G01 X18.1328 Y53.0260
G01 X18.1376 Y53.0357
G01 X18.1797 Y53.1254
G01 X18.2134 Y53.2186
G01 X18.2168 Y53.2289
G01 X18.2197 Y53.2393
G01 X18.2435 Y53.3355
G01 X18.2583 Y53.4335
G00 Z2.0000
G00 X18.1742 Y53.4460
G01 F150.00
G01 Z0.0000
G01 F400.00
G01 X18.1755 Y53.4592
G01 X18.1800 Y53.5540
G01 X18.1750 Y53.6554
G01 X18.1601 Y53.7559
G01 X18.1354 Y53.8544
G01 X18.1012 Y53.9501
G01 X18.0578 Y54.0419
G01 X18.0056 Y54.1290
G01 X17.9451 Y54.2106
G01 X17.8769 Y54.2859
G01 X17.8016 Y54.3541
G01 X17.7200 Y54.4146
G01 X17.6329 Y54.4668
G01 X17.5411 Y54.5102
G01 X17.4454 Y54.5444
G01 X17.3469 Y54.5691
G01 X17.2464 Y54.5840
G01 X17.1450 Y54.5890
G01 X17.0436 Y54.5840
G01 X16.9431 Y54.5691
G01 X16.8446 Y54.5444
G01 X16.7489 Y54.5102
G01 X16.6571 Y54.4668
G01 X16.5700 Y54.4146
G01 X16.4884 Y54.3541
G01 X16.4131 Y54.2859
G01 X16.3449 Y54.2106
G01 X16.2844 Y54.1290
G01 X16.2322 Y54.0419
G01 X16.1888 Y53.9501
G01 X16.1546 Y53.8544
G01 X16.1299 Y53.7559
G01 X16.1150 Y53.6554
G01 X16.1100 Y53.5540
G01 X16.1150 Y53.4526
G01 X16.1299 Y53.3521
G01 X16.1546 Y53.2536
G01 X16.1888 Y53.1579
G01 X16.2322 Y53.0661
G01 X16.2844 Y52.9790
G01 X16.3449 Y52.8974
G01 X16.4131 Y52.8221
G01 X16.4884 Y52.7539
G01 X16.5700 Y52.6934
G01 X16.6571 Y52.6412
G01 X16.7489 Y52.5978
G01 X16.8446 Y52.5636
G01 X16.9431 Y52.5389
G01 X17.0436 Y52.5240
G01 X17.1450 Y52.5190
G01 X17.2464 Y52.5240
G01 X17.3469 Y52.5389
G01 X17.4454 Y52.5636
G01 X17.5411 Y52.5978
G01 X17.6329 Y52.6412
G01 X17.7200 Y52.6934
G01 X17.8016 Y52.7539
G01 X17.8769 Y52.8221
G01 X17.9451 Y52.8974
G01 X18.0056 Y52.9790
G01 X18.0578 Y53.0661
G01 X18.1012 Y53.1579
G01 X18.1354 Y53.2536
G01 X18.1601 Y53.3521
G01 X18.1742 Y53.4460
G00 Z2.0000
G00 X18.0901 Y53.4584
G01 F150.00
G01 Z0.0000
G01 F400.00
G01 X18.0950 Y53.5540
G01 X18.0904 Y53.6471
G01 X18.0767 Y53.7393
G01 X18.0541 Y53.8298
G01 X18.0227 Y53.9175
G01 X17.9828 Y54.0018
G01 X17.9349 Y54.0818
G01 X17.8794 Y54.1567
G01 X17.8168 Y54.2258
G01 X17.7477 Y54.2884
G01 X17.6728 Y54.3439
G01 X17.5928 Y54.3918
G01 X17.5085 Y54.4317
G01 X17.4208 Y54.4631
G01 X17.3303 Y54.4857
G01 X17.2381 Y54.4994
G01 X17.1450 Y54.5040
G01 X17.0519 Y54.4994
G01 X16.9597 Y54.4857
G01 X16.8692 Y54.4631
G01 X16.7815 Y54.4317
G01 X16.6972 Y54.3918
G01 X16.6172 Y54.3439
G01 X16.5423 Y54.2884
G01 X16.4732 Y54.2258
G01 X16.4106 Y54.1567
G01 X16.3551 Y54.0818
G01 X16.3072 Y54.0018
G01 X16.2673 Y53.9175
G01 X16.2359 Y53.8298
G01 X16.2133 Y53.7393
G01 X16.1996 Y53.6471
G01 X16.1950 Y53.5540
G01 X16.1996 Y53.4609
G01 X16.2133 Y53.3687
G01 X16.2359 Y53.2782
G01 X16.2673 Y53.1905
G01 X16.3072 Y53.1062
G01 X16.3551 Y53.0262
G01 X16.4106 Y52.9513
G01 X16.4732 Y52.8822
G01 X16.5423 Y52.8196
G01 X16.6172 Y52.7641
G01 X16.6972 Y52.7162
G01 X16.7815 Y52.6763
G01 X16.8692 Y52.6449
G01 X16.9597 Y52.6223
G01 X17.0519 Y52.6086
G01 X17.1450 Y52.6040
G01 X17.2381 Y52.6086
G01 X17.3303 Y52.6223
G01 X17.4208 Y52.6449
G01 X17.5085 Y52.6763
G01 X17.5928 Y52.7162
G01 X17.6728 Y52.7641
G01 X17.7477 Y52.8196
G01 X17.8168 Y52.8822
G01 X17.8794 Y52.9513
G01 X17.9349 Y53.0262
G01 X17.9828 Y53.1062
G01 X18.0227 Y53.1905
G01 X18.0541 Y53.2782
G01 X18.0767 Y53.3687
G01 X18.0901 Y53.4584
G00 Z2.0000
G00 X18.2583 Y55.9735
G01 F150.00
G01 Z0.0000
G01 F400.00
G01 X18.2596 Y55.9842
G01 X18.2604 Y55.9950
G01 X18.2650 Y56.0940
G01 X18.2604 Y56.1930
G01 X18.2596 Y56.2038
G01 X18.2583 Y56.2145
G01 X18.2435 Y56.3125
G01 X18.2197 Y56.4087
G01 X18.2168 Y56.4191
G01 X18.2134 Y56.4294
G01 X18.1797 Y56.5226
G01 X18.1376 Y56.6123
G01 X18.1328 Y56.6220
G01 X18.1274 Y56.6314
G01 X18.0762 Y56.7162
G01 X18.0174 Y56.7960
G01 X18.0108 Y56.8045
G01 X18.0037 Y56.8127
G01 X17.9370 Y56.8860
G01 X17.8637 Y56.9527
G01 X17.8555 Y56.9598
G01 X17.8470 Y56.9664
G01 X17.7672 Y57.0252
G01 X17.6824 Y57.0764
G01 X17.6730 Y57.0818
G01 X17.6633 Y57.0866
G01 X17.5736 Y57.1287
G01 X17.4804 Y57.1624
G01 X17.4701 Y57.1658
G01 X17.4597 Y57.1687
G01 X17.3635 Y57.1925
G01 X17.2655 Y57.2073
G01 X17.2548 Y57.2086
G01 X17.2440 Y57.2094
G01 X17.1450 Y57.2140
G01 X17.0460 Y57.2094
G01 X17.0352 Y57.2086
G01 X17.0245 Y57.2073
G01 X16.9265 Y57.1925
G01 X16.8303 Y57.1687
G01 X16.8199 Y57.1658
G01 X16.8096 Y57.1624
G01 X16.7164 Y57.1287
G01 X16.6267 Y57.0866
G01 X16.6170 Y57.0818
G01 X16.6076 Y57.0764
G01 X16.5228 Y57.0252
G01 X16.4430 Y56.9664
G01 X16.4345 Y56.9598
G01 X16.4263 Y56.9527
G01 X16.3530 Y56.8860
G01 X16.2863 Y56.8127
G01 X16.2792 Y56.8045
G01 X16.2726 Y56.7960
G01 X16.2138 Y56.7162
G01 X16.1626 Y56.6314
G01 X16.1572 Y56.6220
G01 X16.1524 Y56.6123
G01 X16.1103 Y56.5226
G01 X16.0766 Y56.4294
G01 X16.0732 Y56.4191
G01 X16.0489 Y56.3230
G01 X16.0465 Y56.3125
G01 X16.0317 Y56.2145
G01 X16.0304 Y56.2038
G01 X16.0296 Y56.1930
G01 X16.0250 Y56.0940
G01 X16.0296 Y55.9950
G01 X16.0304 Y55.9842
G01 X16.0317 Y55.9735
G01 X16.0465 Y55.8755
G01 X16.0703 Y55.7793
G01 X16.0732 Y55.7689
G01 X16.0766 Y55.7586
G01 X16.1103 Y55.6654
G01 X16.1524 Y55.5757
G01 X16.1572 Y55.5660
G01 X16.1626 Y55.5566
G01 X16.2138 Y55.4718
G01 X16.2726 Y55.3920
G01 X16.2792 Y55.3835
G01 X16.2863 Y55.3753
G01 X16.3530 Y55.3020
G01 X16.4263 Y55.2353
G01 X16.4345 Y55.2282
G01 X16.5139 Y55.1690
G01 X16.5228 Y55.1628
G01 X16.6076 Y55.1116
G01 X16.6170 Y55.1062
G01 X16.6267 Y55.1014
G01 X16.7164 Y55.0593
G01 X16.8096 Y55.0256
G01 X16.8199 Y55.0222
G01 X16.9160 Y54.9979
G01 X16.9265 Y54.9955
G01 X17.0245 Y54.9807
G01 X17.0352 Y54.9794
G01 X17.0460 Y54.9786
G01 X17.1450 Y54.9740
G01 X17.2440 Y54.9786
G01 X17.2548 Y54.9794
G01 X17.2655 Y54.9807
G01 X17.3635 Y54.9955
G01 X17.4597 Y55.0193
G01 X17.4701 Y55.0222
G01 X17.4804 Y55.0256
G01 X17.5736 Y55.0593
G01 X17.6633 Y55.1014
G01 X17.6730 Y55.1062
G01 X17.6824 Y55.1116
G01 X17.7672 Y55.1628
G01 X17.8470 Y55.2216
G01 X17.8555 Y55.2282
G01 X17.8637 Y55.2353
G01 X17.9370 Y55.3020
G01 X18.0037 Y55.3753
G01 X18.0108 Y55.3835
G01 X18.0174 Y55.3920
G01 X18.0762 Y55.4718
G01 X18.1274 Y55.5566
G01 X18.1328 Y55.5660
G01 X18.1376 Y55.5757
G01 X18.1797 Y55.6654
G01 X18.2134 Y55.7586
G01 X18.2168 Y55.7689
G01 X18.2197 Y55.7793
G01 X18.2435 Y55.8755
G01 X18.2583 Y55.9735
G00 Z2.0000
G00 X18.1742 Y55.9860
G01 F150.00
G01 Z0.0000
G01 F400.00
G01 X18.1755 Y55.9992
G01 X18.1800 Y56.0940
G01 X18.1750 Y56.1954
G01 X18.1601 Y56.2959
G01 X18.1354 Y56.3944
G01 X18.1012 Y56.4901
G01 X18.0578 Y56.5819
G01 X18.0056 Y56.6690
G01 X17.9451 Y56.7506
G01 X17.8769 Y56.8259
G01 X17.8016 Y56.8941
G01 X17.7200 Y56.9546
G01 X17.6329 Y57.0068
G01 X17.5411 Y57.0502
G01 X17.4454 Y57.0844
G01 X17.3469 Y57.1091
G01 X17.2464 Y57.1240
G01 X17.1450 Y57.1290
G01 X17.0436 Y57.1240
G01 X16.9431 Y57.1091
G01 X16.8446 Y57.0844
G01 X16.7489 Y57.0502
G01 X16.6571 Y57.0068
G01 X16.5700 Y56.9546
G01 X16.4884 Y56.8941
G01 X16.4131 Y56.8259
G01 X16.3449 Y56.7506
G01 X16.2844 Y56.6690
G01 X16.2322 Y56.5819
G01 X16.1888 Y56.4901
G01 X16.1546 Y56.3944
G01 X16.1299 Y56.2959
G01 X16.1150 Y56.1954
G01 X16.1100 Y56.0940
G01 X16.1150 Y55.9926
G01 X16.1299 Y55.8921
G01 X16.1546 Y55.7936
G01 X16.1888 Y55.6979
G01 X16.2322 Y55.6061
G01 X16.2844 Y55.5190
G01 X16.3449 Y55.4374
G01 X16.4131 Y55.3621
G01 X16.4884 Y55.2939
G01 X16.5700 Y55.2334
G01 X16.6571 Y55.1812
G01 X16.7489 Y55.1378
G01 X16.8446 Y55.1036
G01 X16.9431 Y55.0789
G01 X17.0436 Y55.0640
G01 X17.1450 Y55.0590
G01 X17.2464 Y55.0640
G01 X17.3469 Y55.0789
G01 X17.4454 Y55.1036
G01 X17.5411 Y55.1378
G01 X17.6329 Y55.1812
G01 X17.7200 Y55.2334
G01 X17.8016 Y55.2939
G01 X17.8769 Y55.3621
G01 X17.9451 Y55.4374
G01 X18.0056 Y55.5190
G01 X18.0578 Y55.6061
G01 X18.1012 Y55.6979
G01 X18.1354 Y55.7936
G01 X18.1601 Y55.8921
G01 X18.1742 Y55.9860
G00 Z2.0000
G00 X18.0901 Y55.9984
G01 F150.00
G01 Z0.0000
G01 F400.00
G01 X18.0950 Y56.0940
G01 X18.0904 Y56.1871
G01 X18.0767 Y56.2793
G01 X18.0541 Y56.3698
G01 X18.0227 Y56.4575
G01 X17.9828 Y56.5418
G01 X17.9349 Y56.6218
G01 X17.8794 Y56.6967
G01 X17.8168 Y56.7658
G01 X17.7477 Y56.8284
G01 X17.6728 Y56.8839
G01 X17.5928 Y56.9318
G01 X17.5085 Y56.9717
G01 X17.4208 Y57.0031
G01 X17.3303 Y57.0257
G01 X17.2381 Y57.0394
G01 X17.1450 Y57.0440
G01 X17.0519 Y57.0394
G01 X16.9597 Y57.0257
G01 X16.8692 Y57.0031
G01 X16.7815 Y56.9717
G01 X16.6972 Y56.9318
G01 X16.6172 Y56.8839
G01 X16.5423 Y56.8284
G01 X16.4732 Y56.7658
G01 X16.4106 Y56.6967
G01 X16.3551 Y56.6218
G01 X16.3072 Y56.5418
G01 X16.2673 Y56.4575
G01 X16.2359 Y56.3698
G01 X16.2133 Y56.2793
G01 X16.1996 Y56.1871
G01 X16.1950 Y56.0940
G01 X16.1996 Y56.0009
G01 X16.2133 Y55.9087
G01 X16.2359 Y55.8182
G01 X16.2673 Y55.7305
G01 X16.3072 Y55.6462
G01 X16.3551 Y55.5662
G01 X16.4106 Y55.4913
G01 X16.4732 Y55.4222
G01 X16.5423 Y55.3596
G01 X16.6172 Y55.3041
G01 X16.6972 Y55.2562
G01 X16.7815 Y55.2163
G01 X16.8692 Y55.1849
G01 X16.9597 Y55.1623
G01 X17.0519 Y55.1486
G01 X17.1450 Y55.1440
G01 X17.2381 Y55.1486
G01 X17.3303 Y55.1623
G01 X17.4208 Y55.1849
G01 X17.5085 Y55.2163
G01 X17.5928 Y55.2562
G01 X17.6728 Y55.3041
G01 X17.7477 Y55.3596
G01 X17.8168 Y55.4222
G01 X17.8794 Y55.4913
G01 X17.9349 Y55.5662
G01 X17.9828 Y55.6462
G01 X18.0227 Y55.7305
G01 X18.0541 Y55.8182
G01 X18.0767 Y55.9087
G01 X18.0901 Y55.9984
G00 Z2.0000
G00 X18.2583 Y58.5135
G01 F150.00
G01 Z0.0000
G01 F400.00
G01 X18.2596 Y58.5242
G01 X18.2604 Y58.5350
G01 X18.2650 Y58.6340
G01 X18.2604 Y58.7330
G01 X18.2596 Y58.7438
G01 X18.2583 Y58.7545
G01 X18.2435 Y58.8525
G01 X18.2197 Y58.9487
G01 X18.2168 Y58.9591
G01 X18.2134 Y58.9694
G01 X18.1797 Y59.0626
G01 X18.1376 Y59.1523
G01 X18.1328 Y59.1620
G01 X18.1274 Y59.1714
G01 X18.0762 Y59.2562
G01 X18.0174 Y59.3360
G01 X18.0108 Y59.3445
G01 X18.0037 Y59.3527
G01 X17.9370 Y59.4260
G01 X17.8637 Y59.4927
G01 X17.8555 Y59.4998
G01 X17.8470 Y59.5064
G01 X17.7672 Y59.5652
G01 X17.6824 Y59.6164
G01 X17.6730 Y59.6218
G01 X17.6633 Y59.6266
G01 X17.5736 Y59.6687
G01 X17.4804 Y59.7024
G01 X17.4701 Y59.7058
G01 X17.4597 Y59.7087
G01 X17.3635 Y59.7325
G01 X17.2655 Y59.7473
G01 X17.2548 Y59.7486
G01 X17.2440 Y59.7494
G01 X17.1450 Y59.7540
G01 X17.0460 Y59.7494
G01 X17.0352 Y59.7486
G01 X17.0245 Y59.7473
G01 X16.9265 Y59.7325
G01 X16.8303 Y59.7087
G01 X16.8199 Y59.7058
G01 X16.8096 Y59.7024
G01 X16.7164 Y59.6687
G01 X16.6267 Y59.6266
G01 X16.6170 Y59.6218
G01 X16.6076 Y59.6164
G01 X16.5228 Y59.5652
G01 X16.4430 Y59.5064
G01 X16.4345 Y59.4998
G01 X16.4263 Y59.4927
G01 X16.3530 Y59.4260
G01 X16.2863 Y59.3527
G01 X16.2792 Y59.3445
G01 X16.2726 Y59.3360
G01 X16.2138 Y59.2562
G01 X16.1626 Y59.1714
G01 X16.1572 Y59.1620
G01 X16.1524 Y59.1523
G01 X16.1103 Y59.0626
G01 X16.0766 Y58.9694
G01 X16.0732 Y58.9591
G01 X16.0489 Y58.8630
G01 X16.0465 Y58.8525
G01 X16.0317 Y58.7545
G01 X16.0304 Y58.7438
G01 X16.0296 Y58.7330
G01 X16.0250 Y58.6340
G01 X16.0296 Y58.5350
G01 X16.0304 Y58.5242
G01 X16.0317 Y58.5135
G01 X16.0465 Y58.4155
G01 X16.0703 Y58.3193
G01 X16.0732 Y58.3089
G01 X16.0766 Y58.2986
G01 X16.1103 Y58.2054
G01 X16.1524 Y58.1157
G01 X16.1572 Y58.1060
G01 X16.1626 Y58.0966
G01 X16.2138 Y58.0118
G01 X16.2726 Y57.9320
G01 X16.2792 Y57.9235
G01 X16.2863 Y57.9153
G01 X16.3530 Y57.8420
G01 X16.4263 Y57.7753
G01 X16.4345 Y57.7682
G01 X16.5139 Y57.7090
G01 X16.5228 Y57.7028
G01 X16.6076 Y57.6516
G01 X16.6170 Y57.6462
G01 X16.6267 Y57.6414
G01 X16.7164 Y57.5993
G01 X16.8096 Y57.5656
G01 X16.8199 Y57.5622
G01 X16.9160 Y57.5379
G01 X16.9265 Y57.5355
G01 X17.0245 Y57.5207
G01 X17.0352 Y57.5194
G01 X17.0460 Y57.5186
G01 X17.1450 Y57.5140
G01 X17.2440 Y57.5186
G01 X17.2548 Y57.5194
G01 X17.2655 Y57.5207
G01 X17.3635 Y57.5355
G01 X17.4597 Y57.5593
G01 X17.4701 Y57.5622
G01 X17.4804 Y57.5656
G01 X17.5736 Y57.5993
G01 X17.6633 Y57.6414
G01 X17.6730 Y57.6462
G01 X17.6824 Y57.6516
G01 X17.7672 Y57.7028
G01 X17.8470 Y57.7616
G01 X17.8555 Y57.7682
G01 X17.8637 Y57.7753
G01 X17.9370 Y57.8420
G01 X18.0037 Y57.9153
G01 X18.0108 Y57.9235
G01 X18.0174 Y57.9320
G01 X18.0762 Y58.0118
G01 X18.1274 Y58.0966
G01 X18.1328 Y58.1060
G01 X18.1376 Y58.1157
G01 X18.1797 Y58.2054
G01 X18.2134 Y58.2986
G01 X18.2168 Y58.3089
G01 X18.2197 Y58.3193
G01 X18.2435 Y58.4155
G01 X18.2583 Y58.5135
G00 Z2.0000
G00 X18.1742 Y58.5260
G01 F150.00
G01 Z0.0000
G01 F400.00
G01 X18.1755 Y58.5392
G01 X18.1800 Y58.6340
G01 X18.1750 Y58.7354
G01 X18.1601 Y58.8359
G01 X18.1354 Y58.9344
G01 X18.1012 Y59.0301
G01 X18.0578 Y59.1219
G01 X18.0056 Y59.2090
G01 X17.9451 Y59.2906
G01 X17.8769 Y59.3659
G01 X17.8016 Y59.4341
G01 X17.7200 Y59.4946
G01 X17.6329 Y59.5468
G01 X17.5411 Y59.5902
G01 X17.4454 Y59.6244
G01 X17.3469 Y59.6491
G01 X17.2464 Y59.6640
G01 X17.1450 Y59.6690
G01 X17.0436 Y59.6640
G01 X16.9431 Y59.6491
G01 X16.8446 Y59.6244
G01 X16.7489 Y59.5902
G01 X16.6571 Y59.5468
G01 X16.5700 Y59.4946
G01 X16.4884 Y59.4341
G01 X16.4131 Y59.3659
G01 X16.3449 Y59.2906
G01 X16.2844 Y59.2090
G01 X16.2322 Y59.1219
G01 X16.1888 Y59.0301
G01 X16.1546 Y58.9344
G01 X16.1299 Y58.8359
G01 X16.1150 Y58.7354
G01 X16.1100 Y58.6340
G01 X16.1150 Y58.5326
G01 X16.1299 Y58.4321
G01 X16.1546 Y58.3336
G01 X16.1888 Y58.2379
G01 X16.2322 Y58.1461
G01 X16.2844 Y58.0590
G01 X16.3449 Y57.9774
G01 X16.4131 Y57.9021
G01 X16.4884 Y57.8339
G01 X16.5700 Y57.7734
G01 X16.6571 Y57.7212
G01 X16.7489 Y57.6778
G01 X16.8446 Y57.6436
G01 X16.9431 Y57.6189
G01 X17.0436 Y57.6040
G01 X17.1450 Y57.5990
G01 X17.2464 Y57.6040
G01 X17.3469 Y57.6189
G01 X17.4454 Y57.6436
G01 X17.5411 Y57.6778
G01 X17.6329 Y57.7212
G01 X17.7200 Y57.7734
G01 X17.8016 Y57.8339
G01 X17.8769 Y57.9021
G01 X17.9451 Y57.9774
G01 X18.0056 Y58.0590
G01 X18.0578 Y58.1461
G01 X18.1012 Y58.2379
G01 X18.1354 Y58.3336
G01 X18.1601 Y58.4321
G01 X18.1742 Y58.5260
G00 Z2.0000
G00 X18.0901 Y58.5384
G01 F150.00
G01 Z0.0000
G01 F400.00
G01 X18.0950 Y58.6340
G01 X18.0904 Y58.7271
G01 X18.0767 Y58.8193
G01 X18.0541 Y58.9098
G01 X18.0227 Y58.9975
G01 X17.9828 Y59.0818
G01 X17.9349 Y59.1618
G01 X17.8794 Y59.2367
G01 X17.8168 Y59.3058
G01 X17.7477 Y59.3684
G01 X17.6728 Y59.4239
G01 X17.5928 Y59.4718
G01 X17.5085 Y59.5117
G01 X17.4208 Y59.5431
G01 X17.3303 Y59.5657
G01 X17.2381 Y59.5794
G01 X17.1450 Y59.5840
G01 X17.0519 Y59.5794
G01 X16.9597 Y59.5657
G01 X16.8692 Y59.5431
G01 X16.7815 Y59.5117
G01 X16.6972 Y59.4718
G01 X16.6172 Y59.4239
G01 X16.5423 Y59.3684
G01 X16.4732 Y59.3058
G01 X16.4106 Y59.2367
G01 X16.3551 Y59.1618
G01 X16.3072 Y59.0818
G01 X16.2673 Y58.9975
G01 X16.2359 Y58.9098
G01 X16.2133 Y58.8193
G01 X16.1996 Y58.7271
G01 X16.1950 Y58.6340
G01 X16.1996 Y58.5409
G01 X16.2133 Y58.4487
G01 X16.2359 Y58.3582
G01 X16.2673 Y58.2705
G01 X16.3072 Y58.1862
G01 X16.3551 Y58.1062
G01 X16.4106 Y58.0313
G01 X16.4732 Y57.9622
G01 X16.5423 Y57.8996
G01 X16.6172 Y57.8441
G01 X16.6972 Y57.7962
G01 X16.7815 Y57.7563
G01 X16.8692 Y57.7249
G01 X16.9597 Y57.7023
G01 X17.0519 Y57.6886
G01 X17.1450 Y57.6840
G01 X17.2381 Y57.6886
G01 X17.3303 Y57.7023
G01 X17.4208 Y57.7249
G01 X17.5085 Y57.7563
G01 X17.5928 Y57.7962
G01 X17.6728 Y57.8441
G01 X17.7477 Y57.8996
G01 X17.8168 Y57.9622
G01 X17.8794 Y58.0313
G01 X17.9349 Y58.1062
G01 X17.9828 Y58.1862
G01 X18.0227 Y58.2705
G01 X18.0541 Y58.3582
G01 X18.0767 Y58.4487
G01 X18.0901 Y58.5384
G00 Z2.0000
G00 X18.2583 Y61.0535
G01 F150.00
G01 Z0.0000
G01 F400.00
G01 X18.2596 Y61.0642
G01 X18.2604 Y61.0750
G01 X18.2650 Y61.1740
G01 X18.2604 Y61.2730
G01 X18.2596 Y61.2838
G01 X18.2583 Y61.2945
G01 X18.2435 Y61.3925
G01 X18.2197 Y61.4887
G01 X18.2168 Y61.4991
G01 X18.2134 Y61.5094
G01 X18.1797 Y61.6026
G01 X18.1376 Y61.6923
G01 X18.1328 Y61.7020
G01 X18.1274 Y61.7114
G01 X18.0762 Y61.7962
G01 X18.0174 Y61.8760
G01 X18.0108 Y61.8845
G01 X18.0037 Y61.8927
G01 X17.9370 Y61.9660
G01 X17.8637 Y62.0327
G01 X17.8555 Y62.0398
G01 X17.8470 Y62.0464
G01 X17.7672 Y62.1052
G01 X17.6824 Y62.1564
G01 X17.6730 Y62.1618
G01 X17.6633 Y62.1666
G01 X17.5736 Y62.2087
G01 X17.4804 Y62.2424
G01 X17.4701 Y62.2458
G01 X17.4597 Y62.2487
G01 X17.3635 Y62.2725
G01 X17.2655 Y62.2873
G01 X17.2548 Y62.2886
G01 X17.2440 Y62.2894
G01 X17.1450 Y62.2940
G01 X17.0460 Y62.2894
G01 X17.0352 Y62.2886
G01 X17.0245 Y62.2873
G01 X16.9265 Y62.2725
G01 X16.8303 Y62.2487
G01 X16.8199 Y62.2458
G01 X16.8096 Y62.2424
G01 X16.7164 Y62.2087
G01 X16.6267 Y62.1666
G01 X16.6170 Y62.1618
G01 X16.6076 Y62.1564
G01 X16.5228 Y62.1052
G01 X16.4430 Y62.0464
G01 X16.4345 Y62.0398
G01 X16.4263 Y62.0327
G01 X16.3530 Y61.9660
G01 X16.2863 Y61.8927
G01 X16.2792 Y61.8845
G01 X16.2726 Y61.8760
G01 X16.2138 Y61.7962
G01 X16.1626 Y61.7114
G01 X16.1572 Y61.7020
G01 X16.1524 Y61.6923
G01 X16.1103 Y61.6026
G01 X16.0766 Y61.5094
G01 X16.0732 Y61.4991
G01 X16.0489 Y61.4030
G01 X16.0465 Y61.3925
G01 X16.0317 Y61.2945
G01 X16.0304 Y61.2838
G01 X16.0296 Y61.2730
G01 X16.0250 Y61.1740
G01 X16.0296 Y61.0750
G01 X16.0304 Y61.0642
G01 X16.0317 Y61.0535
G01 X16.0465 Y60.9555
G01 X16.0703 Y60.8593
G01 X16.0732 Y60.8489
G01 X16.0766 Y60.8386
G01 X16.1103 Y60.7454
G01 X16.1524 Y60.6557
G01 X16.1572 Y60.6460
G01 X16.1626 Y60.6366
G01 X16.2138 Y60.5518
G01 X16.2726 Y60.4720
G01 X16.2792 Y60.4635
G01 X16.2863 Y60.4553
G01 X16.3530 Y60.3820
G01 X16.4263 Y60.3153
G01 X16.4345 Y60.3082
G01 X16.5139 Y60.2490
G01 X16.5228 Y60.2428
G01 X16.6076 Y60.1916
G01 X16.6170 Y60.1862
G01 X16.6267 Y60.1814
G01 X16.7164 Y60.1393
G01 X16.8096 Y60.1056
G01 X16.8199 Y60.1022
G01 X16.9160 Y60.0779
G01 X16.9265 Y60.0755
G01 X17.0245 Y60.0607
G01 X17.0352 Y60.0594
G01 X17.0460 Y60.0586
G01 X17.1450 Y60.0540
G01 X17.2440 Y60.0586
G01 X17.2548 Y60.0594
G01 X17.2655 Y60.0607
G01 X17.3635 Y60.0755
G01 X17.4597 Y60.0993
G01 X17.4701 Y60.1022
G01 X17.4804 Y60.1056
G01 X17.5736 Y60.1393
G01 X17.6633 Y60.1814
G01 X17.6730 Y60.1862
G01 X17.6824 Y60.1916
G01 X17.7672 Y60.2428
G01 X17.8470 Y60.3016
G01 X17.8555 Y60.3082
G01 X17.8637 Y60.3153
G01 X17.9370 Y60.3820
G01 X18.0037 Y60.4553
G01 X18.0108 Y60.4635
G01 X18.0174 Y60.4720
G01 X18.0762 Y60.5518
G01 X18.1274 Y60.6366
G01 X18.1328 Y60.6460
G01 X18.1376 Y60.6557
G01 X18.1797 Y60.7454
G01 X18.2134 Y60.8386
G01 X18.2168 Y60.8489
G01 X18.2197 Y60.8593
G01 X18.2435 Y60.9555
G01 X18.2583 Y61.0535
G00 Z2.0000
G00 X18.1742 Y61.0660
G01 F150.00
G01 Z0.0000
G01 F400.00
G01 X18.1755 Y61.0792
G01 X18.1800 Y61.1740
G01 X18.1750 Y61.2754
G01 X18.1601 Y61.3759
G01 X18.1354 Y61.4744
G01 X18.1012 Y61.5701
G01 X18.0578 Y61.6619
G01 X18.0056 Y61.7490
G01 X17.9451 Y61.8306
G01 X17.8769 Y61.9059
G01 X17.8016 Y61.9741
G01 X17.7200 Y62.0346
G01 X17.6329 Y62.0868
G01 X17.5411 Y62.1302
G01 X17.4454 Y62.1644
G01 X17.3469 Y62.1891
G01 X17.2464 Y62.2040
G01 X17.1450 Y62.2090
G01 X17.0436 Y62.2040
G01 X16.9431 Y62.1891
G01 X16.8446 Y62.1644
G01 X16.7489 Y62.1302
G01 X16.6571 Y62.0868
G01 X16.5700 Y62.0346
G01 X16.4884 Y61.9741
G01 X16.4131 Y61.9059
G01 X16.3449 Y61.8306
G01 X16.2844 Y61.7490
G01 X16.2322 Y61.6619
G01 X16.1888 Y61.5701
G01 X16.1546 Y61.4744
G01 X16.1299 Y61.3759
G01 X16.1150 Y61.2754
G01 X16.1100 Y61.1740
G01 X16.1150 Y61.0726
G01 X16.1299 Y60.9721
G01 X16.1546 Y60.8736
G01 X16.1888 Y60.7779
G01 X16.2322 Y60.6861
G01 X16.2844 Y60.5990
G01 X16.3449 Y60.5174
G01 X16.4131 Y60.4421
G01 X16.4884 Y60.3739
G01 X16.5700 Y60.3134
G01 X16.6571 Y60.2612
G01 X16.7489 Y60.2178
G01 X16.8446 Y60.1836
G01 X16.9431 Y60.1589
G01 X17.0436 Y60.1440
G01 X17.1450 Y60.1390
G01 X17.2464 Y60.1440
G01 X17.3469 Y60.1589
G01 X17.4454 Y60.1836
G01 X17.5411 Y60.2178
G01 X17.6329 Y60.2612
G01 X17.7200 Y60.3134
G01 X17.8016 Y60.3739
G01 X17.8769 Y60.4421
G01 X17.9451 Y60.5174
G01 X18.0056 Y60.5990
G01 X18.0578 Y60.6861
G01 X18.1012 Y60.7779
G01 X18.1354 Y60.8736
G01 X18.1601 Y60.9721
G01 X18.1742 Y61.0660
G00 Z2.0000
G00 X18.0901 Y61.0784
G01 F150.00
G01 Z0.0000
G01 F400.00
G01 X18.0950 Y61.1740
G01 X18.0904 Y61.2671
G01 X18.0767 Y61.3593
G01 X18.0541 Y61.4498
G01 X18.0227 Y61.5375
G01 X17.9828 Y61.6218
G01 X17.9349 Y61.7018
G01 X17.8794 Y61.7767
G01 X17.8168 Y61.8458
G01 X17.7477 Y61.9084
G01 X17.6728 Y61.9639
G01 X17.5928 Y62.0118
G01 X17.5085 Y62.0517
G01 X17.4208 Y62.0831
G01 X17.3303 Y62.1057
G01 X17.2381 Y62.1194
G01 X17.1450 Y62.1240
G01 X17.0519 Y62.1194
G01 X16.9597 Y62.1057
G01 X16.8692 Y62.0831
G01 X16.7815 Y62.0517
G01 X16.6972 Y62.0118
G01 X16.6172 Y61.9639
G01 X16.5423 Y61.9084
G01 X16.4732 Y61.8458
G01 X16.4106 Y61.7767
G01 X16.3551 Y61.7018
G01 X16.3072 Y61.6218
G01 X16.2673 Y61.5375
G01 X16.2359 Y61.4498
G01 X16.2133 Y61.3593
G01 X16.1996 Y61.2671
G01 X16.1950 Y61.1740
G01 X16.1996 Y61.0809
G01 X16.2133 Y60.9887
G01 X16.2359 Y60.8982
G01 X16.2673 Y60.8105
G01 X16.3072 Y60.7262
G01 X16.3551 Y60.6462
G01 X16.4106 Y60.5713
G01 X16.4732 Y60.5022
G01 X16.5423 Y60.4396
G01 X16.6172 Y60.3841
G01 X16.6972 Y60.3362
G01 X16.7815 Y60.2963
G01 X16.8692 Y60.2649
G01 X16.9597 Y60.2423
G01 X17.0519 Y60.2286
G01 X17.1450 Y60.2240
G01 X17.2381 Y60.2286
G01 X17.3303 Y60.2423
G01 X17.4208 Y60.2649
G01 X17.5085 Y60.2963
G01 X17.5928 Y60.3362
G01 X17.6728 Y60.3841
G01 X17.7477 Y60.4396
G01 X17.8168 Y60.5022
G01 X17.8794 Y60.5713
G01 X17.9349 Y60.6462
G01 X17.9828 Y60.7262
G01 X18.0227 Y60.8105
G01 X18.0541 Y60.8982
G01 X18.0767 Y60.9887
G01 X18.0901 Y61.0784
G00 Z2.0000
G00 X16.2058 Y63.8495
G01 F150.00
G01 Z0.0000
G01 F400.00
G01 X16.1655 Y63.8394
G01 X16.1169 Y63.8221
G01 X16.0658 Y63.7981
G01 X16.0175 Y63.7689
G01 X15.9761 Y63.7382
G01 X15.9379 Y63.7036
G01 X14.8501 Y62.6159
G01 X14.8147 Y62.5768
G01 X14.7825 Y62.5334
G01 X14.7547 Y62.4871
G01 X14.7316 Y62.4383
G01 X14.7134 Y62.3874
G01 X14.7003 Y62.3351
G01 X14.6924 Y62.2817
G01 X14.6898 Y62.2290
G01 X14.6897 Y14.6374
G01 X14.6851 Y14.6328
G01 X14.6377 Y14.6303
G01 X14.5467 Y14.6167
G01 X14.4551 Y14.5937
G01 X14.3662 Y14.5617
G01 X14.2842 Y14.5228
G01 X14.2052 Y14.4756
G01 X14.1293 Y14.4194
G01 X14.0586 Y14.3550
G01 X13.9976 Y14.2877
G01 X13.9435 Y14.2148
G01 X13.8942 Y14.1328
G01 X13.8543 Y14.0485
G01 X13.8229 Y13.9608
G01 X13.8003 Y13.8703
G01 X13.7866 Y13.7781
G01 X13.7820 Y13.6850
G01 X13.7820 Y12.9850
G01 X13.7866 Y12.8919
G01 X13.8003 Y12.7997
G01 X13.8229 Y12.7092
G01 X13.8543 Y12.6215
G01 X13.8942 Y12.5372
G01 X13.9421 Y12.4572
G01 X13.9976 Y12.3823
G01 X14.0602 Y12.3132
G01 X14.1293 Y12.2506
G01 X14.2042 Y12.1951
G01 X14.2842 Y12.1472
G01 X14.3685 Y12.1073
G01 X14.4562 Y12.0759
G01 X14.5467 Y12.0533
G01 X14.6389 Y12.0396
G01 X14.7308 Y12.0350
G01 X14.8276 Y12.0399
G01 X14.9173 Y12.0533
G01 X15.0078 Y12.0759
G01 X15.0978 Y12.1083
G01 X15.1798 Y12.1472
G01 X15.2598 Y12.1951
