(G-CODE GENERATED BY FLATCAM v8.994 - www.flatcam.org - Version Date: 2020/11/7)

(Name: Placa de sensores.GBL_cutout_cnc)
(Type: G-code from Geometry)
(Units: MM)

(Created on Wednesday, 10 February 2021 at 14:37)

(This preprocessor is the default preprocessor used by FlatCAM.)
(It is made to work with MACH3 compatible motion controllers.)

(TOOL DIAMETER: 1.5 mm)
(Feedrate_XY: 450.0 mm/min)
(Feedrate_Z: 200.0 mm/min)
(Feedrate rapids 1500.0 mm/min)

(Z_Cut: -1.8 mm)
(DepthPerCut: 0.6 mm <=>3 passes)
(Z_Move: 2.0 mm)
(Z Start: None mm)
(Z End: 20.0 mm)
(X,Y End: None mm)
(Steps per circle: 64)
(Preprocessor Geometry: default)

(X range:   -1.2037 ...   60.6400  mm)
(Y range:   -0.9500 ...  120.9650  mm)

(Spindle Speed: 1000.0 RPM)
G21
G90
G94

G01 F450.00

M5
G00 Z15.0000
G00 X0.0000 Y0.0000
T1
M6    
(MSG, Change to Tool Dia = 1.5000)
M0
G00 Z15.0000

M03 S1000.0
G01 F450.00
G00 X27.1681 Y-0.9500
G01 F200.00
G01 Z-0.6000
G01 F450.00
G01 X-0.2537 Y-0.9500
G01 X-0.3468 Y-0.9454
G01 X-0.4390 Y-0.9317
G01 X-0.5295 Y-0.9091
G01 X-0.6172 Y-0.8777
G01 X-0.7015 Y-0.8378
G01 X-0.7815 Y-0.7899
G01 X-0.8564 Y-0.7344
G01 X-0.9255 Y-0.6718
G01 X-0.9881 Y-0.6027
G01 X-1.0436 Y-0.5278
G01 X-1.0915 Y-0.4478
G01 X-1.1314 Y-0.3635
G01 X-1.1628 Y-0.2758
G01 X-1.1854 Y-0.1853
G01 X-1.1991 Y-0.0931
G01 X-1.2037 Y0.0000
G01 X-1.2037 Y57.4575
G00 X-1.2037 Y57.4575
G01 F200.00
G01 Z-1.2000
G01 F450.00
G01 X-1.2037 Y0.0000
G01 X-1.1991 Y-0.0931
G01 X-1.1854 Y-0.1853
G01 X-1.1628 Y-0.2758
G01 X-1.1314 Y-0.3635
G01 X-1.0915 Y-0.4478
G01 X-1.0436 Y-0.5278
G01 X-0.9881 Y-0.6027
G01 X-0.9255 Y-0.6718
G01 X-0.8564 Y-0.7344
G01 X-0.7815 Y-0.7899
G01 X-0.7015 Y-0.8378
G01 X-0.6172 Y-0.8777
G01 X-0.5295 Y-0.9091
G01 X-0.4390 Y-0.9317
G01 X-0.3468 Y-0.9454
G01 X-0.2537 Y-0.9500
G01 X27.1681 Y-0.9500
G00 X27.1681 Y-0.9500
G01 F200.00
G01 Z-1.8000
G01 F450.00
G01 X-0.2537 Y-0.9500
G01 X-0.3468 Y-0.9454
G01 X-0.4390 Y-0.9317
G01 X-0.5295 Y-0.9091
G01 X-0.6172 Y-0.8777
G01 X-0.7015 Y-0.8378
G01 X-0.7815 Y-0.7899
G01 X-0.8564 Y-0.7344
G01 X-0.9255 Y-0.6718
G01 X-0.9881 Y-0.6027
G01 X-1.0436 Y-0.5278
G01 X-1.0915 Y-0.4478
G01 X-1.1314 Y-0.3635
G01 X-1.1628 Y-0.2758
G01 X-1.1854 Y-0.1853
G01 X-1.1991 Y-0.0931
G01 X-1.2037 Y0.0000
G01 X-1.2037 Y57.4575
G00 Z2.0000
G00 X-1.2037 Y62.9575
G01 F200.00
G01 Z-0.6000
G01 F450.00
G01 X-1.2037 Y120.0150
G01 X-1.1991 Y120.1081
G01 X-1.1854 Y120.2003
G01 X-1.1628 Y120.2908
G01 X-1.1314 Y120.3785
G01 X-1.0915 Y120.4628
G01 X-1.0436 Y120.5428
G01 X-0.9881 Y120.6177
G01 X-0.9255 Y120.6868
G01 X-0.8564 Y120.7494
G01 X-0.7815 Y120.8049
G01 X-0.7015 Y120.8528
G01 X-0.6172 Y120.8927
G01 X-0.5295 Y120.9241
G01 X-0.4390 Y120.9467
G01 X-0.3468 Y120.9604
G01 X-0.2537 Y120.9650
G01 X27.1681 Y120.9650
G00 X27.1681 Y120.9650
G01 F200.00
G01 Z-1.2000
G01 F450.00
G01 X-0.2537 Y120.9650
G01 X-0.3468 Y120.9604
G01 X-0.4390 Y120.9467
G01 X-0.5295 Y120.9241
G01 X-0.6172 Y120.8927
G01 X-0.7015 Y120.8528
G01 X-0.7815 Y120.8049
G01 X-0.8564 Y120.7494
G01 X-0.9255 Y120.6868
G01 X-0.9881 Y120.6177
G01 X-1.0436 Y120.5428
G01 X-1.0915 Y120.4628
G01 X-1.1314 Y120.3785
G01 X-1.1628 Y120.2908
G01 X-1.1854 Y120.2003
G01 X-1.1991 Y120.1081
G01 X-1.2037 Y120.0150
G01 X-1.2037 Y62.9575
G00 X-1.2037 Y62.9575
G01 F200.00
G01 Z-1.8000
G01 F450.00
G01 X-1.2037 Y120.0150
G01 X-1.1991 Y120.1081
G01 X-1.1854 Y120.2003
G01 X-1.1628 Y120.2908
G01 X-1.1314 Y120.3785
G01 X-1.0915 Y120.4628
G01 X-1.0436 Y120.5428
G01 X-0.9881 Y120.6177
G01 X-0.9255 Y120.6868
G01 X-0.8564 Y120.7494
G01 X-0.7815 Y120.8049
G01 X-0.7015 Y120.8528
G01 X-0.6172 Y120.8927
G01 X-0.5295 Y120.9241
G01 X-0.4390 Y120.9467
G01 X-0.3468 Y120.9604
G01 X-0.2537 Y120.9650
G01 X27.1681 Y120.9650
G00 Z2.0000
G00 X32.6681 Y120.9650
G01 F200.00
G01 Z-0.6000
G01 F450.00
G01 X59.6900 Y120.9650
G01 X59.7831 Y120.9604
G01 X59.8753 Y120.9467
G01 X59.9658 Y120.9241
G01 X60.0535 Y120.8927
G01 X60.1378 Y120.8528
G01 X60.2178 Y120.8049
G01 X60.2927 Y120.7494
G01 X60.3618 Y120.6868
G01 X60.4244 Y120.6177
G01 X60.4799 Y120.5428
G01 X60.5278 Y120.4628
G01 X60.5677 Y120.3785
G01 X60.5991 Y120.2908
G01 X60.6217 Y120.2003
G01 X60.6354 Y120.1081
G01 X60.6400 Y120.0150
G01 X60.6400 Y62.9575
G00 X60.6400 Y62.9575
G01 F200.00
G01 Z-1.2000
G01 F450.00
G01 X60.6400 Y120.0150
G01 X60.6354 Y120.1081
G01 X60.6217 Y120.2003
G01 X60.5991 Y120.2908
G01 X60.5677 Y120.3785
G01 X60.5278 Y120.4628
G01 X60.4799 Y120.5428
G01 X60.4244 Y120.6177
G01 X60.3618 Y120.6868
G01 X60.2927 Y120.7494
G01 X60.2178 Y120.8049
G01 X60.1378 Y120.8528
G01 X60.0535 Y120.8927
G01 X59.9658 Y120.9241
G01 X59.8753 Y120.9467
G01 X59.7831 Y120.9604
G01 X59.6900 Y120.9650
G01 X32.6681 Y120.9650
G00 X32.6681 Y120.9650
G01 F200.00
G01 Z-1.8000
G01 F450.00
G01 X59.6900 Y120.9650
G01 X59.7831 Y120.9604
G01 X59.8753 Y120.9467
G01 X59.9658 Y120.9241
G01 X60.0535 Y120.8927
G01 X60.1378 Y120.8528
G01 X60.2178 Y120.8049
G01 X60.2927 Y120.7494
G01 X60.3618 Y120.6868
G01 X60.4244 Y120.6177
G01 X60.4799 Y120.5428
G01 X60.5278 Y120.4628
G01 X60.5677 Y120.3785
G01 X60.5991 Y120.2908
G01 X60.6217 Y120.2003
G01 X60.6354 Y120.1081
G01 X60.6400 Y120.0150
G01 X60.6400 Y62.9575
G00 Z2.0000
G00 X60.6400 Y57.4575
G01 F200.00
G01 Z-0.6000
G01 F450.00
G01 X60.6400 Y0.0000
G01 X60.6354 Y-0.0931
G01 X60.6217 Y-0.1853
G01 X60.5991 Y-0.2758
G01 X60.5677 Y-0.3635
G01 X60.5278 Y-0.4478
G01 X60.4799 Y-0.5278
G01 X60.4244 Y-0.6027
G01 X60.3618 Y-0.6718
G01 X60.2927 Y-0.7344
G01 X60.2178 Y-0.7899
G01 X60.1378 Y-0.8378
G01 X60.0535 Y-0.8777
G01 X59.9658 Y-0.9091
G01 X59.8753 Y-0.9317
G01 X59.7831 Y-0.9454
G01 X59.6900 Y-0.9500
G01 X32.6681 Y-0.9500
G00 X32.6681 Y-0.9500
G01 F200.00
G01 Z-1.2000
G01 F450.00
G01 X59.6900 Y-0.9500
G01 X59.7831 Y-0.9454
G01 X59.8753 Y-0.9317
G01 X59.9658 Y-0.9091
G01 X60.0535 Y-0.8777
G01 X60.1378 Y-0.8378
G01 X60.2178 Y-0.7899
G01 X60.2927 Y-0.7344
G01 X60.3618 Y-0.6718
G01 X60.4244 Y-0.6027
G01 X60.4799 Y-0.5278
G01 X60.5278 Y-0.4478
G01 X60.5677 Y-0.3635
G01 X60.5991 Y-0.2758
G01 X60.6217 Y-0.1853
G01 X60.6354 Y-0.0931
G01 X60.6400 Y0.0000
G01 X60.6400 Y57.4575
G00 X60.6400 Y57.4575
G01 F200.00
G01 Z-1.8000
G01 F450.00
G01 X60.6400 Y0.0000
G01 X60.6354 Y-0.0931
G01 X60.6217 Y-0.1853
G01 X60.5991 Y-0.2758
G01 X60.5677 Y-0.3635
G01 X60.5278 Y-0.4478
G01 X60.4799 Y-0.5278
G01 X60.4244 Y-0.6027
G01 X60.3618 Y-0.6718
G01 X60.2927 Y-0.7344
G01 X60.2178 Y-0.7899
G01 X60.1378 Y-0.8378
G01 X60.0535 Y-0.8777
G01 X59.9658 Y-0.9091
G01 X59.8753 Y-0.9317
G01 X59.7831 Y-0.9454
G01 X59.6900 Y-0.9500
G01 X32.6681 Y-0.9500
G00 Z2.0000
M05
G00 Z2.0000
G00 Z20.00


