(G-CODE GENERATED BY FLATCAM v8.994 - www.flatcam.org - Version Date: 2020/11/7)

(Name: Placa de sensores-Plated.TXT_cnc)
(Type: G-code from Geometry)
(Units: MM)

(Created on Wednesday, 10 February 2021 at 14:14)

(This preprocessor is the default preprocessor used by FlatCAM.)
(It is made to work with MACH3 compatible motion controllers.)


(TOOLS DIAMETER: )
(Tool: 1 -> Dia: 0.7112)
(Tool: 2 -> Dia: 0.85)
(Tool: 3 -> Dia: 0.9)
(Tool: 4 -> Dia: 1.0)
(Tool: 5 -> Dia: 1.1)
(Tool: 6 -> Dia: 1.25)
(Tool: 7 -> Dia: 3.0)

(FEEDRATE Z: )
(Tool: 1 -> Feedrate: 200.0)
(Tool: 2 -> Feedrate: 200.0)
(Tool: 3 -> Feedrate: 200.0)
(Tool: 4 -> Feedrate: 300.0)
(Tool: 5 -> Feedrate: 300.0)
(Tool: 6 -> Feedrate: 300.0)
(Tool: 7 -> Feedrate: 300)

(FEEDRATE RAPIDS: )
(Tool: 1 -> Feedrate Rapids: 1500)
(Tool: 2 -> Feedrate Rapids: 1500)
(Tool: 3 -> Feedrate Rapids: 1500)
(Tool: 4 -> Feedrate Rapids: 1500)
(Tool: 5 -> Feedrate Rapids: 1500)
(Tool: 6 -> Feedrate Rapids: 1500)
(Tool: 7 -> Feedrate Rapids: 1500)

(Z_CUT: )
(Tool: 1 -> Z_Cut: -3.0)
(Tool: 2 -> Z_Cut: -3.0)
(Tool: 3 -> Z_Cut: -3.0)
(Tool: 4 -> Z_Cut: -1.7)
(Tool: 5 -> Z_Cut: -1.7)
(Tool: 6 -> Z_Cut: -1.7)
(Tool: 7 -> Z_Cut: -1.7)

(Tools Offset: )
(Tool: 4 -> Offset Z: 0.0)
(Tool: 5 -> Offset Z: 0.0)
(Tool: 6 -> Offset Z: 0.0)

(Z_MOVE: )
(Tool: 1 -> Z_Move: 10.0)
(Tool: 2 -> Z_Move: 10.0)
(Tool: 3 -> Z_Move: 10.0)
(Tool: 4 -> Z_Move: 2)
(Tool: 5 -> Z_Move: 2)
(Tool: 6 -> Z_Move: 2)
(Tool: 7 -> Z_Move: 2)

(Z Toolchange: 15 mm)
(X,Y Toolchange: 0.0000, 0.0000 mm)
(Z Start: None mm)
(Z End: 20.0 mm)
(X,Y End: None mm)
(Steps per circle: 64)
(Preprocessor Excellon: default)

(X range:    1.8160 ...   57.3940  mm)
(Y range:    2.0560 ...  117.9590  mm)

(Spindle Speed: 0 RPM)
G21
G90
G94

G01 F300.00

M5
G00 Z15.0000
T4
G00 X0.0000 Y0.0000                
M6
(MSG, Change to Tool Dia = 1.0000 ||| Total drills for tool T4 = 93)
M0
G00 Z15.0000

G01 F300.00
M03
G00 X43.4610 Y30.2260
G01 Z-1.7000
G01 Z0
G00 Z2.0000
G00 X43.4610 Y32.7260
G01 Z-1.7000
G01 Z0
G00 Z2.0000
G00 X43.4610 Y35.2660
G01 Z-1.7000
G01 Z0
G00 Z2.0000
G00 X43.4610 Y37.8060
G01 Z-1.7000
G01 Z0
G00 Z2.0000
G00 X43.4610 Y40.3460
G01 Z-1.7000
G01 Z0
G00 Z2.0000
G00 X43.4610 Y42.8860
G01 Z-1.7000
G01 Z0
G00 Z2.0000
G00 X43.4610 Y45.4260
G01 Z-1.7000
G01 Z0
G00 Z2.0000
G00 X43.4610 Y47.9660
G01 Z-1.7000
G01 Z0
G00 Z2.0000
G00 X43.4610 Y50.5060
G01 Z-1.7000
G01 Z0
G00 Z2.0000
G00 X43.4610 Y53.0460
G01 Z-1.7000
G01 Z0
G00 Z2.0000
G00 X43.4610 Y55.5860
G01 Z-1.7000
G01 Z0
G00 Z2.0000
G00 X43.4610 Y58.1260
G01 Z-1.7000
G01 Z0
G00 Z2.0000
G00 X43.4610 Y60.6660
G01 Z-1.7000
G01 Z0
G00 Z2.0000
G00 X43.4610 Y63.2060
G01 Z-1.7000
G01 Z0
G00 Z2.0000
G00 X43.4610 Y65.7460
G01 Z-1.7000
G01 Z0
G00 Z2.0000
G00 X52.9730 Y68.3260
G01 Z-1.7000
G01 Z0
G00 Z2.0000
G00 X52.9730 Y70.8660
G01 Z-1.7000
G01 Z0
G00 Z2.0000
G00 X30.4940 Y73.2790
G01 Z-1.7000
G01 Z0
G00 Z2.0000
G00 X30.4940 Y75.8190
G01 Z-1.7000
G01 Z0
G00 Z2.0000
G00 X30.4940 Y78.3590
G01 Z-1.7000
G01 Z0
G00 Z2.0000
G00 X34.1770 Y96.3930
G01 Z-1.7000
G01 Z0
G00 Z2.0000
G00 X34.1770 Y98.9330
G01 Z-1.7000
G01 Z0
G00 Z2.0000
G00 X34.1770 Y101.4730
G01 Z-1.7000
G01 Z0
G00 Z2.0000
G00 X34.1770 Y104.0130
G01 Z-1.7000
G01 Z0
G00 Z2.0000
G00 X43.5750 Y104.0130
G01 Z-1.7000
G01 Z0
G00 Z2.0000
G00 X43.5750 Y101.4730
G01 Z-1.7000
G01 Z0
G00 Z2.0000
G00 X43.5750 Y98.9330
G01 Z-1.7000
G01 Z0
G00 Z2.0000
G00 X43.5750 Y96.3930
G01 Z-1.7000
G01 Z0
G00 Z2.0000
G00 X53.1000 Y96.3930
G01 Z-1.7000
G01 Z0
G00 Z2.0000
G00 X53.1000 Y98.9330
G01 Z-1.7000
G01 Z0
G00 Z2.0000
G00 X53.1000 Y101.4730
G01 Z-1.7000
G01 Z0
G00 Z2.0000
G00 X53.1000 Y104.0130
G01 Z-1.7000
G01 Z0
G00 Z2.0000
G00 X53.1000 Y106.5530
G01 Z-1.7000
G01 Z0
G00 Z2.0000
G00 X53.1000 Y109.0930
G01 Z-1.7000
G01 Z0
G00 Z2.0000
G00 X43.5750 Y106.5530
G01 Z-1.7000
G01 Z0
G00 Z2.0000
G00 X43.5750 Y109.0930
G01 Z-1.7000
G01 Z0
G00 Z2.0000
G00 X34.1770 Y109.0930
G01 Z-1.7000
G01 Z0
G00 Z2.0000
G00 X34.1770 Y106.5530
G01 Z-1.7000
G01 Z0
G00 Z2.0000
G00 X24.7790 Y109.0930
G01 Z-1.7000
G01 Z0
G00 Z2.0000
G00 X24.7790 Y106.5530
G01 Z-1.7000
G01 Z0
G00 Z2.0000
G00 X24.7790 Y104.0130
G01 Z-1.7000
G01 Z0
G00 Z2.0000
G00 X24.7790 Y101.4730
G01 Z-1.7000
G01 Z0
G00 Z2.0000
G00 X24.7790 Y98.9330
G01 Z-1.7000
G01 Z0
G00 Z2.0000
G00 X24.7790 Y96.3930
G01 Z-1.7000
G01 Z0
G00 Z2.0000
G00 X15.2540 Y96.3930
G01 Z-1.7000
G01 Z0
G00 Z2.0000
G00 X15.2540 Y98.9330
G01 Z-1.7000
G01 Z0
G00 Z2.0000
G00 X15.2540 Y101.4730
G01 Z-1.7000
G01 Z0
G00 Z2.0000
G00 X15.2540 Y104.0130
G01 Z-1.7000
G01 Z0
G00 Z2.0000
G00 X15.2540 Y106.5530
G01 Z-1.7000
G01 Z0
G00 Z2.0000
G00 X15.2540 Y109.0930
G01 Z-1.7000
G01 Z0
G00 Z2.0000
G00 X5.7290 Y109.0930
G01 Z-1.7000
G01 Z0
G00 Z2.0000
G00 X5.7290 Y106.5530
G01 Z-1.7000
G01 Z0
G00 Z2.0000
G00 X5.7290 Y104.0130
G01 Z-1.7000
G01 Z0
G00 Z2.0000
G00 X5.7290 Y101.4730
G01 Z-1.7000
G01 Z0
G00 Z2.0000
G00 X5.7290 Y98.9330
G01 Z-1.7000
G01 Z0
G00 Z2.0000
G00 X5.7290 Y96.3930
G01 Z-1.7000
G01 Z0
G00 Z2.0000
G00 X5.7290 Y86.1060
G01 Z-1.7000
G01 Z0
G00 Z2.0000
G00 X5.7290 Y83.5660
G01 Z-1.7000
G01 Z0
G00 Z2.0000
G00 X5.7290 Y81.0260
G01 Z-1.7000
G01 Z0
G00 Z2.0000
G00 X5.7290 Y78.4860
G01 Z-1.7000
G01 Z0
G00 Z2.0000
G00 X5.7290 Y75.9460
G01 Z-1.7000
G01 Z0
G00 Z2.0000
G00 X5.7290 Y73.4060
G01 Z-1.7000
G01 Z0
G00 Z2.0000
G00 X5.7290 Y70.8660
G01 Z-1.7000
G01 Z0
G00 Z2.0000
G00 X5.7290 Y68.3260
G01 Z-1.7000
G01 Z0
G00 Z2.0000
G00 X17.2860 Y65.7460
G01 Z-1.7000
G01 Z0
G00 Z2.0000
G00 X17.2860 Y63.2060
G01 Z-1.7000
G01 Z0
G00 Z2.0000
G00 X17.2860 Y60.6660
G01 Z-1.7000
G01 Z0
G00 Z2.0000
G00 X17.2860 Y58.1260
G01 Z-1.7000
G01 Z0
G00 Z2.0000
G00 X17.2860 Y55.5860
G01 Z-1.7000
G01 Z0
G00 Z2.0000
G00 X17.2860 Y53.0460
G01 Z-1.7000
G01 Z0
G00 Z2.0000
G00 X17.2860 Y50.5060
G01 Z-1.7000
G01 Z0
G00 Z2.0000
G00 X17.2860 Y47.9660
G01 Z-1.7000
G01 Z0
G00 Z2.0000
G00 X17.2860 Y45.4260
G01 Z-1.7000
G01 Z0
G00 Z2.0000
G00 X17.2860 Y42.8860
G01 Z-1.7000
G01 Z0
G00 Z2.0000
G00 X17.2860 Y40.3460
G01 Z-1.7000
G01 Z0
G00 Z2.0000
G00 X17.2860 Y37.8060
G01 Z-1.7000
G01 Z0
G00 Z2.0000
G00 X17.2860 Y35.2660
G01 Z-1.7000
G01 Z0
G00 Z2.0000
G00 X17.2860 Y32.7260
G01 Z-1.7000
G01 Z0
G00 Z2.0000
G00 X17.2860 Y30.2260
G01 Z-1.7000
G01 Z0
G00 Z2.0000
G00 X8.6500 Y12.8270
G01 Z-1.7000
G01 Z0
G00 Z2.0000
G00 X11.1900 Y12.8270
G01 Z-1.7000
G01 Z0
G00 Z2.0000
G00 X13.7300 Y12.8270
G01 Z-1.7000
G01 Z0
G00 Z2.0000
G00 X16.2700 Y12.8270
G01 Z-1.7000
G01 Z0
G00 Z2.0000
G00 X40.5270 Y12.0650
G01 Z-1.7000
G01 Z0
G00 Z2.0000
G00 X43.0670 Y12.0650
G01 Z-1.7000
G01 Z0
G00 Z2.0000
G00 X45.6070 Y12.0650
G01 Z-1.7000
G01 Z0
G00 Z2.0000
G00 X48.1470 Y12.0650
G01 Z-1.7000
G01 Z0
G00 Z2.0000
G00 X50.6870 Y12.0650
G01 Z-1.7000
G01 Z0
G00 Z2.0000
G00 X50.3060 Y22.9870
G01 Z-1.7000
G01 Z0
G00 Z2.0000
G00 X47.7660 Y22.9870
G01 Z-1.7000
G01 Z0
G00 Z2.0000
G00 X54.1160 Y32.2580
G01 Z-1.7000
G01 Z0
G00 Z2.0000
G00 X51.5760 Y32.2580
G01 Z-1.7000
G01 Z0
G00 Z2.0000
G00 X49.0360 Y32.2580
G01 Z-1.7000
G01 Z0
G00 Z2.0000
M05
G00 Z20.00


