(G-CODE GENERATED BY FLATCAM v8.994 - www.flatcam.org - Version Date: 2020/11/7)

(Name: Placa de sensores.GBL_iso_combined_cnc)
(Type: G-code from Geometry)
(Units: MM)

(Created on Friday, 12 February 2021 at 09:29)

(This preprocessor is the default preprocessor used by FlatCAM.)
(It is made to work with MACH3 compatible motion controllers.)

(TOOL DIAMETER: 0.1 mm)
(Feedrate_XY: 500.0 mm/min)
(Feedrate_Z: 60.0 mm/min)
(Feedrate rapids 1500.0 mm/min)

(Z_Cut: 0.0 mm)
(Z_Move: 2.0 mm)
(Z Start: None mm)
(Z End: 20.0 mm)
(X,Y End: None mm)
(Steps per circle: 64)
(Preprocessor Geometry: default)

(X range:   -0.4737 ...   59.9100  mm)
(Y range:   -0.2200 ...  120.2350  mm)

(Spindle Speed: 1000.0 RPM)
G21
G90
G94

G01 F500.00

M5
G00 Z15.0000
G00 X0.0000 Y0.0000
T1
M6    
(MSG, Change to Tool Dia = 0.1000)
M0
G00 Z15.0000

M03 S1000.0
G01 F500.00
G00 X-0.0497 Y0.5287
G01 F60.00
G01 Z0.0000
G01 F500.00
G01 X-0.2907 Y0.2876
G01 X-0.2966 Y0.2797
G01 X-0.2989 Y0.2754
G01 X-0.3012 Y0.2697
G01 X-0.3033 Y0.2601
G01 X-0.3037 Y0.2552
G01 X-0.3035 Y0.2491
G01 X-0.3019 Y0.2407
G01 X-0.2994 Y0.2337
G01 X-0.2953 Y0.2262
G01 X-0.2899 Y0.2195
G01 X-0.0351 Y-0.0354
G01 X-0.0275 Y-0.0416
G01 X-0.0188 Y-0.0462
G01 X-0.0095 Y-0.0490
G01 X0.0003 Y-0.0500
G01 X59.6003 Y-0.0500
G01 X59.6101 Y-0.0490
G01 X59.6183 Y-0.0466
G01 X59.6261 Y-0.0429
G01 X59.6330 Y-0.0378
G01 X59.7263 Y0.0556
G01 X59.7309 Y0.0613
G01 X59.7347 Y0.0676
G01 X59.7371 Y0.0733
G01 X59.7388 Y0.0792
G01 X59.7398 Y0.0852
G01 X59.7400 Y0.0902
G01 X59.3593 Y120.0152
G01 X59.3587 Y120.0225
G01 X59.3571 Y120.0296
G01 X59.3550 Y120.0354
G01 X59.3515 Y120.0418
G01 X59.3471 Y120.0477
G01 X59.3428 Y120.0521
G01 X59.3380 Y120.0559
G01 X59.3317 Y120.0597
G01 X59.3261 Y120.0621
G01 X59.3214 Y120.0635
G01 X59.3154 Y120.0646
G01 X59.3093 Y120.0650
G01 X0.0003 Y120.0650
G01 X-0.0070 Y120.0645
G01 X-0.0142 Y120.0628
G01 X-0.0200 Y120.0607
G01 X-0.0264 Y120.0572
G01 X-0.0314 Y120.0537
G01 X-0.0367 Y120.0486
G01 X-0.0406 Y120.0438
G01 X-0.0444 Y120.0375
G01 X-0.0468 Y120.0318
G01 X-0.0485 Y120.0260
G01 X-0.0493 Y120.0211
G01 X-0.0497 Y120.0150
G01 X-0.0497 Y0.5287
G00 Z2.0000
G00 X-0.1347 Y0.5639
G01 F60.00
G01 Z0.0000
G01 F500.00
G01 X-0.3492 Y0.3495
G01 X-0.3559 Y0.3422
G01 X-0.3621 Y0.3344
G01 X-0.3712 Y0.3205
G01 X-0.3771 Y0.3087
G01 X-0.3819 Y0.2963
G01 X-0.3854 Y0.2836
G01 X-0.3877 Y0.2705
G01 X-0.3887 Y0.2573
G01 X-0.3880 Y0.2408
G01 X-0.3861 Y0.2277
G01 X-0.3819 Y0.2117
G01 X-0.3784 Y0.2023
G01 X-0.3743 Y0.1933
G01 X-0.3659 Y0.1790
G01 X-0.3601 Y0.1709
G01 X-0.3537 Y0.1633
G01 X-0.0928 Y-0.0978
G01 X-0.0828 Y-0.1064
G01 X-0.0719 Y-0.1141
G01 X-0.0633 Y-0.1191
G01 X-0.0514 Y-0.1247
G01 X-0.0389 Y-0.1292
G01 X-0.0260 Y-0.1324
G01 X-0.0129 Y-0.1343
G01 X0.0003 Y-0.1350
G01 X59.6003 Y-0.1350
G01 X59.6103 Y-0.1346
G01 X59.6234 Y-0.1330
G01 X59.6364 Y-0.1301
G01 X59.6459 Y-0.1271
G01 X59.6551 Y-0.1234
G01 X59.6641 Y-0.1190
G01 X59.6727 Y-0.1140
G01 X59.6835 Y-0.1063
G01 X59.6959 Y-0.0953
G01 X59.7879 Y-0.0029
G01 X59.7945 Y0.0046
G01 X59.8005 Y0.0125
G01 X59.8059 Y0.0208
G01 X59.8107 Y0.0296
G01 X59.8172 Y0.0448
G01 X59.8218 Y0.0608
G01 X59.8240 Y0.0739
G01 X59.8250 Y0.0904
G01 X59.4443 Y120.0154
G01 X59.4439 Y120.0253
G01 X59.4428 Y120.0352
G01 X59.4409 Y120.0449
G01 X59.4384 Y120.0545
G01 X59.4351 Y120.0639
G01 X59.4312 Y120.0730
G01 X59.4232 Y120.0875
G01 X59.4135 Y120.1008
G01 X59.4069 Y120.1082
G01 X59.3998 Y120.1152
G01 X59.3922 Y120.1215
G01 X59.3842 Y120.1273
G01 X59.3699 Y120.1356
G01 X59.3578 Y120.1410
G01 X59.3420 Y120.1460
G01 X59.3258 Y120.1490
G01 X59.3093 Y120.1500
G01 X0.0003 Y120.1500
G01 X-0.0096 Y120.1496
G01 X-0.0195 Y120.1485
G01 X-0.0357 Y120.1451
G01 X-0.0452 Y120.1421
G01 X-0.0544 Y120.1384
G01 X-0.0691 Y120.1308
G01 X-0.0774 Y120.1254
G01 X-0.0853 Y120.1194
G01 X-0.0975 Y120.1081
G01 X-0.1041 Y120.1006
G01 X-0.1101 Y120.0927
G01 X-0.1155 Y120.0844
G01 X-0.1203 Y120.0757
G01 X-0.1268 Y120.0605
G01 X-0.1314 Y120.0446
G01 X-0.1337 Y120.0315
G01 X-0.1347 Y120.0150
G01 X-0.1347 Y0.5639
G00 Z2.0000
G00 X-0.2197 Y0.5991
G01 F60.00
G01 Z0.0000
G01 F500.00
G01 X-0.4130 Y0.4057
G01 X-0.4203 Y0.3977
G01 X-0.4304 Y0.3851
G01 X-0.4366 Y0.3762
G01 X-0.4424 Y0.3671
G01 X-0.4477 Y0.3577
G01 X-0.4526 Y0.3481
G01 X-0.4570 Y0.3382
G01 X-0.4608 Y0.3281
G01 X-0.4642 Y0.3179
G01 X-0.4671 Y0.3075
G01 X-0.4695 Y0.2969
G01 X-0.4713 Y0.2863
G01 X-0.4726 Y0.2756
G01 X-0.4734 Y0.2648
G01 X-0.4736 Y0.2486
G01 X-0.4731 Y0.2378
G01 X-0.4720 Y0.2271
G01 X-0.4705 Y0.2164
G01 X-0.4684 Y0.2058
G01 X-0.4657 Y0.1953
G01 X-0.4626 Y0.1850
G01 X-0.4570 Y0.1698
G01 X-0.4526 Y0.1599
G01 X-0.4451 Y0.1456
G01 X-0.4396 Y0.1363
G01 X-0.4304 Y0.1229
G01 X-0.4238 Y0.1144
G01 X-0.4167 Y0.1063
G01 X-0.4093 Y0.0984
G01 X-0.1553 Y-0.1556
G01 X-0.1474 Y-0.1630
G01 X-0.1393 Y-0.1701
G01 X-0.1308 Y-0.1767
G01 X-0.1219 Y-0.1829
G01 X-0.1128 Y-0.1887
G01 X-0.0986 Y-0.1965
G01 X-0.0889 Y-0.2011
G01 X-0.0789 Y-0.2053
G01 X-0.0687 Y-0.2089
G01 X-0.0584 Y-0.2120
G01 X-0.0426 Y-0.2158
G01 X-0.0320 Y-0.2176
G01 X-0.0213 Y-0.2189
G01 X-0.0105 Y-0.2197
G01 X0.0003 Y-0.2200
G01 X59.6003 Y-0.2200
G01 X59.6165 Y-0.2194
G01 X59.6326 Y-0.2176
G01 X59.6433 Y-0.2158
G01 X59.6539 Y-0.2134
G01 X59.6695 Y-0.2088
G01 X59.6847 Y-0.2032
G01 X59.6994 Y-0.1964
G01 X59.7089 Y-0.1913
G01 X59.7182 Y-0.1857
G01 X59.7316 Y-0.1765
G01 X59.7401 Y-0.1699
G01 X59.7523 Y-0.1591
G01 X59.8458 Y-0.0653
G01 X59.8533 Y-0.0575
G01 X59.8637 Y-0.0450
G01 X59.8732 Y-0.0319
G01 X59.8817 Y-0.0180
G01 X59.8867 Y-0.0085
G01 X59.8913 Y0.0013
G01 X59.8973 Y0.0164
G01 X59.9007 Y0.0267
G01 X59.9036 Y0.0371
G01 X59.9069 Y0.0530
G01 X59.9084 Y0.0637
G01 X59.9098 Y0.0799
G01 X59.9100 Y0.0907
G01 X59.5293 Y120.0157
G01 X59.5287 Y120.0318
G01 X59.5268 Y120.0479
G01 X59.5238 Y120.0638
G01 X59.5197 Y120.0794
G01 X59.5144 Y120.0947
G01 X59.5080 Y120.1095
G01 X59.5005 Y120.1238
G01 X59.4949 Y120.1331
G01 X59.4858 Y120.1464
G01 X59.4756 Y120.1590
G01 X59.4646 Y120.1708
G01 X59.4568 Y120.1782
G01 X59.4444 Y120.1886
G01 X59.4313 Y120.1981
G01 X59.4175 Y120.2065
G01 X59.4080 Y120.2116
G01 X59.3983 Y120.2162
G01 X59.3833 Y120.2222
G01 X59.3679 Y120.2271
G01 X59.3574 Y120.2297
G01 X59.3415 Y120.2326
G01 X59.3308 Y120.2339
G01 X59.3201 Y120.2347
G01 X59.3093 Y120.2350
G01 X0.0003 Y120.2350
G01 X-0.0159 Y120.2344
G01 X-0.0320 Y120.2326
G01 X-0.0479 Y120.2297
G01 X-0.0636 Y120.2255
G01 X-0.0789 Y120.2203
G01 X-0.0938 Y120.2139
G01 X-0.1034 Y120.2090
G01 X-0.1174 Y120.2009
G01 X-0.1308 Y120.1917
G01 X-0.1393 Y120.1851
G01 X-0.1514 Y120.1743
G01 X-0.1627 Y120.1627
G01 X-0.1698 Y120.1546
G01 X-0.1796 Y120.1417
G01 X-0.1884 Y120.1281
G01 X-0.1962 Y120.1139
G01 X-0.2008 Y120.1042
G01 X-0.2050 Y120.0942
G01 X-0.2086 Y120.0840
G01 X-0.2131 Y120.0685
G01 X-0.2155 Y120.0579
G01 X-0.2180 Y120.0419
G01 X-0.2191 Y120.0312
G01 X-0.2197 Y120.0150
G01 X-0.2197 Y0.5991
G00 Z2.0000
G00 X4.8445 Y3.4016
G01 F60.00
G01 Z0.0000
G01 F500.00
G01 X4.8523 Y3.5560
G01 X4.8448 Y3.7079
G01 X4.8225 Y3.8584
G01 X4.7856 Y4.0059
G01 X4.7343 Y4.1492
G01 X4.6693 Y4.2867
G01 X4.5911 Y4.4171
G01 X4.5005 Y4.5393
G01 X4.3983 Y4.6520
G01 X4.2856 Y4.7542
G01 X4.1634 Y4.8448
G01 X4.0330 Y4.9230
G01 X3.8955 Y4.9880
G01 X3.7522 Y5.0393
G01 X3.6047 Y5.0762
G01 X3.4542 Y5.0985
G01 X3.3023 Y5.1060
G01 X3.1504 Y5.0985
G01 X2.9999 Y5.0762
G01 X2.8524 Y5.0393
G01 X2.7091 Y4.9880
G01 X2.5716 Y4.9230
G01 X2.4412 Y4.8448
G01 X2.3190 Y4.7542
G01 X2.2063 Y4.6520
G01 X2.1041 Y4.5393
G01 X2.0135 Y4.4171
G01 X1.9353 Y4.2867
G01 X1.8703 Y4.1492
G01 X1.8190 Y4.0059
G01 X1.7821 Y3.8584
G01 X1.7598 Y3.7079
G01 X1.7523 Y3.5560
G01 X1.7598 Y3.4041
G01 X1.7821 Y3.2536
G01 X1.8190 Y3.1061
G01 X1.8703 Y2.9628
G01 X1.9353 Y2.8253
G01 X2.0135 Y2.6949
G01 X2.1041 Y2.5727
G01 X2.2063 Y2.4600
G01 X2.3190 Y2.3578
G01 X2.4412 Y2.2672
G01 X2.5716 Y2.1890
G01 X2.7091 Y2.1240
G01 X2.8524 Y2.0727
G01 X2.9999 Y2.0358
G01 X3.1504 Y2.0135
G01 X3.3023 Y2.0060
G01 X3.4542 Y2.0135
G01 X3.6047 Y2.0358
G01 X3.7522 Y2.0727
G01 X3.8955 Y2.1240
G01 X4.0330 Y2.1890
G01 X4.1634 Y2.2672
G01 X4.2856 Y2.3578
G01 X4.3983 Y2.4600
G01 X4.5005 Y2.5727
G01 X4.5911 Y2.6949
G01 X4.6693 Y2.8253
G01 X4.7343 Y2.9628
G01 X4.7856 Y3.1061
G01 X4.8225 Y3.2536
G01 X4.8445 Y3.4016
G00 Z2.0000
G00 X4.9286 Y3.3892
G01 F60.00
G01 Z0.0000
G01 F500.00
G01 X4.9299 Y3.4024
G01 X4.9373 Y3.5560
G01 X4.9294 Y3.7163
G01 X4.9059 Y3.8750
G01 X4.8669 Y4.0306
G01 X4.8128 Y4.1817
G01 X4.7442 Y4.3267
G01 X4.6618 Y4.4644
G01 X4.5662 Y4.5932
G01 X4.4584 Y4.7121
G01 X4.3395 Y4.8199
G01 X4.2107 Y4.9155
G01 X4.0730 Y4.9979
G01 X3.9280 Y5.0665
G01 X3.7769 Y5.1206
G01 X3.6213 Y5.1596
G01 X3.4626 Y5.1831
G01 X3.3023 Y5.1910
G01 X3.1420 Y5.1831
G01 X2.9833 Y5.1596
G01 X2.8277 Y5.1206
G01 X2.6766 Y5.0665
G01 X2.5316 Y4.9979
G01 X2.3939 Y4.9155
G01 X2.2651 Y4.8199
G01 X2.1462 Y4.7121
G01 X2.0384 Y4.5932
G01 X1.9428 Y4.4644
G01 X1.8604 Y4.3267
G01 X1.7918 Y4.1817
G01 X1.7377 Y4.0306
G01 X1.6987 Y3.8750
G01 X1.6752 Y3.7163
G01 X1.6673 Y3.5560
G01 X1.6752 Y3.3957
G01 X1.6987 Y3.2370
G01 X1.7377 Y3.0814
G01 X1.7918 Y2.9303
G01 X1.8604 Y2.7853
G01 X1.9428 Y2.6476
G01 X2.0384 Y2.5188
G01 X2.1462 Y2.3999
G01 X2.2651 Y2.2921
G01 X2.3939 Y2.1965
G01 X2.5316 Y2.1141
G01 X2.6766 Y2.0455
G01 X2.8277 Y1.9914
G01 X2.9833 Y1.9524
G01 X3.1420 Y1.9289
G01 X3.3023 Y1.9210
G01 X3.4626 Y1.9289
G01 X3.6213 Y1.9524
G01 X3.7769 Y1.9914
G01 X3.9280 Y2.0455
G01 X4.0730 Y2.1141
G01 X4.2107 Y2.1965
G01 X4.3395 Y2.2921
G01 X4.4584 Y2.3999
G01 X4.5662 Y2.5188
G01 X4.6618 Y2.6476
G01 X4.7442 Y2.7853
G01 X4.8128 Y2.9303
G01 X4.8669 Y3.0814
G01 X4.9059 Y3.2370
G01 X4.9286 Y3.3892
G00 Z2.0000
G00 X5.0127 Y3.3767
G01 F60.00
G01 Z0.0000
G01 F500.00
G01 X5.0140 Y3.3874
G01 X5.0148 Y3.3982
G01 X5.0223 Y3.5560
G01 X5.0220 Y3.5668
G01 X5.0140 Y3.7246
G01 X4.9911 Y3.8809
G01 X4.9893 Y3.8916
G01 X4.9869 Y3.9021
G01 X4.9482 Y4.0553
G01 X4.9449 Y4.0655
G01 X4.8914 Y4.2142
G01 X4.8241 Y4.3572
G01 X4.8192 Y4.3668
G01 X4.8139 Y4.3762
G01 X4.7324 Y4.5116
G01 X4.7262 Y4.5204
G01 X4.6319 Y4.6472
G01 X4.5260 Y4.7644
G01 X4.5185 Y4.7722
G01 X4.5107 Y4.7797
G01 X4.3935 Y4.8856
G01 X4.2667 Y4.9799
G01 X4.2579 Y4.9861
G01 X4.1225 Y5.0676
G01 X4.1131 Y5.0729
G01 X4.1035 Y5.0778
G01 X3.9605 Y5.1451
G01 X3.9504 Y5.1490
G01 X3.8016 Y5.2019
G01 X3.6484 Y5.2406
G01 X3.6379 Y5.2430
G01 X3.6272 Y5.2448
G01 X3.4709 Y5.2677
G01 X3.3131 Y5.2757
G01 X3.3023 Y5.2760
G01 X3.2915 Y5.2757
G01 X3.1337 Y5.2677
G01 X2.9774 Y5.2448
G01 X2.9667 Y5.2430
G01 X2.9562 Y5.2406
G01 X2.8030 Y5.2019
G01 X2.7928 Y5.1986
G01 X2.6441 Y5.1451
G01 X2.5011 Y5.0778
G01 X2.4915 Y5.0729
G01 X2.4821 Y5.0676
G01 X2.3467 Y4.9861
G01 X2.3379 Y4.9799
G01 X2.2111 Y4.8856
G01 X2.0939 Y4.7797
G01 X2.0861 Y4.7722
G01 X2.0786 Y4.7644
G01 X1.9727 Y4.6472
G01 X1.8784 Y4.5204
G01 X1.8722 Y4.5116
G01 X1.7907 Y4.3762
G01 X1.7854 Y4.3668
G01 X1.7805 Y4.3572
G01 X1.7132 Y4.2142
G01 X1.7093 Y4.2041
G01 X1.6564 Y4.0553
G01 X1.6177 Y3.9021
G01 X1.6153 Y3.8916
G01 X1.6135 Y3.8809
G01 X1.5906 Y3.7246
G01 X1.5826 Y3.5668
G01 X1.5823 Y3.5560
G01 X1.5826 Y3.5452
G01 X1.5906 Y3.3874
G01 X1.6135 Y3.2311
G01 X1.6153 Y3.2204
G01 X1.6177 Y3.2099
G01 X1.6564 Y3.0567
G01 X1.6597 Y3.0465
G01 X1.7132 Y2.8978
G01 X1.7805 Y2.7548
G01 X1.7854 Y2.7452
G01 X1.7907 Y2.7358
G01 X1.8722 Y2.6004
G01 X1.8784 Y2.5916
G01 X1.9727 Y2.4648
G01 X2.0786 Y2.3476
G01 X2.0861 Y2.3398
G01 X2.0939 Y2.3323
G01 X2.2111 Y2.2264
G01 X2.3379 Y2.1321
G01 X2.3467 Y2.1259
G01 X2.4821 Y2.0444
G01 X2.4915 Y2.0391
G01 X2.5011 Y2.0342
G01 X2.6441 Y1.9669
G01 X2.6542 Y1.9630
G01 X2.8030 Y1.9101
G01 X2.9562 Y1.8714
G01 X2.9667 Y1.8690
G01 X2.9774 Y1.8672
G01 X3.1337 Y1.8443
G01 X3.2915 Y1.8363
G01 X3.3023 Y1.8360
G01 X3.3131 Y1.8363
G01 X3.4709 Y1.8443
G01 X3.6272 Y1.8672
G01 X3.6379 Y1.8690
G01 X3.6484 Y1.8714
G01 X3.8016 Y1.9101
G01 X3.8118 Y1.9134
G01 X3.9605 Y1.9669
G01 X4.1035 Y2.0342
G01 X4.1131 Y2.0391
G01 X4.1225 Y2.0444
G01 X4.2579 Y2.1259
G01 X4.2667 Y2.1321
G01 X4.3935 Y2.2264
G01 X4.5107 Y2.3323
G01 X4.5185 Y2.3398
G01 X4.5260 Y2.3476
G01 X4.6319 Y2.4648
G01 X4.7262 Y2.5916
G01 X4.7324 Y2.6004
G01 X4.8139 Y2.7358
G01 X4.8192 Y2.7452
G01 X4.8241 Y2.7548
G01 X4.8914 Y2.8978
G01 X4.8953 Y2.9079
G01 X4.9482 Y3.0567
G01 X4.9869 Y3.2099
G01 X4.9893 Y3.2204
G01 X5.0127 Y3.3767
G00 Z2.0000
G00 X3.3023 Y5.3446
G01 F60.00
G01 Z0.0000
G01 F500.00
G01 X2.9533 Y5.3103
G01 X2.6178 Y5.2085
G01 X2.3086 Y5.0432
G01 X2.0375 Y4.8208
G01 X1.8151 Y4.5497
G01 X1.6498 Y4.2405
G01 X1.5480 Y3.9050
G01 X1.5137 Y3.5560
G01 X1.5480 Y3.2070
G01 X1.6498 Y2.8715
G01 X1.8151 Y2.5623
G01 X2.0375 Y2.2912
G01 X2.3086 Y2.0688
G01 X2.6178 Y1.9035
G01 X2.9533 Y1.8017
G01 X3.3023 Y1.7674
G01 X3.6513 Y1.8017
G01 X3.9868 Y1.9035
G01 X4.2960 Y2.0688
G01 X4.5671 Y2.2912
G01 X4.7895 Y2.5623
G01 X4.9548 Y2.8715
G01 X5.0566 Y3.2070
G01 X5.0909 Y3.5560
G01 X5.0566 Y3.9050
G01 X4.9548 Y4.2405
G01 X4.7895 Y4.5497
G01 X4.5671 Y4.8208
G01 X4.2960 Y5.0432
G01 X3.9868 Y5.2085
G01 X3.6513 Y5.3103
G01 X3.3023 Y5.3446
G00 Z2.0000
G00 X3.3023 Y5.4300
G01 F60.00
G01 Z0.0000
G01 F500.00
G01 X2.9367 Y5.3941
G01 X2.5851 Y5.2874
G01 X2.2612 Y5.1142
G01 X1.9771 Y4.8812
G01 X1.7441 Y4.5971
G01 X1.5709 Y4.2732
G01 X1.4642 Y3.9216
G01 X1.4283 Y3.5560
G01 X1.4642 Y3.1904
G01 X1.5709 Y2.8388
G01 X1.7441 Y2.5149
G01 X1.9771 Y2.2308
G01 X2.2612 Y1.9978
G01 X2.5851 Y1.8246
G01 X2.9367 Y1.7179
G01 X3.3023 Y1.6820
G01 X3.6679 Y1.7179
G01 X4.0195 Y1.8246
G01 X4.3434 Y1.9978
G01 X4.6275 Y2.2308
G01 X4.8605 Y2.5149
G01 X5.0337 Y2.8388
G01 X5.1404 Y3.1904
G01 X5.1763 Y3.5560
G01 X5.1404 Y3.9216
G01 X5.0337 Y4.2732
G01 X4.8605 Y4.5971
G01 X4.6275 Y4.8812
G01 X4.3434 Y5.1142
G01 X4.0195 Y5.2874
G01 X3.6679 Y5.3941
G01 X3.3023 Y5.4300
G00 Z2.0000
G00 X3.3023 Y5.5155
G01 F60.00
G01 Z0.0000
G01 F500.00
G01 X2.9200 Y5.4778
G01 X2.5524 Y5.3663
G01 X2.2137 Y5.1852
G01 X1.9167 Y4.9416
G01 X1.6731 Y4.6446
G01 X1.4920 Y4.3059
G01 X1.3805 Y3.9383
G01 X1.3428 Y3.5560
G01 X1.3805 Y3.1737
G01 X1.4920 Y2.8061
G01 X1.6731 Y2.4674
G01 X1.9167 Y2.1704
G01 X2.2137 Y1.9268
G01 X2.5524 Y1.7457
G01 X2.9200 Y1.6342
G01 X3.3023 Y1.5965
G01 X3.6846 Y1.6342
G01 X4.0522 Y1.7457
G01 X4.3909 Y1.9268
G01 X4.6879 Y2.1704
G01 X4.9315 Y2.4674
G01 X5.1126 Y2.8061
G01 X5.2241 Y3.1737
G01 X5.2618 Y3.5560
G01 X5.2241 Y3.9383
G01 X5.1126 Y4.3059
G01 X4.9315 Y4.6446
G01 X4.6879 Y4.9416
G01 X4.3909 Y5.1852
G01 X4.0522 Y5.3663
G01 X3.6846 Y5.4778
G01 X3.3023 Y5.5155
G00 Z2.0000
G00 X11.1286 Y11.3591
G01 F60.00
G01 Z0.0000
G01 F500.00
G01 X14.3610 Y8.1267
G01 X14.3688 Y8.1193
G01 X14.4134 Y8.0792
G01 X14.4613 Y8.0434
G01 X14.4702 Y8.0371
G01 X14.4793 Y8.0314
G01 X14.5308 Y8.0008
G01 X14.5404 Y7.9959
G01 X14.5947 Y7.9706
G01 X14.6510 Y7.9502
G01 X14.6612 Y7.9468
G01 X14.6716 Y7.9439
G01 X14.7298 Y7.9296
G01 X14.7890 Y7.9205
G01 X14.7997 Y7.9192
G01 X14.8649 Y7.9158
G01 X18.9287 Y7.9158
G01 X18.9939 Y7.9192
G01 X19.0532 Y7.9277
G01 X19.0638 Y7.9296
G01 X19.0743 Y7.9320
G01 X19.1324 Y7.9468
G01 X19.1426 Y7.9502
G01 X19.1989 Y7.9706
G01 X19.2532 Y7.9959
G01 X19.2676 Y8.0034
G01 X19.3143 Y8.0314
G01 X19.3234 Y8.0371
G01 X19.3323 Y8.0434
G01 X19.3802 Y8.0792
G01 X19.4248 Y8.1193
G01 X19.4326 Y8.1267
G01 X21.9764 Y10.6706
G01 X22.0201 Y10.7191
G01 X22.0559 Y10.7670
G01 X22.0622 Y10.7759
G01 X22.0679 Y10.7850
G01 X22.0985 Y10.8365
G01 X22.1243 Y10.8905
G01 X22.1307 Y10.9054
G01 X22.1491 Y10.9567
G01 X22.1540 Y10.9721
G01 X22.1673 Y11.0250
G01 X22.1697 Y11.0355
G01 X22.1716 Y11.0461
G01 X22.1801 Y11.1054
G01 X22.1809 Y11.1162
G01 X22.1835 Y11.1760
G01 X22.1835 Y16.2117
G01 X34.4186 Y28.4467
G01 X34.4260 Y28.4545
G01 X34.4661 Y28.4991
G01 X34.5019 Y28.5470
G01 X34.5082 Y28.5559
G01 X34.5139 Y28.5650
G01 X34.5445 Y28.6165
G01 X34.5703 Y28.6705
G01 X34.5747 Y28.6804
G01 X34.5786 Y28.6904
G01 X34.5985 Y28.7469
G01 X34.6133 Y28.8050
G01 X34.6157 Y28.8155
G01 X34.6176 Y28.8261
G01 X34.6261 Y28.8854
G01 X34.6295 Y28.9506
G01 X34.6295 Y33.4837
G01 X35.6916 Y34.5457
G01 X39.2425 Y34.5457
G01 X39.2132 Y34.5165
G01 X39.1163 Y34.5210
G01 X39.0173 Y34.5164
G01 X39.0065 Y34.5156
G01 X38.9958 Y34.5143
G01 X38.9084 Y34.5013
G01 X38.8978 Y34.4995
G01 X38.8873 Y34.4971
G01 X38.7912 Y34.4728
G01 X38.6927 Y34.4377
G01 X38.6778 Y34.4314
G01 X38.5883 Y34.3888
G01 X38.5032 Y34.3380
G01 X38.4941 Y34.3322
G01 X38.4852 Y34.3260
G01 X38.4058 Y34.2668
G01 X38.3322 Y34.2004
G01 X38.3243 Y34.1930
G01 X38.3169 Y34.1851
G01 X38.2505 Y34.1115
G01 X38.1913 Y34.0321
G01 X38.1851 Y34.0232
G01 X38.1339 Y33.9384
G01 X38.1285 Y33.9290
G01 X38.1237 Y33.9193
G01 X38.0816 Y33.8296
G01 X38.0479 Y33.7364
G01 X38.0445 Y33.7261
G01 X38.0202 Y33.6300
G01 X38.0178 Y33.6195
G01 X38.0030 Y33.5215
G01 X38.0017 Y33.5108
G01 X37.9966 Y33.4118
G01 X37.9963 Y33.4010
G01 X37.9966 Y33.3902
G01 X38.0009 Y33.3020
G01 X38.0017 Y33.2912
G01 X38.0030 Y33.2805
G01 X38.0178 Y33.1825
G01 X38.0416 Y33.0863
G01 X38.0445 Y33.0759
G01 X38.0479 Y33.0656
G01 X38.0816 Y32.9724
G01 X38.1237 Y32.8827
G01 X38.1285 Y32.8730
G01 X38.1339 Y32.8636
G01 X38.1851 Y32.7788
G01 X38.2439 Y32.6990
G01 X38.2505 Y32.6905
G01 X38.2576 Y32.6823
G01 X38.3243 Y32.6090
G01 X38.3976 Y32.5423
G01 X38.4058 Y32.5352
G01 X38.4143 Y32.5286
G01 X38.4941 Y32.4698
G01 X38.5789 Y32.4186
G01 X38.5883 Y32.4132
G01 X38.5980 Y32.4084
G01 X38.6877 Y32.3663
G01 X38.7809 Y32.3326
G01 X38.7912 Y32.3292
G01 X38.8016 Y32.3263
G01 X38.8873 Y32.3049
G01 X38.8978 Y32.3025
G01 X38.9084 Y32.3007
G01 X39.0065 Y32.2864
G01 X39.0173 Y32.2856
G01 X39.1163 Y32.2810
G01 X39.2153 Y32.2856
G01 X39.2261 Y32.2864
G01 X39.3242 Y32.3007
G01 X39.3348 Y32.3025
G01 X39.3453 Y32.3049
G01 X39.4414 Y32.3292
G01 X39.4517 Y32.3326
G01 X39.5449 Y32.3663
G01 X39.6346 Y32.4084
G01 X39.6443 Y32.4132
G01 X39.7294 Y32.4640
G01 X39.7385 Y32.4698
G01 X39.7474 Y32.4760
G01 X39.8183 Y32.5286
G01 X39.8268 Y32.5352
G01 X39.8350 Y32.5423
G01 X39.9083 Y32.6090
G01 X39.9786 Y32.6863
G01 X39.9887 Y32.6990
G01 X40.0475 Y32.7788
G01 X40.0987 Y32.8636
G01 X40.1041 Y32.8730
G01 X40.1089 Y32.8827
G01 X40.1510 Y32.9724
G01 X40.1847 Y33.0656
G01 X40.1881 Y33.0759
G01 X40.2124 Y33.1720
G01 X40.2148 Y33.1825
G01 X40.2296 Y33.2805
G01 X40.2309 Y33.2912
G01 X40.2317 Y33.3020
G01 X40.2363 Y33.4010
G01 X40.2318 Y33.4979
G01 X41.2796 Y34.5457
G01 X42.5900 Y34.5457
G01 X42.6553 Y34.4740
G01 X42.7286 Y34.4073
G01 X42.7368 Y34.4002
G01 X42.7453 Y34.3936
G01 X42.8251 Y34.3348
G01 X42.9099 Y34.2836
G01 X42.9193 Y34.2782
G01 X42.9290 Y34.2734
G01 X43.0187 Y34.2313
G01 X43.1119 Y34.1976
G01 X43.1222 Y34.1942
G01 X43.2183 Y34.1699
G01 X43.2288 Y34.1675
G01 X43.3268 Y34.1527
G01 X43.3429 Y34.1509
G01 X43.4473 Y34.1460
G01 X43.5463 Y34.1506
G01 X43.5571 Y34.1514
G01 X43.5678 Y34.1527
G01 X43.6658 Y34.1675
G01 X43.7620 Y34.1913
G01 X43.7724 Y34.1942
G01 X43.7827 Y34.1976
G01 X43.8658 Y34.2274
G01 X43.8759 Y34.2313
G01 X43.8858 Y34.2356
G01 X43.9753 Y34.2782
G01 X44.0604 Y34.3290
G01 X44.0740 Y34.3378
G01 X44.1578 Y34.4002
G01 X44.1660 Y34.4073
G01 X44.2393 Y34.4740
G01 X44.3060 Y34.5473
G01 X44.3131 Y34.5555
G01 X44.3723 Y34.6349
G01 X44.3785 Y34.6438
G01 X44.4297 Y34.7286
G01 X44.4351 Y34.7380
G01 X44.4399 Y34.7477
G01 X44.4820 Y34.8374
G01 X44.5157 Y34.9306
G01 X44.5191 Y34.9409
G01 X44.5434 Y35.0370
G01 X44.5458 Y35.0475
G01 X44.5606 Y35.1455
G01 X44.5619 Y35.1562
G01 X44.5627 Y35.1670
G01 X44.5673 Y35.2660
G01 X44.5627 Y35.3650
G01 X44.5619 Y35.3758
G01 X44.5606 Y35.3865
G01 X44.5458 Y35.4845
G01 X44.5220 Y35.5807
G01 X44.5191 Y35.5911
G01 X44.5157 Y35.6014
G01 X44.4820 Y35.6946
G01 X44.4399 Y35.7843
G01 X44.4351 Y35.7940
G01 X44.3843 Y35.8791
G01 X44.3785 Y35.8882
G01 X44.3723 Y35.8971
G01 X44.3197 Y35.9680
G01 X44.3131 Y35.9765
G01 X44.3060 Y35.9847
G01 X44.2393 Y36.0580
G01 X44.1660 Y36.1247
G01 X44.1578 Y36.1318
G01 X44.1493 Y36.1384
G01 X44.0695 Y36.1972
G01 X43.9847 Y36.2484
G01 X43.9753 Y36.2538
G01 X43.9656 Y36.2586
G01 X43.8759 Y36.3007
G01 X43.7827 Y36.3344
G01 X43.7724 Y36.3378
G01 X43.7620 Y36.3407
G01 X43.6658 Y36.3645
G01 X43.5678 Y36.3793
G01 X43.5571 Y36.3806
G01 X43.5463 Y36.3814
G01 X43.4473 Y36.3860
G01 X43.3483 Y36.3814
G01 X43.3375 Y36.3806
G01 X43.3268 Y36.3793
G01 X43.2288 Y36.3645
G01 X43.1326 Y36.3407
G01 X43.1222 Y36.3378
G01 X43.0288 Y36.3046
G01 X43.0187 Y36.3007
G01 X43.0088 Y36.2964
G01 X42.9193 Y36.2538
G01 X42.8342 Y36.2030
G01 X42.8251 Y36.1972
G01 X42.8162 Y36.1910
G01 X42.7453 Y36.1384
G01 X42.7368 Y36.1318
G01 X42.7286 Y36.1247
G01 X42.6553 Y36.0580
G01 X42.5900 Y35.9863
G01 X35.3933 Y35.9863
G01 X35.3335 Y35.9836
G01 X35.3227 Y35.9828
G01 X35.3120 Y35.9815
G01 X35.2528 Y35.9724
G01 X35.1946 Y35.9581
G01 X35.1842 Y35.9552
G01 X35.1740 Y35.9518
G01 X35.1277 Y35.9353
G01 X35.1127 Y35.9293
G01 X35.0538 Y35.9012
G01 X35.0023 Y35.8706
G01 X34.9932 Y35.8649
G01 X34.9843 Y35.8586
G01 X34.9406 Y35.8261
G01 X34.9282 Y35.8157
G01 X34.8840 Y35.7753
G01 X33.3962 Y34.2874
G01 X33.3525 Y34.2389
G01 X33.3167 Y34.1910
G01 X33.3104 Y34.1821
G01 X33.3047 Y34.1730
G01 X33.2741 Y34.1215
G01 X33.2692 Y34.1119
G01 X33.2439 Y34.0576
G01 X33.2235 Y34.0013
G01 X33.2201 Y33.9911
G01 X33.2172 Y33.9807
G01 X33.2029 Y33.9225
G01 X33.1938 Y33.8633
G01 X33.1925 Y33.8526
G01 X33.1893 Y33.7928
G01 X33.1890 Y33.7820
G01 X33.1890 Y29.2543
G01 X20.9540 Y17.0193
G01 X20.9466 Y17.0115
G01 X20.9065 Y16.9669
G01 X20.8707 Y16.9190
G01 X20.8644 Y16.9101
G01 X20.8587 Y16.9010
G01 X20.8307 Y16.8543
G01 X20.8232 Y16.8399
G01 X20.7979 Y16.7856
G01 X20.7775 Y16.7293
G01 X20.7741 Y16.7191
G01 X20.7593 Y16.6610
G01 X20.7569 Y16.6505
G01 X20.7550 Y16.6399
G01 X20.7465 Y16.5806
G01 X20.7431 Y16.5154
G01 X20.7430 Y11.4743
G01 X18.6250 Y9.3563
G01 X15.1686 Y9.3563
G01 X12.2733 Y12.2516
G01 X12.2766 Y12.2691
G01 X12.2909 Y12.3672
G01 X12.2962 Y12.4716
G01 X12.2963 Y13.1770
G01 X12.2914 Y13.2814
G01 X12.2896 Y13.2975
G01 X12.2748 Y13.3955
G01 X12.2510 Y13.4917
G01 X12.2481 Y13.5021
G01 X12.2447 Y13.5124
G01 X12.2110 Y13.6056
G01 X12.1689 Y13.6953
G01 X12.1641 Y13.7050
G01 X12.1133 Y13.7901
G01 X12.1075 Y13.7992
G01 X12.1013 Y13.8081
G01 X12.0421 Y13.8875
G01 X11.9757 Y13.9611
G01 X11.9683 Y13.9690
G01 X11.9604 Y13.9764
G01 X11.8868 Y14.0428
G01 X11.8074 Y14.1020
G01 X11.7985 Y14.1082
G01 X11.7894 Y14.1140
G01 X11.7043 Y14.1648
G01 X11.6148 Y14.2074
G01 X11.6049 Y14.2117
G01 X11.5948 Y14.2156
G01 X11.5014 Y14.2488
G01 X11.4053 Y14.2731
G01 X11.3948 Y14.2755
G01 X11.3842 Y14.2773
G01 X11.2861 Y14.2916
G01 X11.1817 Y14.2969
G01 X11.1655 Y14.2967
G01 X11.0665 Y14.2916
G01 X11.0558 Y14.2903
G01 X10.9578 Y14.2755
G01 X10.8616 Y14.2517
G01 X10.8512 Y14.2488
G01 X10.8409 Y14.2454
G01 X10.7477 Y14.2117
G01 X10.6580 Y14.1696
G01 X10.6483 Y14.1648
G01 X10.6389 Y14.1594
G01 X10.5541 Y14.1082
G01 X10.4743 Y14.0494
G01 X10.4658 Y14.0428
G01 X10.4576 Y14.0357
G01 X10.3843 Y13.9690
G01 X10.3176 Y13.8957
G01 X10.3105 Y13.8875
G01 X10.2513 Y13.8081
G01 X10.2451 Y13.7992
G01 X10.1939 Y13.7144
G01 X10.1885 Y13.7050
G01 X10.1837 Y13.6953
G01 X10.1416 Y13.6056
G01 X10.1079 Y13.5124
G01 X10.1045 Y13.5021
G01 X10.1016 Y13.4917
G01 X10.0778 Y13.3955
G01 X10.0630 Y13.2975
G01 X10.0617 Y13.2868
G01 X10.0564 Y13.1824
G01 X10.0563 Y12.4770
G01 X10.0609 Y12.3780
G01 X10.0617 Y12.3672
G01 X10.0630 Y12.3565
G01 X10.0778 Y12.2585
G01 X10.1016 Y12.1623
G01 X10.1045 Y12.1519
G01 X10.1079 Y12.1416
G01 X10.1416 Y12.0484
G01 X10.1837 Y11.9587
G01 X10.1885 Y11.9490
G01 X10.1939 Y11.9396
G01 X10.2451 Y11.8548
G01 X10.3039 Y11.7750
G01 X10.3105 Y11.7665
G01 X10.3176 Y11.7583
G01 X10.3769 Y11.6929
G01 X10.3843 Y11.6850
G01 X10.3922 Y11.6776
G01 X10.4658 Y11.6112
G01 X10.5452 Y11.5520
G01 X10.5586 Y11.5428
G01 X10.6389 Y11.4946
G01 X10.6483 Y11.4892
G01 X10.6580 Y11.4844
G01 X10.7477 Y11.4423
G01 X10.8460 Y11.4069
G01 X10.8616 Y11.4023
G01 X10.9473 Y11.3809
G01 X10.9631 Y11.3775
G01 X11.0612 Y11.3630
G01 X11.0773 Y11.3616
G01 X11.1286 Y11.3591
G00 Z2.0000
G00 X11.1656 Y11.4424
G01 F60.00
G01 Z0.0000
G01 F500.00
G01 X14.4211 Y8.1868
G01 X14.4673 Y8.1449
G01 X14.5174 Y8.1078
G01 X14.5708 Y8.0758
G01 X14.6272 Y8.0491
G01 X14.6859 Y8.0281
G01 X14.7464 Y8.0130
G01 X14.8080 Y8.0038
G01 X14.8703 Y8.0007
G01 X18.9266 Y8.0008
G01 X18.9856 Y8.0038
G01 X19.0407 Y8.0118
G01 X19.0537 Y8.0144
G01 X19.1077 Y8.0281
G01 X19.1664 Y8.0491
G01 X19.2168 Y8.0728
G01 X19.2285 Y8.0790
G01 X19.2706 Y8.1043
G01 X19.2816 Y8.1116
G01 X19.3263 Y8.1449
G01 X19.3725 Y8.1868
G01 X21.9148 Y10.7292
G01 X21.9544 Y10.7730
G01 X21.9877 Y10.8177
G01 X21.9950 Y10.8287
G01 X22.0235 Y10.8765
G01 X22.0475 Y10.9268
G01 X22.0526 Y10.9391
G01 X22.0691 Y10.9853
G01 X22.0730 Y10.9980
G01 X22.0849 Y11.0456
G01 X22.0875 Y11.0586
G01 X22.0955 Y11.1137
G01 X22.0985 Y11.1760
G01 X22.0985 Y16.2469
G01 X34.3585 Y28.5068
G01 X34.4004 Y28.5530
G01 X34.4337 Y28.5977
G01 X34.4410 Y28.6087
G01 X34.4695 Y28.6565
G01 X34.4935 Y28.7068
G01 X34.4986 Y28.7191
G01 X34.5172 Y28.7716
G01 X34.5309 Y28.8256
G01 X34.5335 Y28.8386
G01 X34.5415 Y28.8937
G01 X34.5445 Y28.9527
G01 X34.5445 Y33.5189
G01 X35.6564 Y34.6307
G01 X39.4477 Y34.6307
G01 X39.2442 Y34.4273
G01 X39.2144 Y34.4313
G01 X39.1196 Y34.4360
G01 X39.1097 Y34.4358
G01 X39.0182 Y34.4313
G01 X39.0083 Y34.4302
G01 X38.9144 Y34.4161
G01 X38.8190 Y34.3924
G01 X38.8096 Y34.3894
G01 X38.7202 Y34.3572
G01 X38.6284 Y34.3138
G01 X38.5413 Y34.2616
G01 X38.4597 Y34.2011
G01 X38.3844 Y34.1329
G01 X38.3162 Y34.0576
G01 X38.2557 Y33.9760
G01 X38.2035 Y33.8889
G01 X38.1601 Y33.7971
G01 X38.1259 Y33.7014
G01 X38.1012 Y33.6029
G01 X38.0871 Y33.5090
G01 X38.0858 Y33.4958
G01 X38.0813 Y33.4010
G01 X38.0858 Y33.3062
G01 X38.0871 Y33.2930
G01 X38.1001 Y33.2056
G01 X38.1026 Y33.1926
G01 X38.1259 Y33.1006
G01 X38.1601 Y33.0049
G01 X38.2035 Y32.9131
G01 X38.2522 Y32.8316
G01 X38.2595 Y32.8206
G01 X38.3122 Y32.7496
G01 X38.3206 Y32.7394
G01 X38.3844 Y32.6691
G01 X38.4547 Y32.6053
G01 X38.4649 Y32.5969
G01 X38.5413 Y32.5404
G01 X38.6226 Y32.4915
G01 X38.6343 Y32.4852
G01 X38.7202 Y32.4448
G01 X38.8096 Y32.4126
G01 X38.8222 Y32.4088
G01 X38.9079 Y32.3873
G01 X38.9209 Y32.3848
G01 X39.0149 Y32.3710
G01 X39.1163 Y32.3660
G01 X39.2177 Y32.3710
G01 X39.3117 Y32.3848
G01 X39.3247 Y32.3873
G01 X39.4167 Y32.4106
G01 X39.5124 Y32.4448
G01 X39.6042 Y32.4882
G01 X39.6857 Y32.5369
G01 X39.6967 Y32.5442
G01 X39.7677 Y32.5969
G01 X39.7779 Y32.6053
G01 X39.8482 Y32.6691
G01 X39.9142 Y32.7419
G01 X39.9204 Y32.7496
G01 X39.9769 Y32.8260
G01 X40.0291 Y32.9131
G01 X40.0725 Y33.0049
G01 X40.1067 Y33.1006
G01 X40.1314 Y33.1991
G01 X40.1455 Y33.2930
G01 X40.1466 Y33.3029
G01 X40.1511 Y33.3944
G01 X40.1513 Y33.4043
G01 X40.1466 Y33.4991
G01 X40.1426 Y33.5289
G01 X41.2444 Y34.6307
G01 X42.6312 Y34.6307
G01 X42.6494 Y34.6069
G01 X42.7131 Y34.5365
G01 X42.7202 Y34.5296
G01 X42.7882 Y34.4681
G01 X42.7959 Y34.4619
G01 X42.8723 Y34.4054
G01 X42.9594 Y34.3532
G01 X43.0512 Y34.3098
G01 X43.1469 Y34.2756
G01 X43.2454 Y34.2509
G01 X43.3393 Y34.2368
G01 X43.3492 Y34.2357
G01 X43.4473 Y34.2310
G01 X43.5487 Y34.2360
G01 X43.6492 Y34.2509
G01 X43.7414 Y34.2738
G01 X43.7540 Y34.2776
G01 X43.8372 Y34.3074
G01 X43.8494 Y34.3125
G01 X43.9352 Y34.3532
G01 X44.0167 Y34.4019
G01 X44.0250 Y34.4073
G01 X44.1039 Y34.4659
G01 X44.1792 Y34.5341
G01 X44.2474 Y34.6094
G01 X44.3079 Y34.6910
G01 X44.3601 Y34.7781
G01 X44.4035 Y34.8699
G01 X44.4377 Y34.9656
G01 X44.4624 Y35.0641
G01 X44.4773 Y35.1646
G01 X44.4823 Y35.2660
G01 X44.4773 Y35.3674
G01 X44.4624 Y35.4679
G01 X44.4377 Y35.5664
G01 X44.4035 Y35.6621
G01 X44.3601 Y35.7539
G01 X44.3114 Y35.8354
G01 X44.3041 Y35.8464
G01 X44.2514 Y35.9174
G01 X44.2430 Y35.9276
G01 X44.1792 Y35.9979
G01 X44.1089 Y36.0617
G01 X44.0987 Y36.0701
G01 X44.0223 Y36.1266
G01 X43.9352 Y36.1788
G01 X43.8434 Y36.2222
G01 X43.7540 Y36.2544
G01 X43.7414 Y36.2582
G01 X43.6492 Y36.2811
G01 X43.5553 Y36.2952
G01 X43.5421 Y36.2965
G01 X43.4473 Y36.3010
G01 X43.3459 Y36.2960
G01 X43.2519 Y36.2822
G01 X43.2389 Y36.2797
G01 X43.1469 Y36.2564
G01 X43.0574 Y36.2246
G01 X43.0452 Y36.2195
G01 X42.9623 Y36.1803
G01 X42.9536 Y36.1755
G01 X42.8723 Y36.1266
G01 X42.7959 Y36.0701
G01 X42.7882 Y36.0639
G01 X42.7202 Y36.0024
G01 X42.7131 Y35.9955
G01 X42.6494 Y35.9251
G01 X42.6312 Y35.9013
G01 X35.3933 Y35.9013
G01 X35.3310 Y35.8982
G01 X35.2759 Y35.8902
G01 X35.2629 Y35.8876
G01 X35.2153 Y35.8757
G01 X35.2026 Y35.8718
G01 X35.1502 Y35.8529
G01 X35.0938 Y35.8262
G01 X35.0460 Y35.7977
G01 X35.0350 Y35.7904
G01 X34.9903 Y35.7571
G01 X34.9489 Y35.7198
G01 X33.4578 Y34.2288
G01 X33.4182 Y34.1850
G01 X33.3811 Y34.1349
G01 X33.3491 Y34.0815
G01 X33.3224 Y34.0251
G01 X33.3014 Y33.9664
G01 X33.2863 Y33.9059
G01 X33.2771 Y33.8443
G01 X33.2741 Y33.7853
G01 X33.2740 Y29.2191
G01 X21.0141 Y16.9592
G01 X20.9722 Y16.9130
G01 X20.9389 Y16.8683
G01 X20.9316 Y16.8573
G01 X20.9063 Y16.8152
G01 X20.9001 Y16.8035
G01 X20.8764 Y16.7531
G01 X20.8554 Y16.6944
G01 X20.8417 Y16.6404
G01 X20.8391 Y16.6274
G01 X20.8311 Y16.5723
G01 X20.8281 Y16.5133
G01 X20.8280 Y11.4391
G01 X18.6602 Y9.2713
G01 X15.1334 Y9.2713
G01 X12.1792 Y12.2255
G01 X12.1900 Y12.2686
G01 X12.1920 Y12.2783
G01 X12.2060 Y12.3723
G01 X12.2068 Y12.3822
G01 X12.2113 Y12.4737
G01 X12.2113 Y13.1770
G01 X12.2066 Y13.2751
G01 X12.2055 Y13.2850
G01 X12.1914 Y13.3789
G01 X12.1667 Y13.4774
G01 X12.1325 Y13.5731
G01 X12.0906 Y13.6620
G01 X12.0858 Y13.6707
G01 X12.0404 Y13.7464
G01 X12.0331 Y13.7574
G01 X11.9764 Y13.8336
G01 X11.9127 Y13.9041
G01 X11.9034 Y13.9134
G01 X11.8329 Y13.9771
G01 X11.7567 Y14.0338
G01 X11.7457 Y14.0411
G01 X11.6642 Y14.0898
G01 X11.5784 Y14.1305
G01 X11.5662 Y14.1356
G01 X11.4767 Y14.1674
G01 X11.3782 Y14.1921
G01 X11.2843 Y14.2062
G01 X11.2711 Y14.2075
G01 X11.1763 Y14.2120
G01 X11.0749 Y14.2070
G01 X10.9744 Y14.1921
G01 X10.8759 Y14.1674
G01 X10.7802 Y14.1332
G01 X10.6884 Y14.0898
G01 X10.6013 Y14.0376
G01 X10.5197 Y13.9771
G01 X10.4444 Y13.9089
G01 X10.3762 Y13.8336
G01 X10.3157 Y13.7520
G01 X10.2635 Y13.6649
G01 X10.2201 Y13.5731
G01 X10.1859 Y13.4774
G01 X10.1612 Y13.3789
G01 X10.1463 Y13.2784
G01 X10.1413 Y13.1770
G01 X10.1413 Y12.4770
G01 X10.1463 Y12.3756
G01 X10.1612 Y12.2751
G01 X10.1859 Y12.1766
G01 X10.2201 Y12.0809
G01 X10.2605 Y11.9950
G01 X10.2668 Y11.9833
G01 X10.3157 Y11.9020
G01 X10.3722 Y11.8256
G01 X10.3806 Y11.8154
G01 X10.4399 Y11.7499
G01 X10.4492 Y11.7406
G01 X10.5197 Y11.6769
G01 X10.5959 Y11.6202
G01 X10.6069 Y11.6129
G01 X10.6884 Y11.5642
G01 X10.7742 Y11.5235
G01 X10.7864 Y11.5184
G01 X10.8759 Y11.4866
G01 X10.9679 Y11.4633
G01 X10.9809 Y11.4608
G01 X11.0749 Y11.4470
G01 X11.1656 Y11.4424
G00 Z2.0000
G00 X12.0849 Y12.1996
G01 F60.00
G01 Z0.0000
G01 F500.00
G01 X12.1085 Y12.2941
G01 X12.1217 Y12.3839
G01 X12.1263 Y12.4758
G01 X12.1263 Y13.1770
G01 X12.1214 Y13.2726
G01 X12.1080 Y13.3623
G01 X12.0854 Y13.4528
G01 X12.0540 Y13.5405
G01 X12.0152 Y13.6226
G01 X11.9648 Y13.7068
G01 X11.9107 Y13.7797
G01 X11.8489 Y13.8479
G01 X11.7790 Y13.9114
G01 X11.7041 Y13.9669
G01 X11.6241 Y14.0148
G01 X11.5398 Y14.0547
G01 X11.4521 Y14.0861
G01 X11.3616 Y14.1087
G01 X11.2694 Y14.1224
G01 X11.1763 Y14.1270
G01 X11.0832 Y14.1224
G01 X10.9910 Y14.1087
G01 X10.9005 Y14.0861
G01 X10.8128 Y14.0547
G01 X10.7285 Y14.0148
G01 X10.6485 Y13.9669
G01 X10.5736 Y13.9114
G01 X10.5054 Y13.8496
G01 X10.4419 Y13.7797
G01 X10.3878 Y13.7068
G01 X10.3374 Y13.6226
G01 X10.2986 Y13.5405
G01 X10.2672 Y13.4528
G01 X10.2446 Y13.3623
G01 X10.2308 Y13.2689
G01 X10.2263 Y13.1770
G01 X10.2263 Y12.4770
G01 X10.2310 Y12.3827
G01 X10.2451 Y12.2893
G01 X10.2672 Y12.2012
G01 X10.2977 Y12.1157
G01 X10.3385 Y12.0292
G01 X10.3871 Y11.9482
G01 X10.4435 Y11.8725
G01 X10.5045 Y11.8052
G01 X10.5718 Y11.7442
G01 X10.6485 Y11.6871
G01 X10.7296 Y11.6386
G01 X10.8128 Y11.5993
G01 X10.8982 Y11.5687
G01 X10.9898 Y11.5455
G01 X11.0844 Y11.5315
G01 X11.1751 Y11.5270
G01 X11.2000 Y11.5281
G01 X14.4812 Y8.2469
G01 X14.5232 Y8.2091
G01 X14.5646 Y8.1785
G01 X14.6098 Y8.1513
G01 X14.6597 Y8.1276
G01 X14.7129 Y8.1088
G01 X14.7630 Y8.0963
G01 X14.8139 Y8.0887
G01 X14.8691 Y8.0858
G01 X18.9233 Y8.0857
G01 X18.9797 Y8.0887
G01 X19.0306 Y8.0963
G01 X19.0830 Y8.1094
G01 X19.1339 Y8.1276
G01 X19.1805 Y8.1496
G01 X19.2310 Y8.1799
G01 X19.2724 Y8.2107
G01 X19.3124 Y8.2469
G01 X21.8532 Y10.7878
G01 X21.8886 Y10.8269
G01 X21.9221 Y10.8724
G01 X21.9486 Y10.9166
G01 X21.9707 Y10.9632
G01 X21.9895 Y11.0151
G01 X22.0034 Y11.0711
G01 X22.0109 Y11.1221
G01 X22.0135 Y11.1760
G01 X22.0135 Y16.2821
G01 X34.2984 Y28.5669
G01 X34.3346 Y28.6069
G01 X34.3681 Y28.6524
G01 X34.3946 Y28.6966
G01 X34.4167 Y28.7432
G01 X34.4359 Y28.7963
G01 X34.4494 Y28.8511
G01 X34.4569 Y28.9021
G01 X34.4595 Y28.9548
G01 X34.4595 Y33.5541
G01 X35.6212 Y34.7157
G01 X39.6529 Y34.7157
G01 X39.2740 Y34.3369
G01 X39.2094 Y34.3464
G01 X39.1188 Y34.3509
G01 X39.0256 Y34.3466
G01 X38.9310 Y34.3327
G01 X38.8417 Y34.3104
G01 X38.7528 Y34.2787
G01 X38.6685 Y34.2388
G01 X38.5885 Y34.1909
G01 X38.5146 Y34.1361
G01 X38.4445 Y34.0728
G01 X38.3819 Y34.0037
G01 X38.3264 Y33.9288
G01 X38.2797 Y33.8510
G01 X38.2386 Y33.7645
G01 X38.2080 Y33.6791
G01 X38.1841 Y33.5839
G01 X38.1707 Y33.4917
G01 X38.1663 Y33.4010
G01 X38.1707 Y33.3103
G01 X38.1846 Y33.2157
G01 X38.2072 Y33.1252
G01 X38.2386 Y33.0375
G01 X38.2797 Y32.9510
G01 X38.3264 Y32.8732
G01 X38.3804 Y32.8003
G01 X38.4445 Y32.7292
G01 X38.5156 Y32.6651
G01 X38.5885 Y32.6111
G01 X38.6663 Y32.5644
G01 X38.7528 Y32.5233
G01 X38.8405 Y32.4919
G01 X38.9334 Y32.4688
G01 X39.0232 Y32.4556
G01 X39.1138 Y32.4511
G01 X39.2094 Y32.4556
G01 X39.3028 Y32.4695
G01 X39.3921 Y32.4919
G01 X39.4798 Y32.5233
G01 X39.5641 Y32.5632
G01 X39.6420 Y32.6098
G01 X39.7208 Y32.6682
G01 X39.7881 Y32.7292
G01 X39.8499 Y32.7974
G01 X39.9062 Y32.8732
G01 X39.9541 Y32.9532
G01 X39.9940 Y33.0375
G01 X40.0257 Y33.1264
G01 X40.0480 Y33.2157
G01 X40.0619 Y33.3103
G01 X40.0662 Y33.4035
G01 X40.0617 Y33.4941
G01 X40.0522 Y33.5587
G01 X41.2092 Y34.7157
G01 X42.6740 Y34.7157
G01 X42.7129 Y34.6633
G01 X42.7739 Y34.5960
G01 X42.8428 Y34.5332
G01 X42.9195 Y34.4761
G01 X42.9984 Y34.4288
G01 X43.0838 Y34.3883
G01 X43.1715 Y34.3569
G01 X43.2620 Y34.3343
G01 X43.3542 Y34.3206
G01 X43.4473 Y34.3160
G01 X43.5404 Y34.3206
G01 X43.6326 Y34.3343
G01 X43.7207 Y34.3563
G01 X43.8131 Y34.3893
G01 X43.8951 Y34.4282
G01 X43.9751 Y34.4761
G01 X44.0500 Y34.5316
G01 X44.1191 Y34.5942
G01 X44.1817 Y34.6633
G01 X44.2372 Y34.7382
G01 X44.2851 Y34.8182
G01 X44.3250 Y34.9025
G01 X44.3564 Y34.9902
G01 X44.3790 Y35.0807
G01 X44.3927 Y35.1729
G01 X44.3973 Y35.2660
G01 X44.3927 Y35.3591
G01 X44.3790 Y35.4513
G01 X44.3564 Y35.5418
G01 X44.3250 Y35.6295
G01 X44.2851 Y35.7138
G01 X44.2358 Y35.7958
G01 X44.1801 Y35.8705
G01 X44.1191 Y35.9378
G01 X44.0518 Y35.9988
G01 X43.9751 Y36.0559
G01 X43.8951 Y36.1038
G01 X43.8108 Y36.1437
G01 X43.7207 Y36.1757
G01 X43.6326 Y36.1977
G01 X43.5429 Y36.2111
G01 X43.4473 Y36.2160
G01 X43.3542 Y36.2114
G01 X43.2596 Y36.1972
G01 X43.1715 Y36.1751
G01 X43.0860 Y36.1446
G01 X43.0006 Y36.1044
G01 X42.9195 Y36.0559
G01 X42.8437 Y35.9996
G01 X42.7739 Y35.9360
G01 X42.7129 Y35.8687
G01 X42.6740 Y35.8163
G01 X35.3933 Y35.8163
G01 X35.3394 Y35.8136
G01 X35.2884 Y35.8061
G01 X35.2312 Y35.7918
G01 X35.1827 Y35.7744
G01 X35.1339 Y35.7513
G01 X35.0856 Y35.7221
G01 X35.0442 Y35.6913
G01 X35.0060 Y35.6568
G01 X33.5194 Y34.1702
G01 X33.4840 Y34.1311
G01 X33.4518 Y34.0877
G01 X33.4240 Y34.0414
G01 X33.4009 Y33.9926
G01 X33.3827 Y33.9417
G01 X33.3696 Y33.8893
G01 X33.3617 Y33.8359
G01 X33.3591 Y33.7832
G01 X33.3590 Y29.1839
G01 X21.0742 Y16.8991
G01 X21.0380 Y16.8591
G01 X21.0072 Y16.8177
G01 X20.9769 Y16.7672
G01 X20.9549 Y16.7206
G01 X20.9367 Y16.6697
G01 X20.9232 Y16.6149
G01 X20.9157 Y16.5639
G01 X20.9131 Y16.5112
G01 X20.9130 Y11.4039
G01 X18.6954 Y9.1863
G01 X15.0982 Y9.1863
G01 X12.0849 Y12.1996
G00 Z2.0000
G00 X13.7056 Y11.4424
G01 F60.00
G01 Z0.0000
G01 F500.00
G01 X15.0201 Y10.1278
G01 X15.0638 Y10.0881
G01 X15.0715 Y10.0819
G01 X15.1164 Y10.0488
G01 X15.1641 Y10.0200
G01 X15.1758 Y10.0138
G01 X15.2201 Y9.9928
G01 X15.2324 Y9.9877
G01 X15.2849 Y9.9691
G01 X15.3454 Y9.9540
G01 X15.4070 Y9.9448
G01 X15.4627 Y9.9419
G01 X18.4513 Y9.9417
G01 X18.5070 Y9.9443
G01 X18.5201 Y9.9456
G01 X18.5752 Y9.9540
G01 X18.6325 Y9.9682
G01 X18.6420 Y9.9712
G01 X18.6944 Y9.9901
G01 X18.7448 Y10.0138
G01 X18.7565 Y10.0200
G01 X18.7986 Y10.0453
G01 X18.8096 Y10.0526
G01 X18.8543 Y10.0859
G01 X18.8957 Y10.1232
G01 X19.8805 Y11.1078
G01 X19.9180 Y11.1490
G01 X19.9244 Y11.1566
G01 X19.9595 Y11.2041
G01 X19.9915 Y11.2575
G01 X20.0182 Y11.3139
G01 X20.0371 Y11.3663
G01 X20.0410 Y11.3790
G01 X20.0529 Y11.4266
G01 X20.0555 Y11.4396
G01 X20.0635 Y11.4947
G01 X20.0665 Y11.5537
G01 X20.0665 Y17.2629
G01 X32.1995 Y29.3958
G01 X32.2414 Y29.4420
G01 X32.2766 Y29.4893
G01 X32.2820 Y29.4977
G01 X32.3073 Y29.5398
G01 X32.3135 Y29.5515
G01 X32.3372 Y29.6019
G01 X32.3582 Y29.6606
G01 X32.3719 Y29.7146
G01 X32.3745 Y29.7276
G01 X32.3825 Y29.7827
G01 X32.3855 Y29.8417
G01 X32.3855 Y35.5509
G01 X34.1724 Y37.3377
G01 X42.5250 Y37.3377
G01 X42.5361 Y37.3152
G01 X42.5832 Y37.2366
G01 X42.5886 Y37.2283
G01 X42.6472 Y37.1494
G01 X42.7154 Y37.0741
G01 X42.7857 Y37.0103
G01 X42.7959 Y37.0019
G01 X42.8723 Y36.9454
G01 X42.9594 Y36.8932
G01 X43.0512 Y36.8498
G01 X43.1406 Y36.8176
G01 X43.1532 Y36.8138
G01 X43.2454 Y36.7909
G01 X43.3459 Y36.7760
G01 X43.4407 Y36.7712
G01 X43.4539 Y36.7712
G01 X43.5421 Y36.7755
G01 X43.5520 Y36.7763
G01 X43.6492 Y36.7909
G01 X43.7414 Y36.8138
G01 X43.7540 Y36.8176
G01 X43.8434 Y36.8498
G01 X43.9293 Y36.8902
G01 X43.9410 Y36.8965
G01 X44.0223 Y36.9454
G01 X44.0987 Y37.0019
G01 X44.1089 Y37.0103
G01 X44.1792 Y37.0741
G01 X44.2430 Y37.1444
G01 X44.2514 Y37.1546
G01 X44.3079 Y37.2310
G01 X44.3568 Y37.3123
G01 X44.3631 Y37.3240
G01 X44.4035 Y37.4099
G01 X44.4377 Y37.5056
G01 X44.4610 Y37.5976
G01 X44.4635 Y37.6106
G01 X44.4773 Y37.7046
G01 X44.4821 Y37.7994
G01 X44.4821 Y37.8126
G01 X44.4773 Y37.9074
G01 X44.4635 Y38.0014
G01 X44.4610 Y38.0144
G01 X44.4395 Y38.1001
G01 X44.4357 Y38.1127
G01 X44.4035 Y38.2021
G01 X44.3631 Y38.2880
G01 X44.3568 Y38.2997
G01 X44.3079 Y38.3810
G01 X44.2514 Y38.4574
G01 X44.2430 Y38.4676
G01 X44.1792 Y38.5379
G01 X44.1039 Y38.6061
G01 X44.0223 Y38.6666
G01 X43.9352 Y38.7188
G01 X43.8434 Y38.7622
G01 X43.7477 Y38.7964
G01 X43.6492 Y38.8211
G01 X43.5553 Y38.8352
G01 X43.5421 Y38.8365
G01 X43.4473 Y38.8410
G01 X43.3459 Y38.8360
G01 X43.2454 Y38.8211
G01 X43.1469 Y38.7964
G01 X43.0512 Y38.7622
G01 X42.9594 Y38.7188
G01 X42.8723 Y38.6666
G01 X42.7959 Y38.6101
G01 X42.7879 Y38.6037
G01 X42.7736 Y38.6055
G01 X42.7146 Y38.6083
G01 X41.4114 Y38.6083
G01 X40.1426 Y39.8771
G01 X40.1466 Y39.9069
G01 X40.1513 Y40.0017
G01 X40.1511 Y40.0116
G01 X40.1466 Y40.1031
G01 X40.1455 Y40.1130
G01 X40.1314 Y40.2069
G01 X40.1085 Y40.2991
G01 X40.1057 Y40.3086
G01 X40.0725 Y40.4011
G01 X40.0321 Y40.4870
G01 X40.0258 Y40.4987
G01 X39.9769 Y40.5800
G01 X39.9204 Y40.6564
G01 X39.9120 Y40.6666
G01 X39.8505 Y40.7345
G01 X39.8434 Y40.7414
G01 X39.7729 Y40.8051
G01 X39.6913 Y40.8656
G01 X39.6042 Y40.9178
G01 X39.5124 Y40.9612
G01 X39.4167 Y40.9954
G01 X39.3182 Y41.0201
G01 X39.2177 Y41.0350
G01 X39.1163 Y41.0400
G01 X39.0149 Y41.0350
G01 X38.9209 Y41.0212
G01 X38.9079 Y41.0187
G01 X38.8222 Y40.9972
G01 X38.8096 Y40.9934
G01 X38.7202 Y40.9612
G01 X38.6343 Y40.9208
G01 X38.6226 Y40.9145
G01 X38.5413 Y40.8656
G01 X38.4597 Y40.8051
G01 X38.3844 Y40.7369
G01 X38.3162 Y40.6616
G01 X38.2557 Y40.5800
G01 X38.2068 Y40.4987
G01 X38.2005 Y40.4870
G01 X38.1601 Y40.4011
G01 X38.1279 Y40.3117
G01 X38.1241 Y40.2991
G01 X38.1026 Y40.2134
G01 X38.1001 Y40.2004
G01 X38.0863 Y40.1064
G01 X38.0813 Y40.0050
G01 X38.0863 Y39.9036
G01 X38.1012 Y39.8031
G01 X38.1259 Y39.7046
G01 X38.1601 Y39.6089
G01 X38.2035 Y39.5171
G01 X38.2522 Y39.4356
G01 X38.2595 Y39.4246
G01 X38.3122 Y39.3536
G01 X38.3206 Y39.3434
G01 X38.3844 Y39.2731
G01 X38.4547 Y39.2093
G01 X38.4623 Y39.2029
G01 X38.5413 Y39.1444
G01 X38.6284 Y39.0922
G01 X38.7202 Y39.0488
G01 X38.8096 Y39.0166
G01 X38.8190 Y39.0136
G01 X38.9144 Y38.9899
G01 X39.0083 Y38.9758
G01 X39.0182 Y38.9747
G01 X39.1097 Y38.9702
G01 X39.1196 Y38.9700
G01 X39.2144 Y38.9747
G01 X39.2442 Y38.9787
G01 X39.6147 Y38.6083
G01 X33.9060 Y38.6082
G01 X33.8470 Y38.6052
G01 X33.7854 Y38.5960
G01 X33.7249 Y38.5809
G01 X33.6724 Y38.5623
G01 X33.6601 Y38.5572
G01 X33.6098 Y38.5332
G01 X33.5620 Y38.5047
G01 X33.5510 Y38.4974
G01 X33.5115 Y38.4681
G01 X33.5013 Y38.4597
G01 X33.4601 Y38.4222
G01 X31.2988 Y36.2608
G01 X31.2636 Y36.2220
G01 X31.2552 Y36.2118
G01 X31.2221 Y36.1669
G01 X31.1933 Y36.1192
G01 X31.1871 Y36.1075
G01 X31.1634 Y36.0571
G01 X31.1445 Y36.0047
G01 X31.1415 Y35.9952
G01 X31.1273 Y35.9379
G01 X31.1189 Y35.8828
G01 X31.1176 Y35.8697
G01 X31.1150 Y35.8140
G01 X31.1150 Y30.1081
G01 X18.9821 Y17.9752
G01 X18.9446 Y17.9340
G01 X18.9362 Y17.9238
G01 X18.9031 Y17.8789
G01 X18.8727 Y17.8284
G01 X18.8681 Y17.8195
G01 X18.8444 Y17.7691
G01 X18.8255 Y17.7167
G01 X18.8216 Y17.7040
G01 X18.8083 Y17.6499
G01 X18.7999 Y17.5948
G01 X18.7986 Y17.5817
G01 X18.7961 Y17.5293
G01 X18.7960 Y11.8201
G01 X18.1882 Y11.2123
G01 X15.7324 Y11.2123
G01 X14.7192 Y12.2255
G01 X14.7300 Y12.2686
G01 X14.7320 Y12.2783
G01 X14.7460 Y12.3723
G01 X14.7468 Y12.3822
G01 X14.7513 Y12.4737
G01 X14.7513 Y13.1770
G01 X14.7463 Y13.2784
G01 X14.7325 Y13.3724
G01 X14.7300 Y13.3854
G01 X14.7067 Y13.4774
G01 X14.6749 Y13.5669
G01 X14.6698 Y13.5791
G01 X14.6291 Y13.6649
G01 X14.5804 Y13.7464
G01 X14.5750 Y13.7547
G01 X14.5204 Y13.8284
G01 X14.5120 Y13.8386
G01 X14.4482 Y13.9089
G01 X14.3779 Y13.9727
G01 X14.3677 Y13.9811
G01 X14.2913 Y14.0376
G01 X14.2100 Y14.0865
G01 X14.1983 Y14.0928
G01 X14.1124 Y14.1332
G01 X14.0230 Y14.1654
G01 X14.0104 Y14.1692
G01 X13.9182 Y14.1921
G01 X13.8243 Y14.2062
G01 X13.8111 Y14.2075
G01 X13.7163 Y14.2120
G01 X13.6182 Y14.2073
G01 X13.6083 Y14.2062
G01 X13.5144 Y14.1921
G01 X13.4222 Y14.1692
G01 X13.4096 Y14.1654
G01 X13.3202 Y14.1332
G01 X13.2343 Y14.0928
G01 X13.2226 Y14.0865
G01 X13.1413 Y14.0376
G01 X13.0597 Y13.9771
G01 X12.9892 Y13.9134
G01 X12.9799 Y13.9041
G01 X12.9162 Y13.8336
G01 X12.8595 Y13.7574
G01 X12.8522 Y13.7464
G01 X12.8035 Y13.6649
G01 X12.7601 Y13.5731
G01 X12.7259 Y13.4774
G01 X12.7012 Y13.3789
G01 X12.6863 Y13.2784
G01 X12.6813 Y13.1770
G01 X12.6813 Y12.4737
G01 X12.6863 Y12.3756
G01 X12.7012 Y12.2751
G01 X12.7259 Y12.1766
G01 X12.7601 Y12.0809
G01 X12.8035 Y11.9891
G01 X12.8557 Y11.9020
G01 X12.9162 Y11.8204
G01 X12.9844 Y11.7451
G01 X13.0597 Y11.6769
G01 X13.1413 Y11.6164
G01 X13.2284 Y11.5642
G01 X13.3202 Y11.5208
G01 X13.4159 Y11.4866
G01 X13.5144 Y11.4619
G01 X13.6149 Y11.4470
G01 X13.7056 Y11.4424
G00 Z2.0000
G00 X13.6686 Y11.3591
G01 F60.00
G01 Z0.0000
G01 F500.00
G01 X14.9600 Y10.0677
G01 X15.0042 Y10.0273
G01 X15.0124 Y10.0202
G01 X15.0603 Y9.9844
G01 X15.0692 Y9.9781
G01 X15.1204 Y9.9471
G01 X15.1346 Y9.9393
G01 X15.1838 Y9.9160
G01 X15.1937 Y9.9116
G01 X15.2037 Y9.9077
G01 X15.2602 Y9.8878
G01 X15.3183 Y9.8730
G01 X15.3288 Y9.8706
G01 X15.3880 Y9.8615
G01 X15.3987 Y9.8602
G01 X15.4585 Y9.8570
G01 X15.4693 Y9.8567
G01 X18.4513 Y9.8567
G01 X18.5111 Y9.8594
G01 X18.5219 Y9.8602
G01 X18.5326 Y9.8615
G01 X18.5918 Y9.8706
G01 X18.6552 Y9.8863
G01 X18.6706 Y9.8912
G01 X18.7269 Y9.9116
G01 X18.7812 Y9.9369
G01 X18.7908 Y9.9418
G01 X18.8002 Y9.9471
G01 X18.8469 Y9.9752
G01 X18.8603 Y9.9844
G01 X18.9082 Y10.0202
G01 X18.9528 Y10.0603
G01 X18.9606 Y10.0677
G01 X19.9406 Y11.0477
G01 X19.9810 Y11.0919
G01 X19.9914 Y11.1043
G01 X20.0302 Y11.1569
G01 X20.0359 Y11.1660
G01 X20.0665 Y11.2175
G01 X20.0714 Y11.2271
G01 X20.0967 Y11.2814
G01 X20.1171 Y11.3377
G01 X20.1205 Y11.3479
G01 X20.1234 Y11.3583
G01 X20.1366 Y11.4112
G01 X20.1396 Y11.4271
G01 X20.1481 Y11.4864
G01 X20.1515 Y11.5516
G01 X20.1515 Y17.2277
G01 X32.2596 Y29.3357
G01 X32.2670 Y29.3435
G01 X32.3071 Y29.3881
G01 X32.3461 Y29.4404
G01 X32.3549 Y29.4540
G01 X32.3802 Y29.4961
G01 X32.3855 Y29.5055
G01 X32.3904 Y29.5151
G01 X32.4157 Y29.5694
G01 X32.4361 Y29.6257
G01 X32.4395 Y29.6359
G01 X32.4543 Y29.6940
G01 X32.4567 Y29.7045
G01 X32.4586 Y29.7151
G01 X32.4671 Y29.7744
G01 X32.4705 Y29.8396
G01 X32.4705 Y35.5157
G01 X34.2076 Y37.2527
G01 X42.4744 Y37.2527
G01 X42.5161 Y37.1838
G01 X42.5782 Y37.0997
G01 X42.5886 Y37.0873
G01 X42.6479 Y37.0219
G01 X42.6592 Y37.0103
G01 X42.7368 Y36.9402
G01 X42.8162 Y36.8810
G01 X42.8251 Y36.8748
G01 X42.8342 Y36.8690
G01 X42.9099 Y36.8236
G01 X42.9241 Y36.8158
G01 X43.0187 Y36.7713
G01 X43.1119 Y36.7376
G01 X43.1222 Y36.7342
G01 X43.1326 Y36.7313
G01 X43.2288 Y36.7075
G01 X43.3268 Y36.6927
G01 X43.3375 Y36.6914
G01 X43.4365 Y36.6863
G01 X43.4473 Y36.6860
G01 X43.4581 Y36.6863
G01 X43.5463 Y36.6906
G01 X43.5624 Y36.6920
G01 X43.6658 Y36.7075
G01 X43.7620 Y36.7313
G01 X43.7724 Y36.7342
G01 X43.7827 Y36.7376
G01 X43.8759 Y36.7713
G01 X43.9656 Y36.8134
G01 X43.9753 Y36.8182
G01 X43.9847 Y36.8236
G01 X44.0695 Y36.8748
G01 X44.1493 Y36.9336
G01 X44.1578 Y36.9402
G01 X44.1660 Y36.9473
G01 X44.2393 Y37.0140
G01 X44.3060 Y37.0873
G01 X44.3131 Y37.0955
G01 X44.3197 Y37.1040
G01 X44.3785 Y37.1838
G01 X44.4297 Y37.2686
G01 X44.4351 Y37.2780
G01 X44.4399 Y37.2877
G01 X44.4820 Y37.3774
G01 X44.5157 Y37.4706
G01 X44.5191 Y37.4809
G01 X44.5434 Y37.5770
G01 X44.5458 Y37.5875
G01 X44.5476 Y37.5981
G01 X44.5619 Y37.6962
G01 X44.5670 Y37.7952
G01 X44.5673 Y37.8060
G01 X44.5670 Y37.8168
G01 X44.5619 Y37.9158
G01 X44.5476 Y38.0139
G01 X44.5458 Y38.0245
G01 X44.5434 Y38.0350
G01 X44.5220 Y38.1207
G01 X44.5191 Y38.1311
G01 X44.5157 Y38.1414
G01 X44.4820 Y38.2346
G01 X44.4399 Y38.3243
G01 X44.4351 Y38.3340
G01 X44.4297 Y38.3434
G01 X44.3785 Y38.4282
G01 X44.3197 Y38.5080
G01 X44.3131 Y38.5165
G01 X44.3060 Y38.5247
G01 X44.2393 Y38.5980
G01 X44.1660 Y38.6647
G01 X44.1578 Y38.6718
G01 X44.0784 Y38.7310
G01 X44.0695 Y38.7372
G01 X43.9847 Y38.7884
G01 X43.9753 Y38.7938
G01 X43.9656 Y38.7986
G01 X43.8759 Y38.8407
G01 X43.7827 Y38.8744
G01 X43.7724 Y38.8778
G01 X43.6763 Y38.9021
G01 X43.6658 Y38.9045
G01 X43.5678 Y38.9193
G01 X43.5571 Y38.9206
G01 X43.5463 Y38.9214
G01 X43.4473 Y38.9260
G01 X43.3483 Y38.9214
G01 X43.3375 Y38.9206
G01 X43.3268 Y38.9193
G01 X43.2288 Y38.9045
G01 X43.1326 Y38.8807
G01 X43.1222 Y38.8778
G01 X43.1119 Y38.8744
G01 X43.0187 Y38.8407
G01 X42.9241 Y38.7962
G01 X42.9099 Y38.7884
G01 X42.8296 Y38.7402
G01 X42.8162 Y38.7310
G01 X42.7625 Y38.6912
G01 X42.7146 Y38.6933
G01 X41.4466 Y38.6933
G01 X40.2318 Y39.9081
G01 X40.2363 Y40.0050
G01 X40.2317 Y40.1040
G01 X40.2309 Y40.1148
G01 X40.2296 Y40.1255
G01 X40.2166 Y40.2129
G01 X40.2148 Y40.2235
G01 X40.2124 Y40.2340
G01 X40.1881 Y40.3301
G01 X40.1549 Y40.4235
G01 X40.1510 Y40.4336
G01 X40.1467 Y40.4435
G01 X40.1041 Y40.5330
G01 X40.0987 Y40.5424
G01 X40.0475 Y40.6272
G01 X39.9887 Y40.7070
G01 X39.9821 Y40.7155
G01 X39.9120 Y40.7931
G01 X39.9004 Y40.8044
G01 X39.8268 Y40.8708
G01 X39.8183 Y40.8774
G01 X39.7385 Y40.9362
G01 X39.6537 Y40.9874
G01 X39.6443 Y40.9928
G01 X39.6346 Y40.9976
G01 X39.5449 Y41.0397
G01 X39.4517 Y41.0734
G01 X39.4414 Y41.0768
G01 X39.3453 Y41.1011
G01 X39.3348 Y41.1035
G01 X39.2368 Y41.1183
G01 X39.2261 Y41.1196
G01 X39.2153 Y41.1204
G01 X39.1163 Y41.1250
G01 X39.0173 Y41.1204
G01 X39.0065 Y41.1196
G01 X38.9958 Y41.1183
G01 X38.8978 Y41.1035
G01 X38.8016 Y41.0797
G01 X38.7912 Y41.0768
G01 X38.6978 Y41.0436
G01 X38.6877 Y41.0397
G01 X38.6778 Y41.0354
G01 X38.5883 Y40.9928
G01 X38.5032 Y40.9420
G01 X38.4941 Y40.9362
G01 X38.4852 Y40.9300
G01 X38.4143 Y40.8774
G01 X38.4058 Y40.8708
G01 X38.3976 Y40.8637
G01 X38.3243 Y40.7970
G01 X38.2576 Y40.7237
G01 X38.2505 Y40.7155
G01 X38.2439 Y40.7070
G01 X38.1851 Y40.6272
G01 X38.1339 Y40.5424
G01 X38.1285 Y40.5330
G01 X38.1237 Y40.5233
G01 X38.0816 Y40.4336
G01 X38.0479 Y40.3404
G01 X38.0445 Y40.3301
G01 X38.0202 Y40.2340
G01 X38.0178 Y40.2235
G01 X38.0030 Y40.1255
G01 X38.0017 Y40.1148
G01 X38.0009 Y40.1040
G01 X37.9963 Y40.0050
G01 X38.0009 Y39.9060
G01 X38.0023 Y39.8899
G01 X38.0178 Y39.7865
G01 X38.0416 Y39.6903
G01 X38.0445 Y39.6799
G01 X38.0479 Y39.6696
G01 X38.0816 Y39.5764
G01 X38.1237 Y39.4867
G01 X38.1285 Y39.4770
G01 X38.1339 Y39.4676
G01 X38.1851 Y39.3828
G01 X38.2439 Y39.3030
G01 X38.2505 Y39.2945
G01 X38.2576 Y39.2863
G01 X38.3243 Y39.2130
G01 X38.4016 Y39.1427
G01 X38.4143 Y39.1326
G01 X38.4941 Y39.0738
G01 X38.5789 Y39.0226
G01 X38.5883 Y39.0172
G01 X38.5980 Y39.0124
G01 X38.6877 Y38.9703
G01 X38.7809 Y38.9366
G01 X38.7912 Y38.9332
G01 X38.8873 Y38.9089
G01 X38.8978 Y38.9065
G01 X38.9958 Y38.8917
G01 X39.0065 Y38.8904
G01 X39.0173 Y38.8896
G01 X39.1163 Y38.8850
G01 X39.2132 Y38.8895
G01 X39.4095 Y38.6933
G01 X33.9039 Y38.6932
G01 X33.8387 Y38.6898
G01 X33.8280 Y38.6885
G01 X33.7688 Y38.6794
G01 X33.7106 Y38.6651
G01 X33.7002 Y38.6622
G01 X33.6437 Y38.6423
G01 X33.6287 Y38.6363
G01 X33.5746 Y38.6107
G01 X33.5604 Y38.6029
G01 X33.5183 Y38.5776
G01 X33.5092 Y38.5719
G01 X33.5003 Y38.5656
G01 X33.4566 Y38.5331
G01 X33.4442 Y38.5227
G01 X33.4000 Y38.4823
G01 X31.2372 Y36.3194
G01 X31.1970 Y36.2751
G01 X31.1869 Y36.2624
G01 X31.1514 Y36.2141
G01 X31.1204 Y36.1629
G01 X31.1151 Y36.1535
G01 X31.1102 Y36.1439
G01 X31.0849 Y36.0896
G01 X31.0645 Y36.0333
G01 X31.0596 Y36.0179
G01 X31.0439 Y35.9545
G01 X31.0348 Y35.8953
G01 X31.0335 Y35.8846
G01 X31.0327 Y35.8738
G01 X31.0300 Y35.8140
G01 X31.0300 Y30.1433
G01 X18.9220 Y18.0353
G01 X18.8816 Y17.9911
G01 X18.8745 Y17.9829
G01 X18.8679 Y17.9744
G01 X18.8324 Y17.9261
G01 X18.7987 Y17.8703
G01 X18.7912 Y17.8559
G01 X18.7659 Y17.8016
G01 X18.7455 Y17.7453
G01 X18.7421 Y17.7351
G01 X18.7392 Y17.7247
G01 X18.7249 Y17.6665
G01 X18.7158 Y17.6073
G01 X18.7141 Y17.5912
G01 X18.7111 Y17.5314
G01 X18.7110 Y11.8553
G01 X18.1530 Y11.2973
G01 X15.7676 Y11.2973
G01 X14.8133 Y12.2516
G01 X14.8166 Y12.2691
G01 X14.8309 Y12.3672
G01 X14.8362 Y12.4716
G01 X14.8363 Y13.1770
G01 X14.8317 Y13.2760
G01 X14.8309 Y13.2868
G01 X14.8166 Y13.3849
G01 X14.8148 Y13.3955
G01 X14.8124 Y13.4060
G01 X14.7881 Y13.5021
G01 X14.7549 Y13.5955
G01 X14.7510 Y13.6056
G01 X14.7467 Y13.6155
G01 X14.7041 Y13.7050
G01 X14.6533 Y13.7901
G01 X14.6445 Y13.8037
G01 X14.5821 Y13.8875
G01 X14.5157 Y13.9611
G01 X14.5083 Y13.9690
G01 X14.5004 Y13.9764
G01 X14.4268 Y14.0428
G01 X14.3474 Y14.1020
G01 X14.3385 Y14.1082
G01 X14.3294 Y14.1140
G01 X14.2443 Y14.1648
G01 X14.1548 Y14.2074
G01 X14.1449 Y14.2117
G01 X14.1348 Y14.2156
G01 X14.0414 Y14.2488
G01 X13.9453 Y14.2731
G01 X13.9348 Y14.2755
G01 X13.9242 Y14.2773
G01 X13.8261 Y14.2916
G01 X13.7271 Y14.2967
G01 X13.7163 Y14.2970
G01 X13.7055 Y14.2967
G01 X13.6065 Y14.2916
G01 X13.5958 Y14.2903
G01 X13.4978 Y14.2755
G01 X13.4016 Y14.2517
G01 X13.3912 Y14.2488
G01 X13.3809 Y14.2454
G01 X13.2877 Y14.2117
G01 X13.1980 Y14.1696
G01 X13.1883 Y14.1648
G01 X13.1789 Y14.1594
G01 X13.0941 Y14.1082
G01 X13.0143 Y14.0494
G01 X13.0058 Y14.0428
G01 X12.9322 Y13.9764
G01 X12.9243 Y13.9690
G01 X12.9169 Y13.9611
G01 X12.8505 Y13.8875
G01 X12.7913 Y13.8081
G01 X12.7851 Y13.7992
G01 X12.7793 Y13.7901
G01 X12.7312 Y13.7097
G01 X12.7237 Y13.6953
G01 X12.6816 Y13.6056
G01 X12.6479 Y13.5124
G01 X12.6445 Y13.5021
G01 X12.6416 Y13.4917
G01 X12.6178 Y13.3955
G01 X12.6030 Y13.2975
G01 X12.6017 Y13.2868
G01 X12.6009 Y13.2760
G01 X12.5963 Y13.1770
G01 X12.5964 Y12.4716
G01 X12.6017 Y12.3672
G01 X12.6030 Y12.3565
G01 X12.6178 Y12.2585
G01 X12.6416 Y12.1623
G01 X12.6445 Y12.1519
G01 X12.6479 Y12.1416
G01 X12.6816 Y12.0484
G01 X12.7237 Y11.9587
G01 X12.7285 Y11.9490
G01 X12.7339 Y11.9396
G01 X12.7851 Y11.8548
G01 X12.8439 Y11.7750
G01 X12.8505 Y11.7665
G01 X12.9206 Y11.6889
G01 X12.9322 Y11.6776
G01 X13.0058 Y11.6112
G01 X13.0143 Y11.6046
G01 X13.0941 Y11.5458
G01 X13.1789 Y11.4946
G01 X13.1883 Y11.4892
G01 X13.2827 Y11.4444
G01 X13.2978 Y11.4384
G01 X13.3912 Y11.4052
G01 X13.4925 Y11.3796
G01 X13.5084 Y11.3767
G01 X13.6012 Y11.3630
G01 X13.6173 Y11.3616
G01 X13.6686 Y11.3591
G00 Z2.0000
G00 X14.6249 Y12.1996
G01 F60.00
G01 Z0.0000
G01 F500.00
G01 X14.6485 Y12.2941
G01 X14.6617 Y12.3839
G01 X14.6663 Y12.4758
G01 X14.6663 Y13.1770
G01 X14.6614 Y13.2726
G01 X14.6480 Y13.3623
G01 X14.6254 Y13.4528
G01 X14.5940 Y13.5405
G01 X14.5552 Y13.6226
G01 X14.5048 Y13.7068
G01 X14.4507 Y13.7797
G01 X14.3889 Y13.8479
G01 X14.3190 Y13.9114
G01 X14.2441 Y13.9669
G01 X14.1641 Y14.0148
G01 X14.0798 Y14.0547
G01 X13.9921 Y14.0861
G01 X13.9016 Y14.1087
G01 X13.8094 Y14.1224
G01 X13.7163 Y14.1270
G01 X13.6232 Y14.1224
G01 X13.5310 Y14.1087
G01 X13.4405 Y14.0861
G01 X13.3528 Y14.0547
G01 X13.2685 Y14.0148
G01 X13.1885 Y13.9669
G01 X13.1136 Y13.9114
G01 X13.0454 Y13.8496
G01 X12.9819 Y13.7797
G01 X12.9278 Y13.7068
G01 X12.8774 Y13.6226
G01 X12.8386 Y13.5405
G01 X12.8072 Y13.4528
G01 X12.7846 Y13.3623
G01 X12.7709 Y13.2701
G01 X12.7663 Y13.1770
G01 X12.7663 Y12.4770
G01 X12.7709 Y12.3839
G01 X12.7846 Y12.2917
G01 X12.8072 Y12.2012
G01 X12.8386 Y12.1135
G01 X12.8797 Y12.0270
G01 X12.9264 Y11.9492
G01 X12.9804 Y11.8763
G01 X13.0445 Y11.8052
G01 X13.1156 Y11.7411
G01 X13.1885 Y11.6871
G01 X13.2674 Y11.6398
G01 X13.3550 Y11.5984
G01 X13.4405 Y11.5679
G01 X13.5298 Y11.5455
G01 X13.6244 Y11.5315
G01 X13.7151 Y11.5270
G01 X13.7400 Y11.5281
G01 X15.0811 Y10.1871
G01 X15.1202 Y10.1517
G01 X15.1636 Y10.1195
G01 X15.2099 Y10.0917
G01 X15.2599 Y10.0682
G01 X15.3096 Y10.0504
G01 X15.3620 Y10.0373
G01 X15.4154 Y10.0294
G01 X15.4693 Y10.0267
G01 X18.4513 Y10.0267
G01 X18.5052 Y10.0294
G01 X18.5610 Y10.0379
G01 X18.6134 Y10.0512
G01 X18.6619 Y10.0686
G01 X18.7085 Y10.0906
G01 X18.7570 Y10.1195
G01 X18.8022 Y10.1533
G01 X18.8404 Y10.1879
G01 X19.8204 Y11.1679
G01 X19.8574 Y11.2089
G01 X19.8888 Y11.2513
G01 X19.9166 Y11.2976
G01 X19.9397 Y11.3464
G01 X19.9571 Y11.3949
G01 X19.9714 Y11.4521
G01 X19.9789 Y11.5031
G01 X19.9815 Y11.5558
G01 X19.9815 Y17.2981
G01 X32.1394 Y29.4559
G01 X32.1756 Y29.4959
G01 X32.2071 Y29.5383
G01 X32.2367 Y29.5878
G01 X32.2587 Y29.6344
G01 X32.2769 Y29.6853
G01 X32.2904 Y29.7401
G01 X32.2979 Y29.7911
G01 X32.3005 Y29.8438
G01 X32.3005 Y35.5861
G01 X34.1372 Y37.4227
G01 X42.5789 Y37.4227
G01 X42.6095 Y37.3582
G01 X42.6574 Y37.2782
G01 X42.7129 Y37.2033
G01 X42.7739 Y37.1360
G01 X42.8466 Y37.0701
G01 X42.9195 Y37.0161
G01 X42.9973 Y36.9694
G01 X43.0860 Y36.9274
G01 X43.1715 Y36.8969
G01 X43.2620 Y36.8743
G01 X43.3566 Y36.8604
G01 X43.4473 Y36.8560
G01 X43.5404 Y36.8606
G01 X43.6350 Y36.8748
G01 X43.7231 Y36.8969
G01 X43.8086 Y36.9274
G01 X43.8951 Y36.9682
G01 X43.9771 Y37.0175
G01 X44.0500 Y37.0716
G01 X44.1173 Y37.1326
G01 X44.1817 Y37.2033
G01 X44.2385 Y37.2803
G01 X44.2851 Y37.3582
G01 X44.3250 Y37.4425
G01 X44.3564 Y37.5302
G01 X44.3785 Y37.6183
G01 X44.3927 Y37.7129
G01 X44.3972 Y37.8085
G01 X44.3927 Y37.8991
G01 X44.3795 Y37.9889
G01 X44.3556 Y38.0841
G01 X44.3250 Y38.1695
G01 X44.2862 Y38.2516
G01 X44.2372 Y38.3338
G01 X44.1801 Y38.4105
G01 X44.1191 Y38.4778
G01 X44.0500 Y38.5404
G01 X43.9751 Y38.5959
G01 X43.8929 Y38.6449
G01 X43.8108 Y38.6837
G01 X43.7254 Y38.7143
G01 X43.6350 Y38.7372
G01 X43.5404 Y38.7514
G01 X43.4498 Y38.7559
G01 X43.3542 Y38.7514
G01 X43.2620 Y38.7377
G01 X43.1715 Y38.7151
G01 X43.0849 Y38.6841
G01 X42.9995 Y38.6438
G01 X42.9205 Y38.5966
G01 X42.8456 Y38.5411
G01 X42.8152 Y38.5137
G01 X42.7685 Y38.5206
G01 X42.7146 Y38.5233
G01 X41.3762 Y38.5233
G01 X40.0522 Y39.8473
G01 X40.0617 Y39.9119
G01 X40.0662 Y40.0025
G01 X40.0618 Y40.0969
G01 X40.0480 Y40.1903
G01 X40.0250 Y40.2819
G01 X39.9940 Y40.3685
G01 X39.9529 Y40.4550
G01 X39.9062 Y40.5328
G01 X39.8522 Y40.6057
G01 X39.7889 Y40.6759
G01 X39.7190 Y40.7394
G01 X39.6441 Y40.7949
G01 X39.5641 Y40.8428
G01 X39.4798 Y40.8827
G01 X39.3921 Y40.9141
G01 X39.3016 Y40.9367
G01 X39.2094 Y40.9504
G01 X39.1163 Y40.9550
G01 X39.0232 Y40.9504
G01 X38.9286 Y40.9362
G01 X38.8382 Y40.9133
G01 X38.7528 Y40.8827
G01 X38.6707 Y40.8439
G01 X38.5885 Y40.7949
G01 X38.5136 Y40.7394
G01 X38.4445 Y40.6768
G01 X38.3804 Y40.6057
G01 X38.3251 Y40.5307
G01 X38.2785 Y40.4528
G01 X38.2396 Y40.3708
G01 X38.2072 Y40.2808
G01 X38.1846 Y40.1903
G01 X38.1709 Y40.0981
G01 X38.1664 Y40.0025
G01 X38.1709 Y39.9119
G01 X38.1841 Y39.8221
G01 X38.2069 Y39.7304
G01 X38.2396 Y39.6392
G01 X38.2785 Y39.5572
G01 X38.3264 Y39.4772
G01 X38.3819 Y39.4023
G01 X38.4429 Y39.3350
G01 X38.5156 Y39.2691
G01 X38.5885 Y39.2151
G01 X38.6685 Y39.1672
G01 X38.7528 Y39.1273
G01 X38.8417 Y39.0956
G01 X38.9310 Y39.0733
G01 X39.0256 Y39.0594
G01 X39.1188 Y39.0551
G01 X39.2094 Y39.0596
G01 X39.2740 Y39.0691
G01 X39.8199 Y38.5233
G01 X33.9081 Y38.5232
G01 X33.8554 Y38.5206
G01 X33.8020 Y38.5127
G01 X33.7496 Y38.4996
G01 X33.7010 Y38.4822
G01 X33.6499 Y38.4583
G01 X33.6057 Y38.4318
G01 X33.5584 Y38.3967
G01 X33.5202 Y38.3621
G01 X31.3604 Y36.2022
G01 X31.3234 Y36.1611
G01 X31.2928 Y36.1197
G01 X31.2662 Y36.0755
G01 X31.2419 Y36.0246
G01 X31.2234 Y35.9726
G01 X31.2106 Y35.9213
G01 X31.2030 Y35.8704
G01 X31.2000 Y35.8140
G01 X31.2000 Y30.0729
G01 X19.0422 Y17.9151
G01 X19.0044 Y17.8731
G01 X18.9738 Y17.8317
G01 X18.9466 Y17.7865
G01 X18.9229 Y17.7366
G01 X18.9041 Y17.6834
G01 X18.8916 Y17.6333
G01 X18.8840 Y17.5824
G01 X18.8810 Y17.5260
G01 X18.8810 Y11.7849
G01 X18.2234 Y11.1273
G01 X15.6972 Y11.1273
G01 X14.6249 Y12.1996
G00 Z2.0000
G00 X23.2477 Y26.4318
G01 F60.00
G01 Z0.0000
G01 F500.00
G01 X20.8286 Y24.0126
G01 X20.8285 Y27.3083
G01 X20.8260 Y27.3607
G01 X20.8247 Y27.3738
G01 X20.8163 Y27.4289
G01 X20.8030 Y27.4830
G01 X20.7991 Y27.4957
G01 X20.7802 Y27.5481
G01 X20.7565 Y27.5985
G01 X20.7519 Y27.6074
G01 X20.7215 Y27.6579
G01 X20.6884 Y27.7028
G01 X20.6800 Y27.7130
G01 X20.6425 Y27.7542
G01 X18.2986 Y30.0981
G01 X18.3026 Y30.1279
G01 X18.3073 Y30.2227
G01 X18.3071 Y30.2326
G01 X18.3028 Y30.3208
G01 X18.3020 Y30.3307
G01 X18.2874 Y30.4279
G01 X18.2645 Y30.5201
G01 X18.2607 Y30.5327
G01 X18.2297 Y30.6190
G01 X18.2258 Y30.6281
G01 X18.1851 Y30.7139
G01 X18.1364 Y30.7954
G01 X18.1291 Y30.8064
G01 X18.0764 Y30.8774
G01 X18.0680 Y30.8876
G01 X18.0042 Y30.9579
G01 X17.9339 Y31.0217
G01 X17.9237 Y31.0301
G01 X17.8527 Y31.0828
G01 X17.8417 Y31.0901
G01 X17.7602 Y31.1388
G01 X17.6684 Y31.1822
G01 X17.5790 Y31.2144
G01 X17.5664 Y31.2182
G01 X17.4742 Y31.2411
G01 X17.3737 Y31.2560
G01 X17.2723 Y31.2610
G01 X17.1775 Y31.2565
G01 X17.1643 Y31.2552
G01 X17.0704 Y31.2411
G01 X16.9782 Y31.2182
G01 X16.9656 Y31.2144
G01 X16.8762 Y31.1822
G01 X16.7844 Y31.1388
G01 X16.6973 Y31.0866
G01 X16.6157 Y31.0261
G01 X16.5404 Y30.9579
G01 X16.4766 Y30.8876
G01 X16.4682 Y30.8774
G01 X16.4117 Y30.8010
G01 X16.3628 Y30.7197
G01 X16.3565 Y30.7080
G01 X16.3161 Y30.6221
G01 X16.2839 Y30.5327
G01 X16.2801 Y30.5201
G01 X16.2586 Y30.4344
G01 X16.2561 Y30.4214
G01 X16.2423 Y30.3274
G01 X16.2373 Y30.2260
G01 X16.2423 Y30.1246
G01 X16.2572 Y30.0241
G01 X16.2819 Y29.9256
G01 X16.3161 Y29.8299
G01 X16.3595 Y29.7381
G01 X16.4117 Y29.6510
G01 X16.4682 Y29.5746
G01 X16.4766 Y29.5644
G01 X16.5404 Y29.4941
G01 X16.6157 Y29.4259
G01 X16.6919 Y29.3692
G01 X16.7029 Y29.3619
G01 X16.7844 Y29.3132
G01 X16.8732 Y29.2711
G01 X16.8824 Y29.2674
G01 X16.9656 Y29.2376
G01 X16.9782 Y29.2338
G01 X17.0704 Y29.2109
G01 X17.1676 Y29.1963
G01 X17.1775 Y29.1955
G01 X17.2657 Y29.1912
G01 X17.2756 Y29.1910
G01 X17.3704 Y29.1957
G01 X17.4002 Y29.1997
G01 X19.5580 Y27.0419
G01 X19.5580 Y22.7421
G01 X16.2563 Y19.4404
G01 X14.2246 Y21.4721
G01 X14.2245 Y56.0070
G01 X14.2215 Y56.0693
G01 X14.2135 Y56.1244
G01 X14.2117 Y56.1342
G01 X14.1972 Y56.1914
G01 X14.1786 Y56.2439
G01 X14.1735 Y56.2562
G01 X14.1495 Y56.3065
G01 X14.1210 Y56.3543
G01 X14.1137 Y56.3653
G01 X14.0804 Y56.4100
G01 X14.0385 Y56.4562
G01 X3.4296 Y67.0651
G01 X3.4295 Y75.3842
G01 X3.4381 Y75.3968
G01 X3.4701 Y75.4503
G01 X3.4764 Y75.4619
G01 X3.5057 Y75.5243
G01 X3.5291 Y75.5892
G01 X3.5329 Y75.6019
G01 X3.5495 Y75.6688
G01 X3.5606 Y75.7435
G01 X3.5643 Y75.8190
G01 X3.5606 Y75.8945
G01 X3.5495 Y75.9692
G01 X3.5329 Y76.0361
G01 X3.5291 Y76.0488
G01 X3.5057 Y76.1137
G01 X3.4764 Y76.1761
G01 X3.4701 Y76.1877
G01 X3.4345 Y76.2468
G01 X3.3895 Y76.3075
G01 X3.3433 Y76.3587
G01 X3.3340 Y76.3680
G01 X3.2828 Y76.4142
G01 X3.2275 Y76.4554
G01 X3.2165 Y76.4628
G01 X3.1630 Y76.4948
G01 X3.1514 Y76.5011
G01 X3.0890 Y76.5304
G01 X3.0178 Y76.5558
G01 X2.9445 Y76.5742
G01 X2.8763 Y76.5845
G01 X2.8632 Y76.5858
G01 X2.8009 Y76.5888
G01 X2.7877 Y76.5888
G01 X2.7188 Y76.5853
G01 X2.6506 Y76.5753
G01 X2.6376 Y76.5728
G01 X2.5708 Y76.5558
G01 X2.4996 Y76.5304
G01 X2.4372 Y76.5011
G01 X2.4256 Y76.4948
G01 X2.3665 Y76.4592
G01 X2.3058 Y76.4142
G01 X2.2546 Y76.3680
G01 X2.2453 Y76.3587
G01 X2.1991 Y76.3075
G01 X2.1541 Y76.2468
G01 X2.1152 Y76.1820
G01 X2.0856 Y76.1197
G01 X2.0805 Y76.1075
G01 X2.0575 Y76.0425
G01 X2.0405 Y75.9757
G01 X2.0380 Y75.9627
G01 X2.0280 Y75.8945
G01 X2.0243 Y75.8223
G01 X2.0245 Y75.8124
G01 X2.0275 Y75.7501
G01 X2.0288 Y75.7370
G01 X2.0391 Y75.6688
G01 X2.0575 Y75.5955
G01 X2.0829 Y75.5243
G01 X2.1122 Y75.4619
G01 X2.1185 Y75.4503
G01 X2.1505 Y75.3968
G01 X2.1590 Y75.3842
G01 X2.1590 Y66.8020
G01 X2.1621 Y66.7397
G01 X2.1701 Y66.6846
G01 X2.1727 Y66.6716
G01 X2.1864 Y66.6176
G01 X2.2050 Y66.5651
G01 X2.2101 Y66.5528
G01 X2.2325 Y66.5055
G01 X2.2373 Y66.4968
G01 X2.2626 Y66.4547
G01 X2.2699 Y66.4437
G01 X2.3032 Y66.3990
G01 X2.3451 Y66.3528
G01 X12.9540 Y55.7439
G01 X12.9540 Y21.2090
G01 X12.9568 Y21.1500
G01 X12.9579 Y21.1402
G01 X12.9663 Y21.0851
G01 X12.9796 Y21.0310
G01 X12.9835 Y21.0183
G01 X13.0000 Y20.9721
G01 X13.0051 Y20.9598
G01 X13.0291 Y20.9095
G01 X13.0611 Y20.8561
G01 X13.0982 Y20.8060
G01 X13.1355 Y20.7646
G01 X15.6210 Y18.2789
G01 X15.6210 Y13.9931
G01 X15.5972 Y13.9749
G01 X15.5292 Y13.9134
G01 X15.5221 Y13.9065
G01 X15.4562 Y13.8336
G01 X15.3957 Y13.7520
G01 X15.3435 Y13.6649
G01 X15.3028 Y13.5791
G01 X15.2977 Y13.5669
G01 X15.2679 Y13.4837
G01 X15.2641 Y13.4711
G01 X15.2412 Y13.3789
G01 X15.2271 Y13.2850
G01 X15.2258 Y13.2718
G01 X15.2215 Y13.1836
G01 X15.2213 Y12.4737
G01 X15.2263 Y12.3756
G01 X15.2401 Y12.2816
G01 X15.2426 Y12.2686
G01 X15.2659 Y12.1766
G01 X15.2977 Y12.0871
G01 X15.3028 Y12.0749
G01 X15.3435 Y11.9891
G01 X15.3922 Y11.9076
G01 X15.3995 Y11.8966
G01 X15.4562 Y11.8204
G01 X15.5199 Y11.7499
G01 X15.5292 Y11.7406
G01 X15.5997 Y11.6769
G01 X15.6759 Y11.6202
G01 X15.6869 Y11.6129
G01 X15.7626 Y11.5675
G01 X15.7713 Y11.5627
G01 X15.8542 Y11.5235
G01 X15.8664 Y11.5184
G01 X15.9559 Y11.4866
G01 X16.0479 Y11.4633
G01 X16.0609 Y11.4608
G01 X16.1549 Y11.4470
G01 X16.2563 Y11.4420
G01 X16.3577 Y11.4470
G01 X16.4517 Y11.4608
G01 X16.4647 Y11.4633
G01 X16.5504 Y11.4848
G01 X16.5630 Y11.4886
G01 X16.6524 Y11.5208
G01 X16.7383 Y11.5612
G01 X16.7500 Y11.5675
G01 X16.8313 Y11.6164
G01 X16.9129 Y11.6769
G01 X16.9882 Y11.7451
G01 X17.0520 Y11.8154
G01 X17.0604 Y11.8256
G01 X17.1131 Y11.8966
G01 X17.1204 Y11.9076
G01 X17.1691 Y11.9891
G01 X17.2098 Y12.0749
G01 X17.2149 Y12.0871
G01 X17.2467 Y12.1766
G01 X17.2700 Y12.2686
G01 X17.2720 Y12.2783
G01 X17.2863 Y12.3756
G01 X17.2913 Y12.4737
G01 X17.2913 Y13.1770
G01 X17.2863 Y13.2784
G01 X17.2725 Y13.3724
G01 X17.2707 Y13.3822
G01 X17.2467 Y13.4774
G01 X17.2125 Y13.5731
G01 X17.1691 Y13.6649
G01 X17.1187 Y13.7492
G01 X17.1131 Y13.7574
G01 X17.0564 Y13.8336
G01 X16.9905 Y13.9065
G01 X16.9834 Y13.9134
G01 X16.9154 Y13.9749
G01 X16.8916 Y13.9931
G01 X16.8915 Y18.2789
G01 X29.4055 Y30.7928
G01 X29.4474 Y30.8390
G01 X29.4845 Y30.8891
G01 X29.5165 Y30.9425
G01 X29.5405 Y30.9928
G01 X29.5456 Y31.0051
G01 X29.5642 Y31.0576
G01 X29.5793 Y31.1181
G01 X29.5885 Y31.1797
G01 X29.5915 Y31.2387
G01 X29.5915 Y32.5849
G01 X29.6154 Y32.6031
G01 X29.6858 Y32.6668
G01 X29.6927 Y32.6739
G01 X29.7520 Y32.7394
G01 X29.7604 Y32.7496
G01 X29.8169 Y32.8260
G01 X29.8658 Y32.9073
G01 X29.8721 Y32.9190
G01 X29.9098 Y32.9989
G01 X29.9149 Y33.0111
G01 X29.9467 Y33.1006
G01 X29.9700 Y33.1926
G01 X29.9725 Y33.2056
G01 X29.9863 Y33.2996
G01 X29.9913 Y33.4010
G01 X29.9868 Y33.4958
G01 X29.9855 Y33.5090
G01 X29.9725 Y33.5964
G01 X29.9707 Y33.6062
G01 X29.9467 Y33.7014
G01 X29.9125 Y33.7971
G01 X29.8691 Y33.8889
G01 X29.8169 Y33.9760
G01 X29.7564 Y34.0576
G01 X29.6882 Y34.1329
G01 X29.6129 Y34.2011
G01 X29.5313 Y34.2616
G01 X29.4442 Y34.3138
G01 X29.3524 Y34.3572
G01 X29.2567 Y34.3914
G01 X29.1582 Y34.4161
G01 X29.0577 Y34.4310
G01 X28.9563 Y34.4360
G01 X28.8549 Y34.4310
G01 X28.7609 Y34.4172
G01 X28.7511 Y34.4154
G01 X28.6559 Y34.3914
G01 X28.5664 Y34.3596
G01 X28.5542 Y34.3545
G01 X28.4684 Y34.3138
G01 X28.3813 Y34.2616
G01 X28.3049 Y34.2051
G01 X28.2947 Y34.1967
G01 X28.2292 Y34.1374
G01 X28.2199 Y34.1281
G01 X28.1562 Y34.0576
G01 X28.0995 Y33.9814
G01 X28.0922 Y33.9704
G01 X28.0468 Y33.8947
G01 X28.0405 Y33.8830
G01 X28.0001 Y33.7971
G01 X27.9659 Y33.7014
G01 X27.9412 Y33.6029
G01 X27.9271 Y33.5090
G01 X27.9258 Y33.4958
G01 X27.9213 Y33.4010
G01 X27.9258 Y33.3062
G01 X27.9271 Y33.2930
G01 X27.9412 Y33.1991
G01 X27.9641 Y33.1069
G01 X27.9679 Y33.0943
G01 X28.0001 Y33.0049
G01 X28.0405 Y32.9190
G01 X28.0468 Y32.9073
G01 X28.0957 Y32.8260
G01 X28.1542 Y32.7470
G01 X28.1606 Y32.7394
G01 X28.2199 Y32.6739
G01 X28.2268 Y32.6668
G01 X28.2972 Y32.6031
G01 X28.3210 Y32.5849
G01 X28.3210 Y31.5051
G01 X24.5116 Y27.6956
G01 X24.5115 Y34.6619
G01 X28.8284 Y38.9787
G01 X28.8582 Y38.9747
G01 X28.9530 Y38.9700
G01 X28.9629 Y38.9702
G01 X29.0511 Y38.9745
G01 X29.0610 Y38.9753
G01 X29.1582 Y38.9899
G01 X29.2504 Y39.0128
G01 X29.2630 Y39.0166
G01 X29.3524 Y39.0488
G01 X29.4383 Y39.0892
G01 X29.4500 Y39.0955
G01 X29.5313 Y39.1444
G01 X29.6077 Y39.2009
G01 X29.6179 Y39.2093
G01 X29.6882 Y39.2731
G01 X29.7520 Y39.3434
G01 X29.7584 Y39.3510
G01 X29.8131 Y39.4246
G01 X29.8204 Y39.4356
G01 X29.8691 Y39.5171
G01 X29.9098 Y39.6029
G01 X29.9149 Y39.6151
G01 X29.9467 Y39.7046
G01 X29.9714 Y39.8031
G01 X29.9863 Y39.9036
G01 X29.9911 Y39.9984
G01 X29.9911 Y40.0116
G01 X29.9868 Y40.0998
G01 X29.9855 Y40.1130
G01 X29.9714 Y40.2069
G01 X29.9485 Y40.2991
G01 X29.9447 Y40.3117
G01 X29.9125 Y40.4011
G01 X29.8691 Y40.4929
G01 X29.8169 Y40.5800
G01 X29.7604 Y40.6564
G01 X29.7520 Y40.6666
G01 X29.6882 Y40.7369
G01 X29.6179 Y40.8007
G01 X29.6077 Y40.8091
G01 X29.5367 Y40.8618
G01 X29.5257 Y40.8691
G01 X29.4442 Y40.9178
G01 X29.3524 Y40.9612
G01 X29.2567 Y40.9954
G01 X29.1647 Y41.0187
G01 X29.1517 Y41.0212
G01 X29.0577 Y41.0350
G01 X28.9563 Y41.0400
G01 X28.8615 Y41.0355
G01 X28.8483 Y41.0342
G01 X28.7544 Y41.0201
G01 X28.6622 Y40.9972
G01 X28.6496 Y40.9934
G01 X28.5602 Y40.9612
G01 X28.4684 Y40.9178
G01 X28.3869 Y40.8691
G01 X28.3759 Y40.8618
G01 X28.2997 Y40.8051
G01 X28.2268 Y40.7392
G01 X28.2199 Y40.7321
G01 X28.1562 Y40.6616
G01 X28.0995 Y40.5854
G01 X28.0922 Y40.5744
G01 X28.0468 Y40.4987
G01 X28.0405 Y40.4870
G01 X28.0001 Y40.4011
G01 X27.9679 Y40.3117
G01 X27.9641 Y40.2991
G01 X27.9412 Y40.2069
G01 X27.9263 Y40.1064
G01 X27.9215 Y40.0116
G01 X27.9213 Y40.0017
G01 X27.9260 Y39.9069
G01 X27.9300 Y39.8771
G01 X23.4271 Y35.3742
G01 X23.3852 Y35.3280
G01 X23.3481 Y35.2779
G01 X23.3161 Y35.2245
G01 X23.2894 Y35.1681
G01 X23.2684 Y35.1094
G01 X23.2533 Y35.0489
G01 X23.2441 Y34.9873
G01 X23.2410 Y34.9250
G01 X23.2410 Y26.5193
G01 X23.2438 Y26.4603
G01 X23.2477 Y26.4318
G00 Z2.0000
G00 X29.9014 Y33.3054
G01 F60.00
G01 Z0.0000
G01 F500.00
G01 X29.9062 Y33.4035
G01 X29.9017 Y33.4941
G01 X29.8880 Y33.5863
G01 X29.8646 Y33.6791
G01 X29.8340 Y33.7645
G01 X29.7941 Y33.8488
G01 X29.7462 Y33.9288
G01 X29.6922 Y34.0017
G01 X29.6281 Y34.0728
G01 X29.5590 Y34.1354
G01 X29.4861 Y34.1895
G01 X29.4019 Y34.2399
G01 X29.3198 Y34.2787
G01 X29.2321 Y34.3101
G01 X29.1416 Y34.3327
G01 X29.0519 Y34.3461
G01 X28.9538 Y34.3509
G01 X28.8632 Y34.3464
G01 X28.7734 Y34.3332
G01 X28.6782 Y34.3093
G01 X28.5928 Y34.2787
G01 X28.5085 Y34.2388
G01 X28.4285 Y34.1909
G01 X28.3556 Y34.1369
G01 X28.2837 Y34.0719
G01 X28.2219 Y34.0037
G01 X28.1664 Y33.9288
G01 X28.1185 Y33.8488
G01 X28.0786 Y33.7645
G01 X28.0472 Y33.6768
G01 X28.0246 Y33.5863
G01 X28.0109 Y33.4941
G01 X28.0064 Y33.3985
G01 X28.0112 Y33.3054
G01 X28.0246 Y33.2157
G01 X28.0466 Y33.1276
G01 X28.0786 Y33.0375
G01 X28.1179 Y32.9543
G01 X28.1664 Y32.8732
G01 X28.2227 Y32.7974
G01 X28.2863 Y32.7276
G01 X28.3536 Y32.6666
G01 X28.4060 Y32.6277
G01 X28.4060 Y31.4699
G01 X24.4266 Y27.4904
G01 X24.4265 Y34.6971
G01 X28.7986 Y39.0691
G01 X28.8632 Y39.0596
G01 X28.9538 Y39.0551
G01 X29.0506 Y39.0597
G01 X29.1416 Y39.0733
G01 X29.2297 Y39.0953
G01 X29.3210 Y39.1278
G01 X29.4041 Y39.1672
G01 X29.4820 Y39.2138
G01 X29.5590 Y39.2706
G01 X29.6297 Y39.3350
G01 X29.6907 Y39.4023
G01 X29.7455 Y39.4762
G01 X29.7952 Y39.5594
G01 X29.8340 Y39.6415
G01 X29.8654 Y39.7292
G01 X29.8880 Y39.8197
G01 X29.9014 Y39.9094
G01 X29.9063 Y40.0050
G01 X29.9014 Y40.1006
G01 X29.8880 Y40.1903
G01 X29.8654 Y40.2808
G01 X29.8330 Y40.3708
G01 X29.7941 Y40.4528
G01 X29.7475 Y40.5307
G01 X29.6907 Y40.6077
G01 X29.6263 Y40.6784
G01 X29.5590 Y40.7394
G01 X29.4861 Y40.7935
G01 X29.4019 Y40.8439
G01 X29.3198 Y40.8827
G01 X29.2344 Y40.9133
G01 X29.1416 Y40.9367
G01 X29.0494 Y40.9504
G01 X28.9588 Y40.9549
G01 X28.8607 Y40.9501
G01 X28.7710 Y40.9367
G01 X28.6805 Y40.9141
G01 X28.5928 Y40.8827
G01 X28.5107 Y40.8439
G01 X28.4265 Y40.7935
G01 X28.3536 Y40.7394
G01 X28.2837 Y40.6759
G01 X28.2219 Y40.6077
G01 X28.1651 Y40.5307
G01 X28.1185 Y40.4528
G01 X28.0796 Y40.3708
G01 X28.0476 Y40.2819
G01 X28.0246 Y40.1903
G01 X28.0108 Y40.0969
G01 X28.0064 Y40.0025
G01 X28.0109 Y39.9119
G01 X28.0204 Y39.8473
G01 X23.4872 Y35.3141
G01 X23.4510 Y35.2741
G01 X23.4188 Y35.2307
G01 X23.3910 Y35.1844
G01 X23.3675 Y35.1344
G01 X23.3497 Y35.0847
G01 X23.3366 Y35.0323
G01 X23.3287 Y34.9789
G01 X23.3260 Y34.9250
G01 X23.3260 Y26.5193
G01 X23.3287 Y26.4654
G01 X23.3364 Y26.4132
G01 X23.3389 Y26.4027
G01 X20.7436 Y23.8074
G01 X20.7435 Y27.3062
G01 X20.7406 Y27.3614
G01 X20.7330 Y27.4123
G01 X20.7205 Y27.4624
G01 X20.7017 Y27.5156
G01 X20.6786 Y27.5644
G01 X20.6494 Y27.6127
G01 X20.6186 Y27.6541
G01 X20.5824 Y27.6941
G01 X18.2082 Y30.0683
G01 X18.2177 Y30.1329
G01 X18.2222 Y30.2235
G01 X18.2178 Y30.3179
G01 X18.2040 Y30.4113
G01 X18.1810 Y30.5029
G01 X18.1490 Y30.5918
G01 X18.1101 Y30.6738
G01 X18.0635 Y30.7517
G01 X18.0067 Y30.8287
G01 X17.9423 Y30.8994
G01 X17.8750 Y30.9604
G01 X17.8021 Y31.0145
G01 X17.7179 Y31.0649
G01 X17.6358 Y31.1037
G01 X17.5481 Y31.1351
G01 X17.4576 Y31.1577
G01 X17.3679 Y31.1711
G01 X17.2698 Y31.1759
G01 X17.1792 Y31.1714
G01 X17.0870 Y31.1577
G01 X16.9942 Y31.1343
G01 X16.9088 Y31.1037
G01 X16.8245 Y31.0638
G01 X16.7445 Y31.0159
G01 X16.6696 Y30.9604
G01 X16.6005 Y30.8978
G01 X16.5364 Y30.8267
G01 X16.4824 Y30.7538
G01 X16.4334 Y30.6716
G01 X16.3946 Y30.5895
G01 X16.3640 Y30.5041
G01 X16.3411 Y30.4137
G01 X16.3269 Y30.3191
G01 X16.3223 Y30.2260
G01 X16.3269 Y30.1329
G01 X16.3406 Y30.0407
G01 X16.3632 Y29.9502
G01 X16.3946 Y29.8625
G01 X16.4345 Y29.7782
G01 X16.4831 Y29.6972
G01 X16.5379 Y29.6233
G01 X16.5989 Y29.5560
G01 X16.6696 Y29.4916
G01 X16.7466 Y29.4348
G01 X16.8245 Y29.3882
G01 X16.9076 Y29.3488
G01 X16.9989 Y29.3163
G01 X17.0870 Y29.2943
G01 X17.1780 Y29.2807
G01 X17.2748 Y29.2761
G01 X17.3654 Y29.2806
G01 X17.4300 Y29.2901
G01 X19.6430 Y27.0771
G01 X19.6430 Y22.7069
G01 X16.2563 Y19.3202
G01 X14.1396 Y21.4369
G01 X14.1395 Y56.0070
G01 X14.1369 Y56.0609
G01 X14.1287 Y56.1155
G01 X14.1159 Y56.1667
G01 X14.0985 Y56.2153
G01 X14.0746 Y56.2664
G01 X14.0454 Y56.3147
G01 X14.0146 Y56.3561
G01 X13.9784 Y56.3961
G01 X3.3446 Y67.0299
G01 X3.3445 Y75.4123
G01 X3.3645 Y75.4395
G01 X3.3990 Y75.4972
G01 X3.4272 Y75.5569
G01 X3.4501 Y75.6213
G01 X3.4661 Y75.6854
G01 X3.4760 Y75.7519
G01 X3.4793 Y75.8190
G01 X3.4760 Y75.8861
G01 X3.4661 Y75.9526
G01 X3.4490 Y76.0202
G01 X3.4272 Y76.0811
G01 X3.3995 Y76.1397
G01 X3.3639 Y76.1996
G01 X3.3222 Y76.2554
G01 X3.2787 Y76.3034
G01 X3.2307 Y76.3469
G01 X3.1749 Y76.3886
G01 X3.1150 Y76.4242
G01 X3.0564 Y76.4519
G01 X2.9955 Y76.4737
G01 X2.9279 Y76.4908
G01 X2.8590 Y76.5009
G01 X2.7943 Y76.5040
G01 X2.7296 Y76.5009
G01 X2.6607 Y76.4908
G01 X2.5931 Y76.4737
G01 X2.5322 Y76.4519
G01 X2.4736 Y76.4242
G01 X2.4148 Y76.3892
G01 X2.3597 Y76.3485
G01 X2.3082 Y76.3016
G01 X2.2648 Y76.2536
G01 X2.2262 Y76.2016
G01 X2.1902 Y76.1419
G01 X2.1606 Y76.0788
G01 X2.1388 Y76.0178
G01 X2.1230 Y75.9550
G01 X2.1126 Y75.8861
G01 X2.1093 Y75.8190
G01 X2.1126 Y75.7519
G01 X2.1220 Y75.6878
G01 X2.1392 Y75.6190
G01 X2.1614 Y75.5569
G01 X2.1896 Y75.4972
G01 X2.2241 Y75.4395
G01 X2.2440 Y75.4123
G01 X2.2440 Y66.8020
G01 X2.2467 Y66.7481
G01 X2.2552 Y66.6923
G01 X2.2677 Y66.6423
G01 X2.2851 Y66.5937
G01 X2.3085 Y66.5437
G01 X2.3382 Y66.4943
G01 X2.3690 Y66.4529
G01 X2.4052 Y66.4129
G01 X13.0390 Y55.7791
G01 X13.0390 Y21.2090
G01 X13.0415 Y21.1575
G01 X13.0496 Y21.1017
G01 X13.0621 Y21.0516
G01 X13.0819 Y20.9962
G01 X13.1040 Y20.9496
G01 X13.1318 Y20.9033
G01 X13.1640 Y20.8599
G01 X13.1994 Y20.8208
G01 X15.7060 Y18.3141
G01 X15.7060 Y13.9503
G01 X15.6536 Y13.9114
G01 X15.5845 Y13.8488
G01 X15.5219 Y13.7797
G01 X15.4671 Y13.7058
G01 X15.4185 Y13.6248
G01 X15.3796 Y13.5428
G01 X15.3469 Y13.4516
G01 X15.3241 Y13.3599
G01 X15.3109 Y13.2701
G01 X15.3064 Y13.1795
G01 X15.3063 Y12.4770
G01 X15.3112 Y12.3814
G01 X15.3246 Y12.2917
G01 X15.3466 Y12.2036
G01 X15.3786 Y12.1135
G01 X15.4185 Y12.0292
G01 X15.4664 Y11.9492
G01 X15.5235 Y11.8725
G01 X15.5845 Y11.8052
G01 X15.6518 Y11.7442
G01 X15.7285 Y11.6871
G01 X15.8107 Y11.6381
G01 X15.8928 Y11.5993
G01 X15.9782 Y11.5687
G01 X16.0710 Y11.5453
G01 X16.1632 Y11.5316
G01 X16.2588 Y11.5271
G01 X16.3494 Y11.5316
G01 X16.4392 Y11.5448
G01 X16.5321 Y11.5679
G01 X16.6198 Y11.5993
G01 X16.7041 Y11.6392
G01 X16.7861 Y11.6885
G01 X16.8590 Y11.7426
G01 X16.9263 Y11.8036
G01 X16.9907 Y11.8743
G01 X17.0475 Y11.9513
G01 X17.0941 Y12.0292
G01 X17.1330 Y12.1112
G01 X17.1654 Y12.2012
G01 X17.1883 Y12.2929
G01 X17.2017 Y12.3839
G01 X17.2063 Y12.4758
G01 X17.2063 Y13.1770
G01 X17.2017 Y13.2701
G01 X17.1878 Y13.3635
G01 X17.1654 Y13.4528
G01 X17.1340 Y13.5405
G01 X17.0941 Y13.6248
G01 X17.0469 Y13.7038
G01 X16.9907 Y13.7797
G01 X16.9289 Y13.8479
G01 X16.8590 Y13.9114
G01 X16.8066 Y13.9503
G01 X16.8065 Y18.3141
G01 X29.3454 Y30.8529
G01 X29.3809 Y30.8920
G01 X29.4151 Y30.9384
G01 X29.4416 Y30.9826
G01 X29.4647 Y31.0314
G01 X29.4829 Y31.0823
G01 X29.4954 Y31.1323
G01 X29.5040 Y31.1893
G01 X29.5065 Y31.2420
G01 X29.5065 Y32.6277
G01 X29.5590 Y32.6666
G01 X29.6263 Y32.7276
G01 X29.6891 Y32.7965
G01 X29.7462 Y32.8732
G01 X29.7935 Y32.9521
G01 X29.8340 Y33.0375
G01 X29.8654 Y33.1252
G01 X29.8880 Y33.2157
G01 X29.9014 Y33.3054
G00 Z2.0000
G00 X36.6552 Y29.5057
G01 F60.00
G01 Z0.0000
G01 F500.00
G01 X42.5900 Y29.5057
G01 X42.6553 Y29.4340
G01 X42.7286 Y29.3673
G01 X42.7368 Y29.3602
G01 X42.7453 Y29.3536
G01 X42.8162 Y29.3010
G01 X42.8251 Y29.2948
G01 X42.8342 Y29.2890
G01 X42.9193 Y29.2382
G01 X42.9290 Y29.2334
G01 X43.0187 Y29.1913
G01 X43.1119 Y29.1576
G01 X43.1222 Y29.1542
G01 X43.1326 Y29.1513
G01 X43.2288 Y29.1275
G01 X43.3268 Y29.1127
G01 X43.3375 Y29.1114
G01 X43.3483 Y29.1106
G01 X43.4473 Y29.1060
G01 X43.5463 Y29.1106
G01 X43.5571 Y29.1114
G01 X43.5678 Y29.1127
G01 X43.6658 Y29.1275
G01 X43.7620 Y29.1513
G01 X43.7724 Y29.1542
G01 X43.7827 Y29.1576
G01 X43.8759 Y29.1913
G01 X43.9656 Y29.2334
G01 X43.9753 Y29.2382
G01 X43.9847 Y29.2436
G01 X44.0695 Y29.2948
G01 X44.1493 Y29.3536
G01 X44.1578 Y29.3602
G01 X44.1660 Y29.3673
G01 X44.2393 Y29.4340
G01 X44.3060 Y29.5073
G01 X44.3131 Y29.5155
G01 X44.3197 Y29.5240
G01 X44.3785 Y29.6038
G01 X44.4297 Y29.6886
G01 X44.4351 Y29.6980
G01 X44.4399 Y29.7077
G01 X44.4820 Y29.7974
G01 X44.5157 Y29.8906
G01 X44.5191 Y29.9009
G01 X44.5434 Y29.9970
G01 X44.5458 Y30.0075
G01 X44.5606 Y30.1055
G01 X44.5619 Y30.1162
G01 X44.5627 Y30.1270
G01 X44.5673 Y30.2260
G01 X44.5627 Y30.3250
G01 X44.5619 Y30.3358
G01 X44.5606 Y30.3465
G01 X44.5458 Y30.4445
G01 X44.5220 Y30.5407
G01 X44.5191 Y30.5511
G01 X44.5157 Y30.5614
G01 X44.4820 Y30.6546
G01 X44.4399 Y30.7443
G01 X44.4351 Y30.7540
G01 X44.4297 Y30.7634
G01 X44.3843 Y30.8391
G01 X44.3785 Y30.8482
G01 X44.3723 Y30.8571
G01 X44.3131 Y30.9365
G01 X44.3060 Y30.9447
G01 X44.2393 Y31.0180
G01 X44.1660 Y31.0847
G01 X44.1578 Y31.0918
G01 X44.0784 Y31.1510
G01 X44.0695 Y31.1572
G01 X43.9847 Y31.2084
G01 X43.9753 Y31.2138
G01 X43.8858 Y31.2564
G01 X43.8759 Y31.2607
G01 X43.8658 Y31.2646
G01 X43.7827 Y31.2944
G01 X43.7724 Y31.2978
G01 X43.7620 Y31.3007
G01 X43.6658 Y31.3245
G01 X43.5678 Y31.3393
G01 X43.5517 Y31.3411
G01 X43.4581 Y31.3457
G01 X43.4473 Y31.3460
G01 X43.4365 Y31.3457
G01 X43.3375 Y31.3406
G01 X43.2394 Y31.3263
G01 X43.2288 Y31.3245
G01 X43.2183 Y31.3221
G01 X43.1222 Y31.2978
G01 X43.1119 Y31.2944
G01 X43.0187 Y31.2607
G01 X42.9290 Y31.2186
G01 X42.9193 Y31.2138
G01 X42.8342 Y31.1630
G01 X42.8251 Y31.1572
G01 X42.8162 Y31.1510
G01 X42.7453 Y31.0984
G01 X42.7368 Y31.0918
G01 X42.7286 Y31.0847
G01 X42.6553 Y31.0180
G01 X42.5900 Y30.9463
G01 X36.6552 Y30.9463
G01 X36.5983 Y30.9800
G01 X36.5324 Y31.0115
G01 X36.5225 Y31.0159
G01 X36.5124 Y31.0198
G01 X36.4435 Y31.0442
G01 X36.3726 Y31.0622
G01 X36.3621 Y31.0646
G01 X36.3515 Y31.0664
G01 X36.2791 Y31.0769
G01 X36.2061 Y31.0807
G01 X36.1953 Y31.0810
G01 X36.1845 Y31.0807
G01 X36.1115 Y31.0769
G01 X36.0391 Y31.0664
G01 X36.0285 Y31.0646
G01 X36.0180 Y31.0622
G01 X35.9471 Y31.0442
G01 X35.8782 Y31.0198
G01 X35.8681 Y31.0159
G01 X35.8582 Y31.0115
G01 X35.7923 Y30.9800
G01 X35.7294 Y30.9427
G01 X35.7203 Y30.9369
G01 X35.7115 Y30.9307
G01 X35.6529 Y30.8869
G01 X35.5985 Y30.8380
G01 X35.5907 Y30.8306
G01 X35.5833 Y30.8228
G01 X35.5344 Y30.7684
G01 X35.4906 Y30.7098
G01 X35.4844 Y30.7010
G01 X35.4466 Y30.6384
G01 X35.4413 Y30.6290
G01 X35.4364 Y30.6194
G01 X35.4054 Y30.5532
G01 X35.4015 Y30.5431
G01 X35.3771 Y30.4742
G01 X35.3591 Y30.4033
G01 X35.3567 Y30.3928
G01 X35.3549 Y30.3822
G01 X35.3444 Y30.3098
G01 X35.3406 Y30.2368
G01 X35.3403 Y30.2260
G01 X35.3406 Y30.2152
G01 X35.3444 Y30.1422
G01 X35.3549 Y30.0698
G01 X35.3567 Y30.0592
G01 X35.3591 Y30.0487
G01 X35.3771 Y29.9778
G01 X35.3805 Y29.9676
G01 X35.4054 Y29.8988
G01 X35.4364 Y29.8326
G01 X35.4413 Y29.8230
G01 X35.4786 Y29.7601
G01 X35.4844 Y29.7510
G01 X35.4906 Y29.7422
G01 X35.5344 Y29.6836
G01 X35.5833 Y29.6292
G01 X35.5907 Y29.6214
G01 X35.5985 Y29.6140
G01 X35.6529 Y29.5651
G01 X35.7115 Y29.5213
G01 X35.7203 Y29.5151
G01 X35.7829 Y29.4773
G01 X35.7923 Y29.4720
G01 X35.8019 Y29.4671
G01 X35.8681 Y29.4361
G01 X35.8782 Y29.4322
G01 X35.9471 Y29.4078
G01 X36.0180 Y29.3898
G01 X36.0285 Y29.3874
G01 X36.0391 Y29.3856
G01 X36.1115 Y29.3751
G01 X36.1845 Y29.3713
G01 X36.1953 Y29.3710
G01 X36.2061 Y29.3713
G01 X36.2791 Y29.3751
G01 X36.3515 Y29.3856
G01 X36.3621 Y29.3874
G01 X36.3726 Y29.3898
G01 X36.4435 Y29.4078
G01 X36.4537 Y29.4112
G01 X36.5225 Y29.4361
G01 X36.5887 Y29.4671
G01 X36.5983 Y29.4720
G01 X36.6552 Y29.5057
G00 Z2.0000
G00 X43.4473 Y31.4162
G01 F60.00
G01 Z0.0000
G01 F500.00
G01 X43.1392 Y31.3757
G01 X42.8523 Y31.2567
G01 X42.5959 Y31.0601
G01 X42.5873 Y31.0538
G01 X42.5784 Y31.0479
G01 X42.5692 Y31.0425
G01 X42.5550 Y31.0352
G01 X42.5452 Y31.0309
G01 X42.5302 Y31.0254
G01 X42.5148 Y31.0210
G01 X42.5044 Y31.0187
G01 X42.4886 Y31.0162
G01 X42.4727 Y31.0149
G01 X42.4620 Y31.0146
G01 X36.7208 Y31.0147
G01 X36.7100 Y31.0152
G01 X36.6993 Y31.0163
G01 X36.6833 Y31.0188
G01 X36.6675 Y31.0226
G01 X36.6521 Y31.0275
G01 X36.6420 Y31.0314
G01 X36.4342 Y31.1175
G01 X36.1953 Y31.1489
G01 X35.9564 Y31.1175
G01 X35.7338 Y31.0252
G01 X35.5427 Y30.8786
G01 X35.3961 Y30.6875
G01 X35.3038 Y30.4649
G01 X35.2724 Y30.2260
G01 X35.3038 Y29.9871
G01 X35.3961 Y29.7645
G01 X35.5427 Y29.5734
G01 X35.7338 Y29.4268
G01 X35.9564 Y29.3345
G01 X36.1953 Y29.3031
G01 X36.4342 Y29.3345
G01 X36.6420 Y29.4206
G01 X36.6521 Y29.4245
G01 X36.6675 Y29.4294
G01 X36.6780 Y29.4321
G01 X36.6886 Y29.4342
G01 X36.7046 Y29.4363
G01 X36.7208 Y29.4373
G01 X42.4673 Y29.4373
G01 X42.4833 Y29.4364
G01 X42.4991 Y29.4342
G01 X42.5148 Y29.4310
G01 X42.5251 Y29.4282
G01 X42.5352 Y29.4249
G01 X42.5501 Y29.4190
G01 X42.5645 Y29.4120
G01 X42.5784 Y29.4041
G01 X42.5873 Y29.3982
G01 X42.5959 Y29.3919
G01 X42.8523 Y29.1953
G01 X43.1392 Y29.0763
G01 X43.4473 Y29.0358
G01 X43.7554 Y29.0763
G01 X44.0423 Y29.1953
G01 X44.2889 Y29.3844
G01 X44.4780 Y29.6310
G01 X44.5970 Y29.9179
G01 X44.6375 Y30.2260
G01 X44.5970 Y30.5341
G01 X44.4780 Y30.8210
G01 X44.2889 Y31.0676
G01 X44.0423 Y31.2567
G01 X43.7554 Y31.3757
G01 X43.4473 Y31.4162
G00 Z2.0000
G00 X43.4473 Y31.5019
G01 F60.00
G01 Z0.0000
G01 F500.00
G01 X43.1170 Y31.4585
G01 X42.8094 Y31.3310
G01 X42.5389 Y31.1236
G01 X42.5306 Y31.1183
G01 X42.5220 Y31.1137
G01 X42.5069 Y31.1073
G01 X42.4976 Y31.1044
G01 X42.4880 Y31.1021
G01 X42.4783 Y31.1006
G01 X42.4685 Y31.0998
G01 X36.7229 Y31.0996
G01 X36.7097 Y31.1006
G01 X36.6999 Y31.1022
G01 X36.6902 Y31.1045
G01 X36.6776 Y31.1087
G01 X36.4564 Y31.2003
G01 X36.1953 Y31.2346
G01 X35.9342 Y31.2003
G01 X35.6910 Y31.0995
G01 X35.4821 Y30.9392
G01 X35.3218 Y30.7303
G01 X35.2210 Y30.4871
G01 X35.1867 Y30.2260
G01 X35.2210 Y29.9649
G01 X35.3218 Y29.7217
G01 X35.4821 Y29.5128
G01 X35.6910 Y29.3525
G01 X35.9342 Y29.2517
G01 X36.1953 Y29.2174
G01 X36.4564 Y29.2517
G01 X36.6776 Y29.3433
G01 X36.6902 Y29.3475
G01 X36.6999 Y29.3498
G01 X36.7130 Y29.3517
G01 X36.7229 Y29.3524
G01 X42.4653 Y29.3524
G01 X42.4816 Y29.3510
G01 X42.4912 Y29.3492
G01 X42.5007 Y29.3467
G01 X42.5100 Y29.3436
G01 X42.5191 Y29.3398
G01 X42.5278 Y29.3353
G01 X42.5362 Y29.3302
G01 X42.5442 Y29.3245
G01 X42.8094 Y29.1210
G01 X43.1170 Y28.9935
G01 X43.4473 Y28.9501
G01 X43.7776 Y28.9935
G01 X44.0852 Y29.1210
G01 X44.3495 Y29.3238
G01 X44.5523 Y29.5881
G01 X44.6798 Y29.8957
G01 X44.7232 Y30.2260
G01 X44.6798 Y30.5563
G01 X44.5523 Y30.8639
G01 X44.3495 Y31.1282
G01 X44.0852 Y31.3310
G01 X43.7776 Y31.4585
G01 X43.4473 Y31.5019
G00 Z2.0000
G00 X43.4473 Y31.5877
G01 F60.00
G01 Z0.0000
G01 F500.00
G01 X43.0949 Y31.5413
G01 X42.7665 Y31.4052
G01 X42.4915 Y31.1942
G01 X42.4853 Y31.1904
G01 X42.4786 Y31.1875
G01 X42.4716 Y31.1855
G01 X42.4644 Y31.1847
G01 X36.7250 Y31.1846
G01 X36.7164 Y31.1856
G01 X36.7082 Y31.1880
G01 X36.4785 Y31.2831
G01 X36.1953 Y31.3204
G01 X35.9121 Y31.2831
G01 X35.6481 Y31.1737
G01 X35.4215 Y30.9998
G01 X35.2476 Y30.7732
G01 X35.1382 Y30.5092
G01 X35.1009 Y30.2260
G01 X35.1382 Y29.9428
G01 X35.2476 Y29.6788
G01 X35.4215 Y29.4522
G01 X35.6481 Y29.2783
G01 X35.9121 Y29.1689
G01 X36.1953 Y29.1316
G01 X36.4785 Y29.1689
G01 X36.7082 Y29.2640
G01 X36.7164 Y29.2664
G01 X36.7250 Y29.2674
G01 X42.4632 Y29.2674
G01 X42.4704 Y29.2667
G01 X42.4775 Y29.2649
G01 X42.4853 Y29.2616
G01 X42.4915 Y29.2578
G01 X42.7665 Y29.0468
G01 X43.0949 Y28.9107
G01 X43.4473 Y28.8643
G01 X43.7997 Y28.9107
G01 X44.1281 Y29.0468
G01 X44.4101 Y29.2632
G01 X44.6265 Y29.5452
G01 X44.7626 Y29.8736
G01 X44.8090 Y30.2260
G01 X44.7626 Y30.5784
G01 X44.6265 Y30.9068
G01 X44.4101 Y31.1888
G01 X44.1281 Y31.4052
G01 X43.7997 Y31.5413
G01 X43.4473 Y31.5877
G00 Z2.0000
G00 X44.3924 Y30.1304
G01 F60.00
G01 Z0.0000
G01 F500.00
G01 X44.3973 Y30.2260
G01 X44.3927 Y30.3191
G01 X44.3790 Y30.4113
G01 X44.3564 Y30.5018
G01 X44.3250 Y30.5895
G01 X44.2851 Y30.6738
G01 X44.2372 Y30.7538
G01 X44.1801 Y30.8305
G01 X44.1191 Y30.8978
G01 X44.0518 Y30.9588
G01 X43.9771 Y31.0145
G01 X43.8951 Y31.0638
G01 X43.8131 Y31.1027
G01 X43.7231 Y31.1351
G01 X43.6326 Y31.1577
G01 X43.5404 Y31.1714
G01 X43.4473 Y31.1760
G01 X43.3542 Y31.1714
G01 X43.2596 Y31.1572
G01 X43.1715 Y31.1351
G01 X43.0860 Y31.1046
G01 X43.0006 Y31.0644
G01 X42.9195 Y31.0159
G01 X42.8437 Y30.9596
G01 X42.7739 Y30.8960
G01 X42.7129 Y30.8287
G01 X42.6740 Y30.7763
G01 X36.6020 Y30.7763
G01 X36.5748 Y30.7962
G01 X36.5171 Y30.8307
G01 X36.4574 Y30.8589
G01 X36.3930 Y30.8818
G01 X36.3289 Y30.8978
G01 X36.2624 Y30.9077
G01 X36.1953 Y30.9110
G01 X36.1269 Y30.9076
G01 X36.0617 Y30.8978
G01 X35.9965 Y30.8815
G01 X35.9332 Y30.8589
G01 X35.8724 Y30.8301
G01 X35.8147 Y30.7956
G01 X35.7607 Y30.7555
G01 X35.7109 Y30.7104
G01 X35.6674 Y30.6624
G01 X35.6257 Y30.6066
G01 X35.5924 Y30.5510
G01 X35.5616 Y30.4858
G01 X35.5398 Y30.4248
G01 X35.5235 Y30.3596
G01 X35.5136 Y30.2931
G01 X35.5103 Y30.2260
G01 X35.5136 Y30.1589
G01 X35.5235 Y30.0924
G01 X35.5398 Y30.0272
G01 X35.5616 Y29.9662
G01 X35.5912 Y29.9031
G01 X35.6244 Y29.8475
G01 X35.6674 Y29.7896
G01 X35.7109 Y29.7416
G01 X35.7607 Y29.6965
G01 X35.8147 Y29.6564
G01 X35.8724 Y29.6219
G01 X35.9332 Y29.5931
G01 X35.9965 Y29.5705
G01 X36.0617 Y29.5542
G01 X36.1269 Y29.5444
G01 X36.1953 Y29.5410
G01 X36.2624 Y29.5443
G01 X36.3289 Y29.5542
G01 X36.3930 Y29.5702
G01 X36.4574 Y29.5931
G01 X36.5171 Y29.6213
G01 X36.5748 Y29.6558
G01 X36.6020 Y29.6757
G01 X42.6740 Y29.6757
G01 X42.7129 Y29.6233
G01 X42.7739 Y29.5560
G01 X42.8437 Y29.4924
G01 X42.9195 Y29.4361
G01 X43.0006 Y29.3876
G01 X43.0860 Y29.3474
G01 X43.1715 Y29.3169
G01 X43.2596 Y29.2948
G01 X43.3542 Y29.2806
G01 X43.4473 Y29.2760
G01 X43.5404 Y29.2806
G01 X43.6326 Y29.2943
G01 X43.7231 Y29.3169
G01 X43.8086 Y29.3474
G01 X43.8973 Y29.3894
G01 X43.9751 Y29.4361
G01 X44.0518 Y29.4932
G01 X44.1191 Y29.5542
G01 X44.1817 Y29.6233
G01 X44.2372 Y29.6982
G01 X44.2851 Y29.7782
G01 X44.3250 Y29.8625
G01 X44.3564 Y29.9502
G01 X44.3790 Y30.0407
G01 X44.3924 Y30.1304
G00 Z2.0000
G00 X44.4765 Y30.1180
G01 F60.00
G01 Z0.0000
G01 F500.00
G01 X44.4778 Y30.1312
G01 X44.4823 Y30.2260
G01 X44.4773 Y30.3274
G01 X44.4624 Y30.4279
G01 X44.4377 Y30.5264
G01 X44.4035 Y30.6221
G01 X44.3601 Y30.7139
G01 X44.3079 Y30.8010
G01 X44.2514 Y30.8774
G01 X44.2430 Y30.8876
G01 X44.1792 Y30.9579
G01 X44.1089 Y31.0217
G01 X44.0987 Y31.0301
G01 X44.0277 Y31.0828
G01 X44.0167 Y31.0901
G01 X43.9352 Y31.1388
G01 X43.8494 Y31.1795
G01 X43.8372 Y31.1846
G01 X43.7477 Y31.2164
G01 X43.6492 Y31.2411
G01 X43.5487 Y31.2560
G01 X43.4473 Y31.2610
G01 X43.3459 Y31.2560
G01 X43.2519 Y31.2422
G01 X43.2389 Y31.2397
G01 X43.1469 Y31.2164
G01 X43.0574 Y31.1846
G01 X43.0452 Y31.1795
G01 X42.9623 Y31.1403
G01 X42.9536 Y31.1355
G01 X42.8723 Y31.0866
G01 X42.7959 Y31.0301
G01 X42.7882 Y31.0239
G01 X42.7202 Y30.9624
G01 X42.7131 Y30.9555
G01 X42.6494 Y30.8851
G01 X42.6312 Y30.8613
G01 X36.6301 Y30.8613
G01 X36.6175 Y30.8698
G01 X36.5640 Y30.9018
G01 X36.5524 Y30.9081
G01 X36.4900 Y30.9374
G01 X36.4251 Y30.9608
G01 X36.4124 Y30.9646
G01 X36.3455 Y30.9812
G01 X36.2708 Y30.9923
G01 X36.1953 Y30.9960
G01 X36.1264 Y30.9928
G01 X36.1165 Y30.9919
G01 X36.0451 Y30.9812
G01 X35.9718 Y30.9628
G01 X35.9006 Y30.9374
G01 X35.8323 Y30.9051
G01 X35.7675 Y30.8662
G01 X35.7068 Y30.8212
G01 X35.6508 Y30.7705
G01 X35.6044 Y30.7195
G01 X35.5960 Y30.7093
G01 X35.5551 Y30.6538
G01 X35.5195 Y30.5947
G01 X35.5132 Y30.5831
G01 X35.4866 Y30.5267
G01 X35.4815 Y30.5145
G01 X35.4585 Y30.4495
G01 X35.4401 Y30.3762
G01 X35.4290 Y30.3015
G01 X35.4253 Y30.2260
G01 X35.4290 Y30.1505
G01 X35.4401 Y30.0758
G01 X35.4585 Y30.0025
G01 X35.4815 Y29.9375
G01 X35.4866 Y29.9253
G01 X35.5162 Y29.8630
G01 X35.5515 Y29.8038
G01 X35.5589 Y29.7928
G01 X35.5960 Y29.7427
G01 X35.6044 Y29.7325
G01 X35.6508 Y29.6815
G01 X35.7068 Y29.6308
G01 X35.7675 Y29.5858
G01 X35.8323 Y29.5469
G01 X35.9006 Y29.5146
G01 X35.9718 Y29.4892
G01 X36.0451 Y29.4708
G01 X36.1165 Y29.4601
G01 X36.1264 Y29.4592
G01 X36.1953 Y29.4560
G01 X36.2708 Y29.4597
G01 X36.3455 Y29.4708
G01 X36.4124 Y29.4874
G01 X36.4251 Y29.4912
G01 X36.4900 Y29.5146
G01 X36.5524 Y29.5439
G01 X36.5640 Y29.5502
G01 X36.6175 Y29.5822
G01 X36.6301 Y29.5907
G01 X42.6312 Y29.5907
G01 X42.6494 Y29.5669
G01 X42.7131 Y29.4965
G01 X42.7202 Y29.4896
G01 X42.7882 Y29.4281
G01 X42.7959 Y29.4219
G01 X42.8723 Y29.3654
G01 X42.9536 Y29.3165
G01 X42.9623 Y29.3117
G01 X43.0452 Y29.2725
G01 X43.0574 Y29.2674
G01 X43.1469 Y29.2356
G01 X43.2389 Y29.2123
G01 X43.2519 Y29.2098
G01 X43.3459 Y29.1960
G01 X43.4473 Y29.1910
G01 X43.5487 Y29.1960
G01 X43.6492 Y29.2109
G01 X43.7477 Y29.2356
G01 X43.8372 Y29.2674
G01 X43.8494 Y29.2725
G01 X43.9293 Y29.3102
G01 X43.9410 Y29.3165
G01 X44.0223 Y29.3654
G01 X44.0987 Y29.4219
G01 X44.1089 Y29.4303
G01 X44.1792 Y29.4941
G01 X44.2474 Y29.5694
G01 X44.3079 Y29.6510
G01 X44.3601 Y29.7381
G01 X44.4035 Y29.8299
G01 X44.4377 Y29.9256
G01 X44.4624 Y30.0241
G01 X44.4765 Y30.1180
G00 Z2.0000
G00 X49.6433 Y33.7937
G01 F60.00
G01 Z0.0000
G01 F500.00
G01 X49.6456 Y33.8006
G01 X49.6469 Y33.8079
G01 X49.6470 Y33.8153
G01 X49.6461 Y33.8226
G01 X49.6442 Y33.8296
G01 X49.6412 Y33.8364
G01 X49.6373 Y33.8426
G01 X49.6325 Y33.8482
G01 X46.9498 Y36.5308
G01 X46.8956 Y36.6014
G01 X46.8898 Y36.6077
G01 X46.8851 Y36.6116
G01 X46.8799 Y36.6148
G01 X46.8744 Y36.6174
G01 X46.8687 Y36.6193
G01 X46.8627 Y36.6205
G01 X46.8566 Y36.6210
G01 X46.8505 Y36.6207
G01 X46.8445 Y36.6197
G01 X46.7117 Y36.5748
G01 X46.7061 Y36.5724
G01 X46.7009 Y36.5693
G01 X46.6960 Y36.5656
G01 X46.6925 Y36.5622
G01 X46.6866 Y36.5545
G01 X46.6822 Y36.5458
G01 X46.6796 Y36.5364
G01 X46.6789 Y36.5279
G01 X46.6789 Y35.9766
G01 X46.6796 Y35.9693
G01 X46.6818 Y35.9610
G01 X46.6854 Y35.9532
G01 X46.6895 Y35.9470
G01 X46.6935 Y35.9424
G01 X48.9767 Y33.6593
G01 X48.9834 Y33.6539
G01 X48.9921 Y33.6493
G01 X49.0002 Y33.6467
G01 X49.0100 Y33.6455
G01 X49.5485 Y33.6455
G01 X49.5583 Y33.6465
G01 X49.5642 Y33.6480
G01 X49.5688 Y33.6498
G01 X49.5731 Y33.6520
G01 X49.5783 Y33.6553
G01 X49.5821 Y33.6585
G01 X49.5864 Y33.6628
G01 X49.5920 Y33.6709
G01 X49.5947 Y33.6764
G01 X49.6433 Y33.7937
G00 Z2.0000
G00 X49.7218 Y33.7611
G01 F60.00
G01 Z0.0000
G01 F500.00
G01 X49.7253 Y33.7704
G01 X49.7281 Y33.7800
G01 X49.7301 Y33.7897
G01 X49.7314 Y33.7996
G01 X49.7321 Y33.8095
G01 X49.7319 Y33.8194
G01 X49.7301 Y33.8359
G01 X49.7281 Y33.8456
G01 X49.7253 Y33.8551
G01 X49.7218 Y33.8645
G01 X49.7177 Y33.8735
G01 X49.7129 Y33.8822
G01 X49.7075 Y33.8905
G01 X49.7015 Y33.8984
G01 X49.6949 Y33.9059
G01 X47.0138 Y36.5870
G01 X46.9609 Y36.6558
G01 X46.9545 Y36.6632
G01 X46.9475 Y36.6702
G01 X46.9347 Y36.6806
G01 X46.9237 Y36.6878
G01 X46.9120 Y36.6938
G01 X46.8966 Y36.6997
G01 X46.8807 Y36.7037
G01 X46.8677 Y36.7055
G01 X46.8512 Y36.7059
G01 X46.8349 Y36.7043
G01 X46.8252 Y36.7025
G01 X46.8125 Y36.6988
G01 X46.6855 Y36.6557
G01 X46.6763 Y36.6522
G01 X46.6644 Y36.6465
G01 X46.6532 Y36.6397
G01 X46.6427 Y36.6318
G01 X46.6307 Y36.6205
G01 X46.6221 Y36.6105
G01 X46.6146 Y36.5997
G01 X46.6081 Y36.5882
G01 X46.6040 Y36.5792
G01 X46.6006 Y36.5700
G01 X46.5971 Y36.5573
G01 X46.5949 Y36.5443
G01 X46.5939 Y36.5312
G01 X46.5941 Y35.9712
G01 X46.5949 Y35.9613
G01 X46.5965 Y35.9515
G01 X46.5988 Y35.9418
G01 X46.6018 Y35.9323
G01 X46.6055 Y35.9231
G01 X46.6098 Y35.9142
G01 X46.6148 Y35.9056
G01 X46.6205 Y35.8974
G01 X46.6267 Y35.8896
G01 X46.6334 Y35.8823
G01 X48.9205 Y33.5955
G01 X48.9308 Y33.5871
G01 X48.9390 Y33.5814
G01 X48.9476 Y33.5764
G01 X48.9595 Y33.5708
G01 X48.9720 Y33.5663
G01 X48.9816 Y33.5638
G01 X48.9947 Y33.5615
G01 X49.0046 Y33.5607
G01 X49.5485 Y33.5605
G01 X49.5617 Y33.5612
G01 X49.5748 Y33.5631
G01 X49.5877 Y33.5663
G01 X49.6002 Y33.5708
G01 X49.6121 Y33.5764
G01 X49.6207 Y33.5814
G01 X49.6289 Y33.5871
G01 X49.6392 Y33.5955
G01 X49.6485 Y33.6048
G01 X49.6569 Y33.6151
G01 X49.6660 Y33.6289
G01 X49.6719 Y33.6408
G01 X49.7218 Y33.7611
G00 Z2.0000
G00 X49.8003 Y33.7286
G01 F60.00
G01 Z0.0000
G01 F500.00
G01 X49.8060 Y33.7438
G01 X49.8105 Y33.7593
G01 X49.8139 Y33.7752
G01 X49.8160 Y33.7912
G01 X49.8170 Y33.8074
G01 X49.8168 Y33.8236
G01 X49.8154 Y33.8397
G01 X49.8129 Y33.8557
G01 X49.8091 Y33.8715
G01 X49.8042 Y33.8869
G01 X49.7982 Y33.9019
G01 X49.7911 Y33.9165
G01 X49.7830 Y33.9305
G01 X49.7738 Y33.9439
G01 X49.7672 Y33.9524
G01 X49.7564 Y33.9645
G01 X47.0778 Y36.6432
G01 X47.0271 Y36.7092
G01 X47.0165 Y36.7213
G01 X47.0051 Y36.7327
G01 X46.9971 Y36.7397
G01 X46.9887 Y36.7464
G01 X46.9800 Y36.7527
G01 X46.9664 Y36.7613
G01 X46.9570 Y36.7664
G01 X46.9473 Y36.7711
G01 X46.9375 Y36.7753
G01 X46.9223 Y36.7807
G01 X46.9120 Y36.7837
G01 X46.9016 Y36.7862
G01 X46.8910 Y36.7882
G01 X46.8751 Y36.7902
G01 X46.8644 Y36.7908
G01 X46.8483 Y36.7909
G01 X46.8376 Y36.7902
G01 X46.8269 Y36.7891
G01 X46.8163 Y36.7874
G01 X46.8058 Y36.7852
G01 X46.7903 Y36.7810
G01 X46.6582 Y36.7362
G01 X46.6432 Y36.7305
G01 X46.6286 Y36.7237
G01 X46.6192 Y36.7186
G01 X46.6100 Y36.7130
G01 X46.6011 Y36.7070
G01 X46.5884 Y36.6972
G01 X46.5803 Y36.6901
G01 X46.5725 Y36.6827
G01 X46.5652 Y36.6749
G01 X46.5582 Y36.6667
G01 X46.5517 Y36.6582
G01 X46.5426 Y36.6449
G01 X46.5371 Y36.6357
G01 X46.5321 Y36.6262
G01 X46.5254 Y36.6116
G01 X46.5216 Y36.6016
G01 X46.5183 Y36.5914
G01 X46.5154 Y36.5810
G01 X46.5131 Y36.5705
G01 X46.5105 Y36.5547
G01 X46.5095 Y36.5440
G01 X46.5090 Y36.5333
G01 X46.5089 Y35.9778
G01 X46.5095 Y35.9616
G01 X46.5106 Y35.9509
G01 X46.5131 Y35.9349
G01 X46.5169 Y35.9191
G01 X46.5218 Y35.9037
G01 X46.5278 Y35.8886
G01 X46.5349 Y35.8741
G01 X46.5430 Y35.8601
G01 X46.5522 Y35.8467
G01 X46.5623 Y35.8341
G01 X46.5733 Y35.8222
G01 X48.8556 Y33.5399
G01 X48.8635 Y33.5325
G01 X48.8758 Y33.5221
G01 X48.8845 Y33.5156
G01 X48.8935 Y33.5096
G01 X48.9075 Y33.5015
G01 X48.9220 Y33.4944
G01 X48.9320 Y33.4902
G01 X48.9422 Y33.4866
G01 X48.9577 Y33.4821
G01 X48.9736 Y33.4787
G01 X48.9843 Y33.4772
G01 X48.9950 Y33.4761
G01 X49.0112 Y33.4755
G01 X49.5485 Y33.4755
G01 X49.5593 Y33.4758
G01 X49.5701 Y33.4766
G01 X49.5808 Y33.4779
G01 X49.5914 Y33.4797
G01 X49.6072 Y33.4835
G01 X49.6175 Y33.4866
G01 X49.6277 Y33.4902
G01 X49.6376 Y33.4944
G01 X49.6474 Y33.4990
G01 X49.6616 Y33.5068
G01 X49.6752 Y33.5156
G01 X49.6838 Y33.5221
G01 X49.6922 Y33.5289
G01 X49.7002 Y33.5362
G01 X49.7078 Y33.5438
G01 X49.7186 Y33.5559
G01 X49.7252 Y33.5644
G01 X49.7344 Y33.5778
G01 X49.7425 Y33.5918
G01 X49.7474 Y33.6014
G01 X49.8003 Y33.7286
G00 Z2.0000
G00 X51.9452 Y33.1681
G01 F60.00
G01 Z0.0000
G01 F500.00
G01 X51.9451 Y33.4426
G01 X51.9425 Y33.4953
G01 X51.9346 Y33.5487
G01 X51.9207 Y33.6035
G01 X51.9033 Y33.6520
G01 X51.8813 Y33.6986
G01 X51.8524 Y33.7471
G01 X51.8195 Y33.7914
G01 X51.7840 Y33.8305
G01 X48.1756 Y37.4389
G01 X48.1755 Y68.0720
G01 X48.1730 Y68.1247
G01 X48.1650 Y68.1793
G01 X48.1525 Y68.2294
G01 X48.1327 Y68.2848
G01 X48.1106 Y68.3314
G01 X48.0828 Y68.3777
G01 X48.0506 Y68.4211
G01 X48.0161 Y68.4593
G01 X45.8896 Y70.5859
G01 X45.8895 Y75.5393
G01 X45.9095 Y75.5665
G01 X45.9440 Y75.6242
G01 X45.9722 Y75.6839
G01 X45.9951 Y75.7483
G01 X46.0111 Y75.8124
G01 X46.0210 Y75.8789
G01 X46.0243 Y75.9460
G01 X46.0209 Y76.0144
G01 X46.0111 Y76.0796
G01 X45.9948 Y76.1448
G01 X45.9722 Y76.2081
G01 X45.9434 Y76.2689
G01 X45.9089 Y76.3266
G01 X45.8688 Y76.3806
G01 X45.8237 Y76.4304
G01 X45.7719 Y76.4770
G01 X45.7199 Y76.5156
G01 X45.6600 Y76.5512
G01 X45.5991 Y76.5797
G01 X45.5381 Y76.6015
G01 X45.4753 Y76.6173
G01 X45.4064 Y76.6277
G01 X45.3393 Y76.6310
G01 X45.2722 Y76.6277
G01 X45.2081 Y76.6183
G01 X45.1381 Y76.6007
G01 X45.0772 Y76.5789
G01 X45.0164 Y76.5501
G01 X44.9587 Y76.5156
G01 X44.9067 Y76.4770
G01 X44.8532 Y76.4286
G01 X44.8098 Y76.3806
G01 X44.7697 Y76.3266
G01 X44.7352 Y76.2689
G01 X44.7074 Y76.2104
G01 X44.6831 Y76.1425
G01 X44.6675 Y76.0796
G01 X44.6575 Y76.0119
G01 X44.6543 Y75.9460
G01 X44.6576 Y75.8789
G01 X44.6675 Y75.8124
G01 X44.6835 Y75.7483
G01 X44.7064 Y75.6839
G01 X44.7346 Y75.6242
G01 X44.7691 Y75.5665
G01 X44.7890 Y75.5393
G01 X44.7890 Y70.3580
G01 X44.7917 Y70.3041
G01 X44.7999 Y70.2495
G01 X44.8127 Y70.1983
G01 X44.8301 Y70.1497
G01 X44.8540 Y70.0986
G01 X44.8832 Y70.0503
G01 X44.9140 Y70.0089
G01 X44.9494 Y69.9698
G01 X47.0750 Y67.8441
G01 X47.0750 Y37.2110
G01 X47.0777 Y37.1571
G01 X47.0854 Y37.1049
G01 X47.0995 Y37.0489
G01 X47.1169 Y37.0004
G01 X47.1400 Y36.9516
G01 X47.1692 Y36.9033
G01 X47.2000 Y36.8619
G01 X47.2354 Y36.8228
G01 X50.8446 Y33.2135
G01 X50.8446 Y32.9350
G01 X50.7990 Y32.8845
G01 X50.7406 Y32.8056
G01 X50.6914 Y32.7235
G01 X50.6495 Y32.6348
G01 X50.6173 Y32.5447
G01 X50.5938 Y32.4507
G01 X50.5796 Y32.3548
G01 X50.5748 Y32.2592
G01 X50.5796 Y32.1612
G01 X50.5934 Y32.0678
G01 X50.6181 Y31.9690
G01 X50.6500 Y31.8801
G01 X50.6914 Y31.7925
G01 X50.7412 Y31.7094
G01 X50.7990 Y31.6315
G01 X50.8640 Y31.5597
G01 X50.9378 Y31.4931
G01 X51.0157 Y31.4356
G01 X51.0968 Y31.3871
G01 X51.1822 Y31.3467
G01 X51.2756 Y31.3130
G01 X51.3696 Y31.2895
G01 X51.4655 Y31.2753
G01 X51.5598 Y31.2706
G01 X51.5712 Y31.2709
G01 X52.9170 Y29.9251
G01 X52.9170 Y26.3899
G01 X50.5478 Y24.0207
G01 X50.4991 Y24.0327
G01 X50.3956 Y24.0480
G01 X50.2923 Y24.0530
G01 X50.1866 Y24.0477
G01 X50.0843 Y24.0325
G01 X49.9829 Y24.0071
G01 X49.8844 Y23.9719
G01 X49.7887 Y23.9265
G01 X49.7001 Y23.8733
G01 X49.6160 Y23.8110
G01 X49.5385 Y23.7408
G01 X49.4683 Y23.6633
G01 X49.4060 Y23.5792
G01 X49.3522 Y23.4895
G01 X49.3074 Y23.3949
G01 X49.2730 Y23.2988
G01 X49.2468 Y23.1950
G01 X49.2314 Y23.0915
G01 X49.2263 Y22.9870
G01 X49.2314 Y22.8825
G01 X49.2468 Y22.7790
G01 X49.2722 Y22.6776
G01 X49.3074 Y22.5791
G01 X49.3534 Y22.4824
G01 X49.4060 Y22.3948
G01 X49.4668 Y22.3127
G01 X49.5368 Y22.2350
G01 X49.6160 Y22.1630
G01 X49.6981 Y22.1021
G01 X49.7898 Y22.0469
G01 X49.8844 Y22.0021
G01 X49.9829 Y21.9669
G01 X50.0855 Y21.9413
G01 X50.1903 Y21.9260
G01 X50.2923 Y21.9210
G01 X50.3943 Y21.9260
G01 X50.5003 Y21.9415
G01 X50.6017 Y21.9669
G01 X50.7025 Y22.0031
G01 X50.7948 Y22.0469
G01 X50.8825 Y22.0993
G01 X50.9686 Y22.1630
G01 X51.0469 Y22.2341
G01 X51.1178 Y22.3127
G01 X51.1786 Y22.3948
G01 X51.2312 Y22.4824
G01 X51.2772 Y22.5791
G01 X51.3127 Y22.6787
G01 X51.3382 Y22.7815
G01 X51.3532 Y22.8825
G01 X51.3583 Y22.9858
G01 X51.3530 Y23.0927
G01 X51.3380 Y23.1938
G01 X51.3260 Y23.2425
G01 X53.8572 Y25.7738
G01 X53.8926 Y25.8129
G01 X53.9234 Y25.8543
G01 X53.9526 Y25.9026
G01 X53.9757 Y25.9514
G01 X53.9931 Y25.9999
G01 X54.0072 Y26.0559
G01 X54.0149 Y26.1081
G01 X54.0175 Y26.1620
G01 X54.0175 Y30.1530
G01 X54.0146 Y30.2094
G01 X54.0070 Y30.2603
G01 X53.9942 Y30.3116
G01 X53.9757 Y30.3636
G01 X53.9514 Y30.4145
G01 X53.9248 Y30.4587
G01 X53.8942 Y30.5001
G01 X53.8572 Y30.5412
G01 X52.4862 Y31.9123
G01 X52.5073 Y31.9713
G01 X52.5310 Y32.0666
G01 X52.5450 Y32.1612
G01 X52.5498 Y32.2592
G01 X52.5450 Y32.3548
G01 X52.5308 Y32.4507
G01 X52.5073 Y32.5447
G01 X52.4741 Y32.6370
G01 X52.4332 Y32.7235
G01 X52.3834 Y32.8066
G01 X52.3256 Y32.8845
G01 X52.2606 Y32.9563
G01 X52.1888 Y33.0213
G01 X52.1109 Y33.0791
G01 X52.0278 Y33.1289
G01 X51.9452 Y33.1681
G00 Z2.0000
G00 X50.5217 Y24.1148
G01 F60.00
G01 Z0.0000
G01 F500.00
G01 X50.5103 Y24.1170
G01 X50.4051 Y24.1325
G01 X50.2923 Y24.1380
G01 X50.1795 Y24.1325
G01 X50.0678 Y24.1159
G01 X49.9582 Y24.0884
G01 X49.8518 Y24.0504
G01 X49.7497 Y24.0021
G01 X49.6528 Y23.9440
G01 X49.5621 Y23.8767
G01 X49.4784 Y23.8009
G01 X49.4026 Y23.7172
G01 X49.3353 Y23.6265
G01 X49.2772 Y23.5296
G01 X49.2289 Y23.4275
G01 X49.1909 Y23.3211
G01 X49.1634 Y23.2115
G01 X49.1468 Y23.0998
G01 X49.1413 Y22.9870
G01 X49.1468 Y22.8742
G01 X49.1634 Y22.7625
G01 X49.1909 Y22.6529
G01 X49.2289 Y22.5465
G01 X49.2772 Y22.4444
G01 X49.3353 Y22.3475
G01 X49.4026 Y22.2568
G01 X49.4784 Y22.1731
G01 X49.5621 Y22.0973
G01 X49.6528 Y22.0300
G01 X49.7497 Y21.9719
G01 X49.8518 Y21.9236
G01 X49.9582 Y21.8856
G01 X50.0678 Y21.8581
G01 X50.1795 Y21.8415
G01 X50.2857 Y21.8362
G01 X50.2989 Y21.8362
G01 X50.4051 Y21.8415
G01 X50.5103 Y21.8570
G01 X50.5233 Y21.8596
G01 X50.6264 Y21.8856
G01 X50.7328 Y21.9236
G01 X50.8290 Y21.9689
G01 X50.8406 Y21.9752
G01 X50.9318 Y22.0300
G01 X51.0173 Y22.0932
G01 X51.0275 Y22.1016
G01 X51.1062 Y22.1731
G01 X51.1777 Y22.2518
G01 X51.1861 Y22.2620
G01 X51.2493 Y22.3475
G01 X51.3041 Y22.4387
G01 X51.3104 Y22.4503
G01 X51.3557 Y22.5465
G01 X51.3937 Y22.6529
G01 X51.4197 Y22.7560
G01 X51.4223 Y22.7690
G01 X51.4378 Y22.8742
G01 X51.4431 Y22.9804
G01 X51.4431 Y22.9936
G01 X51.4378 Y23.0998
G01 X51.4223 Y23.2050
G01 X51.4201 Y23.2164
G01 X53.9165 Y25.7128
G01 X53.9584 Y25.7590
G01 X53.9917 Y25.8037
G01 X53.9990 Y25.8147
G01 X54.0243 Y25.8568
G01 X54.0305 Y25.8685
G01 X54.0515 Y25.9128
G01 X54.0566 Y25.9251
G01 X54.0752 Y25.9776
G01 X54.0889 Y26.0316
G01 X54.0915 Y26.0446
G01 X54.0995 Y26.0997
G01 X54.1025 Y26.1587
G01 X54.1025 Y30.1530
G01 X54.0995 Y30.2153
G01 X54.0903 Y30.2769
G01 X54.0770 Y30.3310
G01 X54.0731 Y30.3437
G01 X54.0542 Y30.3961
G01 X54.0275 Y30.4525
G01 X53.9990 Y30.5003
G01 X53.9917 Y30.5113
G01 X53.9624 Y30.5508
G01 X53.9562 Y30.5585
G01 X53.9165 Y30.6022
G01 X52.5844 Y31.9343
G01 X52.5876 Y31.9435
G01 X52.5904 Y31.9531
G01 X52.6127 Y32.0423
G01 X52.6153 Y32.0553
G01 X52.6296 Y32.1529
G01 X52.6346 Y32.2514
G01 X52.6346 Y32.2646
G01 X52.6296 Y32.3631
G01 X52.6142 Y32.4672
G01 X52.5886 Y32.5693
G01 X52.5555 Y32.6622
G01 X52.5505 Y32.6745
G01 X52.5082 Y32.7636
G01 X52.4541 Y32.8538
G01 X52.3914 Y32.9384
G01 X52.3230 Y33.0140
G01 X52.3159 Y33.0209
G01 X52.2427 Y33.0871
G01 X52.1609 Y33.1479
G01 X52.1526 Y33.1533
G01 X52.0708 Y33.2023
G01 X52.0620 Y33.2068
G01 X52.0302 Y33.2219
G01 X52.0300 Y33.4480
G01 X52.0271 Y33.5037
G01 X52.0191 Y33.5588
G01 X52.0173 Y33.5686
G01 X52.0046 Y33.6194
G01 X52.0007 Y33.6321
G01 X51.9818 Y33.6845
G01 X51.9581 Y33.7349
G01 X51.9519 Y33.7466
G01 X51.9231 Y33.7943
G01 X51.8860 Y33.8444
G01 X51.8441 Y33.8906
