(G-CODE GENERATED BY FLATCAM v8.994 - www.flatcam.org - Version Date: 2020/11/7)

(Name: Controle_Motor.TXT_cnc)
(Type: G-code from Geometry)
(Units: MM)

(Created on Wednesday, 11 August 2021 at 20:07)

(This preprocessor is the default preprocessor used by FlatCAM.)
(It is made to work with MACH3 compatible motion controllers.)


(TOOLS DIAMETER: )
(Tool: 1 -> Dia: 0.7112)
(Tool: 2 -> Dia: 0.76)
(Tool: 3 -> Dia: 0.9)
(Tool: 4 -> Dia: 1.0)
(Tool: 5 -> Dia: 1.1)
(Tool: 6 -> Dia: 1.38)
(Tool: 7 -> Dia: 3.0)

(FEEDRATE Z: )
(Tool: 1 -> Feedrate: 300.0)
(Tool: 2 -> Feedrate: 300.0)
(Tool: 3 -> Feedrate: 300)
(Tool: 4 -> Feedrate: 300)
(Tool: 5 -> Feedrate: 300)
(Tool: 6 -> Feedrate: 300)
(Tool: 7 -> Feedrate: 300)

(FEEDRATE RAPIDS: )
(Tool: 1 -> Feedrate Rapids: 1500)
(Tool: 2 -> Feedrate Rapids: 1500)
(Tool: 3 -> Feedrate Rapids: 1500)
(Tool: 4 -> Feedrate Rapids: 1500)
(Tool: 5 -> Feedrate Rapids: 1500)
(Tool: 6 -> Feedrate Rapids: 1500)
(Tool: 7 -> Feedrate Rapids: 1500)

(Z_CUT: )
(Tool: 1 -> Z_Cut: -3.0)
(Tool: 2 -> Z_Cut: -3.0)
(Tool: 3 -> Z_Cut: -1.7)
(Tool: 4 -> Z_Cut: -1.7)
(Tool: 5 -> Z_Cut: -1.7)
(Tool: 6 -> Z_Cut: -1.7)
(Tool: 7 -> Z_Cut: -1.7)

(Tools Offset: )
(Tool: 1 -> Offset Z: 0.0)
(Tool: 2 -> Offset Z: 0.0)

(Z_MOVE: )
(Tool: 1 -> Z_Move: 2.0)
(Tool: 2 -> Z_Move: 2.0)
(Tool: 3 -> Z_Move: 2)
(Tool: 4 -> Z_Move: 2)
(Tool: 5 -> Z_Move: 2)
(Tool: 6 -> Z_Move: 2)
(Tool: 7 -> Z_Move: 2)

(Z Toolchange: 20.0 mm)
(X,Y Toolchange: 0.0000, 0.0000 mm)
(Z Start: None mm)
(Z End: 0.5 mm)
(X,Y End: None mm)
(Steps per circle: 64)
(Preprocessor Excellon: default)

(X range:    1.8022 ...   57.3802  mm)
(Y range:    2.1830 ...  118.0860  mm)

(Spindle Speed: 1000 RPM)
G21
G90
G94

G01 F300.00

M5
G00 Z20.0000
T1
G00 X0.0000 Y0.0000                
M6
(MSG, Change to Tool Dia = 0.7112 ||| Total drills for tool T1 = 12)
M0
G00 Z20.0000

G01 F300.00
M03 S1000
G00 X34.9252 Y43.8150
G01 Z-3.0000
G01 Z0
G00 Z2.0000
G00 X28.3212 Y43.6880
G01 Z-3.0000
G01 Z0
G00 Z2.0000
G00 X19.4312 Y49.9110
G01 Z-3.0000
G01 Z0
G00 Z2.0000
G00 X19.4312 Y52.4510
G01 Z-3.0000
G01 Z0
G00 Z2.0000
G00 X19.4312 Y54.9910
G01 Z-3.0000
G01 Z0
G00 Z2.0000
G00 X19.4312 Y57.5310
G01 Z-3.0000
G01 Z0
G00 Z2.0000
G00 X28.4482 Y76.0730
G01 Z-3.0000
G01 Z0
G00 Z2.0000
G00 X28.4482 Y64.5160
G01 Z-3.0000
G01 Z0
G00 Z2.0000
G00 X27.0512 Y57.5310
G01 Z-3.0000
G01 Z0
G00 Z2.0000
G00 X27.0512 Y54.9910
G01 Z-3.0000
G01 Z0
G00 Z2.0000
G00 X27.0512 Y52.4510
G01 Z-3.0000
G01 Z0
G00 Z2.0000
G00 X27.0512 Y49.9110
G01 Z-3.0000
G01 Z0
G00 Z2.0000
M05
G00 Z0.50


