(G-CODE GENERATED BY FLATCAM v8.994 - www.flatcam.org - Version Date: 2020/11/7)

(Name: Controle_Motor.TXT_cnc)
(Type: G-code from Geometry)
(Units: MM)

(Created on Wednesday, 11 August 2021 at 18:27)

(This preprocessor is the default preprocessor used by FlatCAM.)
(It is made to work with MACH3 compatible motion controllers.)


(TOOLS DIAMETER: )
(Tool: 1 -> Dia: 0.7112)
(Tool: 2 -> Dia: 0.76)
(Tool: 3 -> Dia: 0.9)
(Tool: 4 -> Dia: 1.0)
(Tool: 5 -> Dia: 1.1)
(Tool: 6 -> Dia: 1.38)
(Tool: 7 -> Dia: 3.0)

(FEEDRATE Z: )
(Tool: 1 -> Feedrate: 300)
(Tool: 2 -> Feedrate: 300)
(Tool: 3 -> Feedrate: 300)
(Tool: 4 -> Feedrate: 300)
(Tool: 5 -> Feedrate: 300)
(Tool: 6 -> Feedrate: 300)
(Tool: 7 -> Feedrate: 300)

(FEEDRATE RAPIDS: )
(Tool: 1 -> Feedrate Rapids: 1500)
(Tool: 2 -> Feedrate Rapids: 1500)
(Tool: 3 -> Feedrate Rapids: 1500)
(Tool: 4 -> Feedrate Rapids: 1500)
(Tool: 5 -> Feedrate Rapids: 1500)
(Tool: 6 -> Feedrate Rapids: 1500)
(Tool: 7 -> Feedrate Rapids: 1500)

(Z_CUT: )
(Tool: 1 -> Z_Cut: -1.7)
(Tool: 2 -> Z_Cut: -1.7)
(Tool: 3 -> Z_Cut: -1.7)
(Tool: 4 -> Z_Cut: -3.0)
(Tool: 5 -> Z_Cut: -3.0)
(Tool: 6 -> Z_Cut: -3.0)
(Tool: 7 -> Z_Cut: -1.7)

(Tools Offset: )
(Tool: 4 -> Offset Z: 0.0)
(Tool: 5 -> Offset Z: 0.0)
(Tool: 6 -> Offset Z: 0.0)

(Z_MOVE: )
(Tool: 1 -> Z_Move: 2)
(Tool: 2 -> Z_Move: 2)
(Tool: 3 -> Z_Move: 2)
(Tool: 4 -> Z_Move: 2.0)
(Tool: 5 -> Z_Move: 2.0)
(Tool: 6 -> Z_Move: 2.0)
(Tool: 7 -> Z_Move: 2)

(Z Toolchange: 15 mm)
(X,Y Toolchange: 0.0000, 0.0000 mm)
(Z Start: None mm)
(Z End: 20.0 mm)
(X,Y End: None mm)
(Steps per circle: 64)
(Preprocessor Excellon: default)

(X range:    1.8022 ...   57.3802  mm)
(Y range:    2.1830 ...  118.0860  mm)

(Spindle Speed: 1000 RPM)
G21
G90
G94

G01 F300.00

M5
G00 Z15.0000
T4
G00 X0.0000 Y0.0000                
M6
(MSG, Change to Tool Dia = 1.0000 ||| Total drills for tool T4 = 61)
M0
G00 Z15.0000

G01 F300.00
M03 S1000
G00 X40.3992 Y30.8610
G01 Z-3.0000
G01 Z0
G00 Z2.0000
G00 X40.3992 Y33.3610
G01 Z-3.0000
G01 Z0
G00 Z2.0000
G00 X40.3992 Y35.9010
G01 Z-3.0000
G01 Z0
G00 Z2.0000
G00 X40.3992 Y38.4410
G01 Z-3.0000
G01 Z0
G00 Z2.0000
G00 X40.3992 Y40.9810
G01 Z-3.0000
G01 Z0
G00 Z2.0000
G00 X40.3992 Y43.5210
G01 Z-3.0000
G01 Z0
G00 Z2.0000
G00 X40.3992 Y46.0610
G01 Z-3.0000
G01 Z0
G00 Z2.0000
G00 X40.3992 Y48.6010
G01 Z-3.0000
G01 Z0
G00 Z2.0000
G00 X40.3992 Y51.1410
G01 Z-3.0000
G01 Z0
G00 Z2.0000
G00 X40.3992 Y53.6810
G01 Z-3.0000
G01 Z0
G00 Z2.0000
G00 X40.3992 Y56.2210
G01 Z-3.0000
G01 Z0
G00 Z2.0000
G00 X40.3992 Y58.7610
G01 Z-3.0000
G01 Z0
G00 Z2.0000
G00 X40.3992 Y61.3010
G01 Z-3.0000
G01 Z0
G00 Z2.0000
G00 X40.3992 Y63.8410
G01 Z-3.0000
G01 Z0
G00 Z2.0000
G00 X40.3992 Y66.3810
G01 Z-3.0000
G01 Z0
G00 Z2.0000
G00 X46.9902 Y76.2000
G01 Z-3.0000
G01 Z0
G00 Z2.0000
G00 X46.9902 Y78.7400
G01 Z-3.0000
G01 Z0
G00 Z2.0000
G00 X46.9902 Y81.2800
G01 Z-3.0000
G01 Z0
G00 Z2.0000
G00 X43.8152 Y99.3140
G01 Z-3.0000
G01 Z0
G00 Z2.0000
G00 X43.8152 Y101.8540
G01 Z-3.0000
G01 Z0
G00 Z2.0000
G00 X43.8152 Y104.3940
G01 Z-3.0000
G01 Z0
G00 Z2.0000
G00 X43.8152 Y106.9340
G01 Z-3.0000
G01 Z0
G00 Z2.0000
G00 X43.8152 Y109.4740
G01 Z-3.0000
G01 Z0
G00 Z2.0000
G00 X31.8267 Y109.1435
G01 Z-3.0000
G01 Z0
G00 Z2.0000
G00 X31.8267 Y106.6035
G01 Z-3.0000
G01 Z0
G00 Z2.0000
G00 X31.8267 Y104.0635
G01 Z-3.0000
G01 Z0
G00 Z2.0000
G00 X19.3042 Y106.4260
G01 Z-3.0000
G01 Z0
G00 Z2.0000
G00 X19.3042 Y108.9660
G01 Z-3.0000
G01 Z0
G00 Z2.0000
G00 X7.2392 Y108.9660
G01 Z-3.0000
G01 Z0
G00 Z2.0000
G00 X7.2392 Y106.4260
G01 Z-3.0000
G01 Z0
G00 Z2.0000
G00 X14.3512 Y98.9330
G01 Z-3.0000
G01 Z0
G00 Z2.0000
G00 X14.3512 Y96.3930
G01 Z-3.0000
G01 Z0
G00 Z2.0000
G00 X14.3512 Y93.8530
G01 Z-3.0000
G01 Z0
G00 Z2.0000
G00 X14.2242 Y66.3810
G01 Z-3.0000
G01 Z0
G00 Z2.0000
G00 X14.2242 Y63.8410
G01 Z-3.0000
G01 Z0
G00 Z2.0000
G00 X14.2242 Y61.3010
G01 Z-3.0000
G01 Z0
G00 Z2.0000
G00 X14.2242 Y58.7610
G01 Z-3.0000
G01 Z0
G00 Z2.0000
G00 X14.2242 Y56.2210
G01 Z-3.0000
G01 Z0
G00 Z2.0000
G00 X14.2242 Y53.6810
G01 Z-3.0000
G01 Z0
G00 Z2.0000
G00 X14.2242 Y51.1410
G01 Z-3.0000
G01 Z0
G00 Z2.0000
G00 X14.2242 Y48.6010
G01 Z-3.0000
G01 Z0
G00 Z2.0000
G00 X14.2242 Y46.0610
G01 Z-3.0000
G01 Z0
G00 Z2.0000
G00 X14.2242 Y43.5210
G01 Z-3.0000
G01 Z0
G00 Z2.0000
G00 X14.2242 Y40.9810
G01 Z-3.0000
G01 Z0
G00 Z2.0000
G00 X14.2242 Y38.4410
G01 Z-3.0000
G01 Z0
G00 Z2.0000
G00 X14.2242 Y35.9010
G01 Z-3.0000
G01 Z0
G00 Z2.0000
G00 X14.2242 Y33.3610
G01 Z-3.0000
G01 Z0
G00 Z2.0000
G00 X14.2242 Y30.8610
G01 Z-3.0000
G01 Z0
G00 Z2.0000
G00 X7.7472 Y23.7490
G01 Z-3.0000
G01 Z0
G00 Z2.0000
G00 X5.2072 Y23.7490
G01 Z-3.0000
G01 Z0
G00 Z2.0000
G00 X6.7312 Y13.4620
G01 Z-3.0000
G01 Z0
G00 Z2.0000
G00 X9.2712 Y13.4620
G01 Z-3.0000
G01 Z0
G00 Z2.0000
G00 X11.8112 Y13.4620
G01 Z-3.0000
G01 Z0
G00 Z2.0000
G00 X14.3512 Y13.4620
G01 Z-3.0000
G01 Z0
G00 Z2.0000
G00 X39.6242 Y13.4620
G01 Z-3.0000
G01 Z0
G00 Z2.0000
G00 X42.1642 Y13.4620
G01 Z-3.0000
G01 Z0
G00 Z2.0000
G00 X44.7042 Y13.4620
G01 Z-3.0000
G01 Z0
G00 Z2.0000
G00 X47.2442 Y13.4620
G01 Z-3.0000
G01 Z0
G00 Z2.0000
G00 X49.7842 Y13.4620
G01 Z-3.0000
G01 Z0
G00 Z2.0000
G00 X49.7842 Y23.7490
G01 Z-3.0000
G01 Z0
G00 Z2.0000
G00 X47.2442 Y23.7490
G01 Z-3.0000
G01 Z0
G00 Z2.0000
M05
G00 Z20.00


