(G-CODE GENERATED BY FLATCAM v8.994 - www.flatcam.org - Version Date: 2020/11/7)

(Name: Controle_Motor.GBL_cutout_cnc)
(Type: G-code from Geometry)
(Units: MM)

(Created on Wednesday, 11 August 2021 at 20:38)

(This preprocessor is the default preprocessor used by FlatCAM.)
(It is made to work with MACH3 compatible motion controllers.)

(TOOL DIAMETER: 2.4 mm)
(Feedrate_XY: 60.0 mm/min)
(Feedrate_Z: 60.0 mm/min)
(Feedrate rapids 1500.0 mm/min)

(Z_Cut: -3.0 mm)
(Z_Move: 2.0 mm)
(Z Start: None mm)
(Z End: 20.0 mm)
(X,Y End: None mm)
(Steps per circle: 64)
(Preprocessor Geometry: default)

(X range:   -1.8070 ...   61.2450  mm)
(Y range:   -1.4240 ...  121.4450  mm)

(Spindle Speed: 1000.0 RPM)
G21
G90
G94

G01 F60.00

M5
G00 Z15.0000
G00 X0.0000 Y0.0000
T1
M6    
(MSG, Change to Tool Dia = 2.4000)
M0
G00 Z15.0000

M03 S1000.0
G01 F60.00
G00 X27.6190 Y-1.4240
G01 F60.00
G01 Z-3.0000
G01 F60.00
G01 X-0.5070 Y-1.4240
G01 X-0.6344 Y-1.4177
G01 X-0.7606 Y-1.3990
G01 X-0.8844 Y-1.3680
G01 X-1.0045 Y-1.3250
G01 X-1.1198 Y-1.2705
G01 X-1.2292 Y-1.2049
G01 X-1.3317 Y-1.1289
G01 X-1.4262 Y-1.0432
G01 X-1.5119 Y-0.9487
G01 X-1.5879 Y-0.8462
G01 X-1.6535 Y-0.7368
G01 X-1.7080 Y-0.6215
G01 X-1.7510 Y-0.5014
G01 X-1.7820 Y-0.3776
G01 X-1.8007 Y-0.2514
G01 X-1.8070 Y-0.1240
G01 X-1.8070 Y57.9105
G00 Z2.0000
G00 X-1.8070 Y62.3105
G01 F60.00
G01 Z-3.0000
G01 F60.00
G01 X-1.8070 Y120.1450
G01 X-1.8007 Y120.2724
G01 X-1.7820 Y120.3986
G01 X-1.7510 Y120.5224
G01 X-1.7080 Y120.6425
G01 X-1.6535 Y120.7578
G01 X-1.5879 Y120.8672
G01 X-1.5119 Y120.9697
G01 X-1.4262 Y121.0642
G01 X-1.3317 Y121.1499
G01 X-1.2292 Y121.2259
G01 X-1.1198 Y121.2915
G01 X-1.0045 Y121.3460
G01 X-0.8844 Y121.3890
G01 X-0.7606 Y121.4200
G01 X-0.6344 Y121.4387
G01 X-0.5070 Y121.4450
G01 X27.6190 Y121.4450
G00 Z2.0000
G00 X32.0190 Y121.4450
G01 F60.00
G01 Z-3.0000
G01 F60.00
G01 X59.9450 Y121.4450
G01 X60.0724 Y121.4387
G01 X60.1986 Y121.4200
G01 X60.3224 Y121.3890
G01 X60.4425 Y121.3460
G01 X60.5578 Y121.2915
G01 X60.6672 Y121.2259
G01 X60.7697 Y121.1499
G01 X60.8642 Y121.0642
G01 X60.9499 Y120.9697
G01 X61.0259 Y120.8672
G01 X61.0915 Y120.7578
G01 X61.1460 Y120.6425
G01 X61.1890 Y120.5224
G01 X61.2200 Y120.3986
G01 X61.2387 Y120.2724
G01 X61.2450 Y120.1450
G01 X61.2450 Y62.3105
G00 Z2.0000
G00 X61.2450 Y57.9105
G01 F60.00
G01 Z-3.0000
G01 F60.00
G01 X61.2450 Y-0.1240
G01 X61.2387 Y-0.2514
G01 X61.2200 Y-0.3776
G01 X61.1890 Y-0.5014
G01 X61.1460 Y-0.6215
G01 X61.0915 Y-0.7368
G01 X61.0259 Y-0.8462
G01 X60.9499 Y-0.9487
G01 X60.8642 Y-1.0432
G01 X60.7697 Y-1.1289
G01 X60.6672 Y-1.2049
G01 X60.5578 Y-1.2705
G01 X60.4425 Y-1.3250
G01 X60.3224 Y-1.3680
G01 X60.1986 Y-1.3990
G01 X60.0724 Y-1.4177
G01 X59.9450 Y-1.4240
G01 X32.0190 Y-1.4240
G00 Z2.0000
M05
G00 Z2.0000
G00 Z20.00


