(G-CODE GENERATED BY FLATCAM v8.994 - www.flatcam.org - Version Date: 2020/11/7)

(Name: Controle_Motor.GBL_iso_combined_cnc)
(Type: G-code from Geometry)
(Units: MM)

(Created on Wednesday, 11 August 2021 at 19:03)

(This preprocessor is the default preprocessor used by FlatCAM.)
(It is made to work with MACH3 compatible motion controllers.)

(TOOL DIAMETER: 0.1 mm)
(Feedrate_XY: 150.0 mm/min)
(Feedrate_Z: 60.0 mm/min)
(Feedrate rapids 1500.0 mm/min)

(Z_Cut: 0.0 mm)
(Z_Move: 2.0 mm)
(Z Start: None mm)
(Z End: 20.0 mm)
(X,Y End: None mm)
(Steps per circle: 64)
(Preprocessor Geometry: default)

(X range:   -0.5570 ...   59.9950  mm)
(Y range:   -0.1740 ...  120.1950  mm)

(Spindle Speed: 1000.0 RPM)
G21
G90
G94

G01 F150.00

M5
G00 Z15.0000
G00 X0.0000 Y0.0000
T1
M6    
(MSG, Change to Tool Dia = 0.1000)
M0
G00 Z15.0000

M03 S1000.0
G01 F150.00
G00 X-0.5570 Y0.1300
G01 F60.00
G01 Z0.0000
G01 F150.00
G01 X-0.5563 Y0.1215
G01 X-0.5536 Y0.1120
G01 X-0.5492 Y0.1033
G01 X-0.5440 Y0.0964
G01 X-0.2884 Y-0.1594
G01 X-0.2808 Y-0.1656
G01 X-0.2721 Y-0.1702
G01 X-0.2628 Y-0.1730
G01 X-0.2530 Y-0.1740
G01 X-0.2445 Y-0.1733
G01 X-0.2362 Y-0.1711
G01 X-0.2273 Y-0.1669
G01 X-0.2203 Y-0.1619
G01 X-0.1053 Y-0.0470
G01 X59.8180 Y-0.0470
G01 X59.8241 Y-0.0466
G01 X59.8313 Y-0.0452
G01 X59.8371 Y-0.0432
G01 X59.8437 Y-0.0399
G01 X59.8487 Y-0.0364
G01 X59.8542 Y-0.0315
G01 X59.8589 Y-0.0258
G01 X59.8626 Y-0.0195
G01 X59.8651 Y-0.0139
G01 X59.8668 Y-0.0080
G01 X59.8676 Y-0.0032
G01 X59.8680 Y0.0029
G01 X59.9950 Y120.0179
G01 X59.9943 Y120.0265
G01 X59.9917 Y120.0360
G01 X59.9879 Y120.0437
G01 X59.9820 Y120.0516
G01 X59.8525 Y120.1812
G01 X59.8468 Y120.1859
G01 X59.8405 Y120.1897
G01 X59.8348 Y120.1921
G01 X59.8301 Y120.1935
G01 X59.8241 Y120.1946
G01 X59.8180 Y120.1950
G01 X-0.5070 Y120.1950
G01 X-0.5143 Y120.1945
G01 X-0.5215 Y120.1928
G01 X-0.5273 Y120.1907
G01 X-0.5337 Y120.1872
G01 X-0.5387 Y120.1837
G01 X-0.5440 Y120.1786
G01 X-0.5479 Y120.1738
G01 X-0.5517 Y120.1675
G01 X-0.5541 Y120.1618
G01 X-0.5558 Y120.1560
G01 X-0.5566 Y120.1511
G01 X-0.5570 Y120.1450
G01 X-0.5570 Y0.1300
G00 Z2.0000
G00 X4.8452 Y3.5316
G01 F60.00
G01 Z0.0000
G01 F150.00
G01 X4.8530 Y3.6860
G01 X4.8455 Y3.8379
G01 X4.8232 Y3.9884
G01 X4.7863 Y4.1359
G01 X4.7350 Y4.2792
G01 X4.6700 Y4.4167
G01 X4.5918 Y4.5471
G01 X4.5012 Y4.6693
G01 X4.3990 Y4.7820
G01 X4.2863 Y4.8842
G01 X4.1641 Y4.9748
G01 X4.0337 Y5.0530
G01 X3.8962 Y5.1180
G01 X3.7529 Y5.1693
G01 X3.6054 Y5.2062
G01 X3.4549 Y5.2285
G01 X3.3030 Y5.2360
G01 X3.1511 Y5.2285
G01 X3.0006 Y5.2062
G01 X2.8531 Y5.1693
G01 X2.7098 Y5.1180
G01 X2.5723 Y5.0530
G01 X2.4419 Y4.9748
G01 X2.3197 Y4.8842
G01 X2.2070 Y4.7820
G01 X2.1048 Y4.6693
G01 X2.0142 Y4.5471
G01 X1.9360 Y4.4167
G01 X1.8710 Y4.2792
G01 X1.8197 Y4.1359
G01 X1.7828 Y3.9884
G01 X1.7605 Y3.8379
G01 X1.7530 Y3.6860
G01 X1.7605 Y3.5341
G01 X1.7828 Y3.3836
G01 X1.8197 Y3.2361
G01 X1.8710 Y3.0928
G01 X1.9360 Y2.9553
G01 X2.0142 Y2.8249
G01 X2.1048 Y2.7027
G01 X2.2070 Y2.5900
G01 X2.3197 Y2.4878
G01 X2.4419 Y2.3972
G01 X2.5723 Y2.3190
G01 X2.7098 Y2.2540
G01 X2.8531 Y2.2027
G01 X3.0006 Y2.1658
G01 X3.1511 Y2.1435
G01 X3.3030 Y2.1360
G01 X3.4549 Y2.1435
G01 X3.6054 Y2.1658
G01 X3.7529 Y2.2027
G01 X3.8962 Y2.2540
G01 X4.0337 Y2.3190
G01 X4.1641 Y2.3972
G01 X4.2863 Y2.4878
G01 X4.3990 Y2.5900
G01 X4.5012 Y2.7027
G01 X4.5918 Y2.8249
G01 X4.6700 Y2.9553
G01 X4.7350 Y3.0928
G01 X4.7863 Y3.2361
G01 X4.8232 Y3.3836
G01 X4.8452 Y3.5316
G00 Z2.0000
G00 X3.1109 Y5.6360
G01 F60.00
G01 Z0.0000
G01 F150.00
G01 X2.7342 Y5.5610
G01 X2.3794 Y5.4141
G01 X2.0600 Y5.2007
G01 X1.7883 Y4.9290
G01 X1.5749 Y4.6097
G01 X1.4280 Y4.2548
G01 X1.3530 Y3.8781
G01 X1.3530 Y3.4939
G01 X1.4280 Y3.1172
G01 X1.5749 Y2.7624
G01 X1.7883 Y2.4430
G01 X2.0600 Y2.1713
G01 X2.3794 Y1.9579
G01 X2.7342 Y1.8110
G01 X3.1109 Y1.7360
G01 X3.4951 Y1.7360
G01 X3.8718 Y1.8110
G01 X4.2267 Y1.9579
G01 X4.5460 Y2.1713
G01 X4.8177 Y2.4430
G01 X5.0311 Y2.7624
G01 X5.1780 Y3.1172
G01 X5.2530 Y3.4939
G01 X5.2530 Y3.8781
G01 X5.1780 Y4.2548
G01 X5.0311 Y4.6097
G01 X4.8177 Y4.9290
G01 X4.5460 Y5.2007
G01 X4.2267 Y5.4141
G01 X3.8718 Y5.5610
G01 X3.4951 Y5.6360
G01 X3.1109 Y5.6360
G00 Z2.0000
G00 X10.9869 Y14.8835
G01 F60.00
G01 Z0.0000
G01 F150.00
G01 X10.9907 Y14.8867
G01 X10.9950 Y14.8912
G01 X10.9979 Y14.8952
G01 X11.0011 Y14.9005
G01 X11.0031 Y14.9050
G01 X11.0050 Y14.9109
G01 X11.0061 Y14.9170
G01 X11.0065 Y14.9232
G01 X11.0064 Y17.9217
G01 X11.0055 Y17.9290
G01 X11.0040 Y17.9349
G01 X11.0017 Y17.9406
G01 X10.9987 Y17.9459
G01 X10.9952 Y17.9509
G01 X10.9910 Y17.9554
G01 X10.9863 Y17.9594
G01 X10.9811 Y17.9627
G01 X10.9756 Y17.9654
G01 X10.8572 Y18.0144
G01 X10.8514 Y18.0163
G01 X10.8465 Y18.0173
G01 X10.8367 Y18.0177
G01 X10.8271 Y18.0163
G01 X10.8189 Y18.0135
G01 X10.8114 Y18.0094
G01 X10.8038 Y18.0032
G01 X10.3453 Y17.5446
G01 X10.3406 Y17.5389
G01 X10.3363 Y17.5315
G01 X10.3337 Y17.5246
G01 X10.3320 Y17.5174
G01 X10.3315 Y17.5101
G01 X10.3315 Y14.6688
G01 X10.3322 Y14.6604
G01 X10.3344 Y14.6521
G01 X10.3373 Y14.6455
G01 X10.3411 Y14.6393
G01 X10.4279 Y14.5263
G01 X10.4321 Y14.5217
G01 X10.4359 Y14.5184
G01 X10.4400 Y14.5155
G01 X10.4454 Y14.5125
G01 X10.4524 Y14.5098
G01 X10.4879 Y14.4992
G01 X10.4950 Y14.4978
G01 X10.5011 Y14.4974
G01 X10.5878 Y14.4976
G01 X10.5961 Y14.4992
G01 X10.6340 Y14.5106
G01 X10.6397 Y14.5130
G01 X10.6461 Y14.5169
G01 X10.6510 Y14.5208
G01 X10.6561 Y14.5263
G01 X10.8492 Y14.7778
G01 X10.9869 Y14.8835
G00 Z2.0000
G00 X11.4157 Y14.7554
G01 F60.00
G01 Z0.0000
G01 F150.00
G01 X11.3854 Y14.7144
G01 X11.3539 Y14.6617
G01 X11.3438 Y14.6407
G01 X11.2842 Y14.6049
G01 X11.2093 Y14.5494
G01 X11.1402 Y14.4868
G01 X11.0769 Y14.4167
G01 X11.0221 Y14.3428
G01 X10.9742 Y14.2628
G01 X10.9343 Y14.1785
G01 X10.9029 Y14.0908
G01 X10.8798 Y13.9979
G01 X10.8666 Y13.9081
G01 X10.8620 Y13.8162
G01 X10.8620 Y13.1138
G01 X10.8666 Y13.0219
G01 X10.8805 Y12.9285
G01 X10.9029 Y12.8392
G01 X10.9343 Y12.7515
G01 X10.9742 Y12.6672
G01 X11.0221 Y12.5872
G01 X11.0776 Y12.5123
G01 X11.1402 Y12.4432
G01 X11.2093 Y12.3806
G01 X11.2842 Y12.3251
G01 X11.3642 Y12.2772
G01 X11.4485 Y12.2373
G01 X11.5362 Y12.2059
G01 X11.6267 Y12.1833
G01 X11.7189 Y12.1696
G01 X11.8120 Y12.1650
G01 X11.9051 Y12.1696
G01 X11.9985 Y12.1835
G01 X12.0878 Y12.2059
G01 X12.1755 Y12.2373
G01 X12.2598 Y12.2772
G01 X12.3377 Y12.3238
G01 X12.4165 Y12.3822
G01 X12.4838 Y12.4432
G01 X12.5464 Y12.5123
G01 X12.6019 Y12.5872
G01 X12.6486 Y12.6650
G01 X12.6906 Y12.7537
G01 X12.7211 Y12.8392
G01 X12.7437 Y12.9297
G01 X12.7574 Y13.0219
G01 X12.7620 Y13.1138
G01 X12.7620 Y13.8150
G01 X12.7574 Y13.9081
G01 X12.7437 Y14.0003
G01 X12.7214 Y14.0896
G01 X12.6897 Y14.1785
G01 X12.6627 Y14.2357
G01 X12.6677 Y14.2467
G01 X12.6883 Y14.3045
G01 X12.7038 Y14.3664
G01 X12.7132 Y14.4296
G01 X12.7163 Y14.4933
G01 X12.7163 Y61.8343
G01 X13.8525 Y62.9705
G01 X13.8637 Y62.9654
G01 X13.9516 Y62.9343
G01 X14.0397 Y62.9123
G01 X14.1319 Y62.8986
G01 X14.2250 Y62.8940
G01 X14.3157 Y62.8984
G01 X14.4115 Y62.9125
G01 X14.5008 Y62.9349
G01 X14.5885 Y62.9663
G01 X14.6728 Y63.0062
G01 X14.7528 Y63.0541
G01 X14.8277 Y63.1096
G01 X14.8968 Y63.1722
G01 X14.9594 Y63.2413
G01 X15.0093 Y63.3085
G01 X15.5541 Y63.3085
G01 X15.6191 Y63.3118
G01 X15.6834 Y63.3215
G01 X15.7429 Y63.3365
G01 X15.8007 Y63.3571
G01 X15.8607 Y63.3853
G01 X15.9154 Y63.4181
G01 X15.9666 Y63.4561
G01 X16.0139 Y63.4990
G01 X16.7169 Y64.2020
G01 X16.7605 Y64.2502
G01 X16.7977 Y64.3005
G01 X16.8293 Y64.3531
G01 X16.8587 Y64.4153
G01 X16.8793 Y64.4731
G01 X16.8948 Y64.5350
G01 X16.9042 Y64.5981
G01 X16.9073 Y64.6606
G01 X16.9073 Y73.0280
G01 X16.9039 Y73.0942
G01 X16.8948 Y73.1549
G01 X16.8793 Y73.2168
G01 X16.8578 Y73.2769
G01 X16.8293 Y73.3367
G01 X16.7977 Y73.3893
G01 X16.7612 Y73.4386
G01 X16.7177 Y73.4870
G01 X14.0306 Y76.1740
G01 X14.0320 Y76.2042
G01 X14.0275 Y76.2949
G01 X14.0140 Y76.3871
G01 X13.9911 Y76.4788
G01 X13.9601 Y76.5654
G01 X13.9198 Y76.6508
G01 X13.8719 Y76.7308
G01 X13.8164 Y76.8057
G01 X13.7546 Y76.8739
G01 X13.6847 Y76.9374
G01 X13.6098 Y76.9929
G01 X13.5298 Y77.0408
G01 X13.4455 Y77.0807
G01 X13.3578 Y77.1121
G01 X13.2673 Y77.1347
G01 X13.1751 Y77.1484
G01 X13.0832 Y77.1530
G01 X12.9864 Y77.1481
G01 X12.8967 Y77.1347
G01 X12.8086 Y77.1127
G01 X12.7185 Y77.0807
G01 X12.6320 Y77.0396
G01 X12.5542 Y76.9929
G01 X12.4813 Y76.9389
G01 X12.4102 Y76.8748
G01 X12.3461 Y76.8037
G01 X12.2921 Y76.7308
G01 X12.2454 Y76.6530
G01 X12.2043 Y76.5665
G01 X12.1723 Y76.4764
G01 X12.1503 Y76.3883
G01 X12.1369 Y76.2986
G01 X12.1320 Y76.2030
G01 X12.1369 Y76.1074
G01 X12.1503 Y76.0177
G01 X12.1723 Y75.9296
G01 X12.2043 Y75.8395
G01 X12.2448 Y75.7541
G01 X12.2921 Y75.6752
G01 X12.3461 Y75.6023
G01 X12.4102 Y75.5312
G01 X12.4813 Y75.4671
G01 X12.5542 Y75.4131
G01 X12.6331 Y75.3658
G01 X12.7207 Y75.3244
G01 X12.8062 Y75.2939
G01 X12.8955 Y75.2715
G01 X12.9901 Y75.2575
G01 X13.0808 Y75.2530
G01 X13.1110 Y75.2544
G01 X15.6067 Y72.7586
G01 X15.6067 Y64.9311
G01 X15.2847 Y64.6091
G01 X14.7863 Y64.6091
G01 X14.7518 Y64.6346
G01 X14.6717 Y64.6824
G01 X14.5885 Y64.7217
G01 X14.5019 Y64.7527
G01 X14.4079 Y64.7762
G01 X14.3181 Y64.7894
G01 X14.2262 Y64.7940
G01 X14.1294 Y64.7891
G01 X14.0397 Y64.7757
G01 X13.9492 Y64.7531
G01 X13.8592 Y64.7207
G01 X13.7772 Y64.6818
G01 X13.6972 Y64.6339
G01 X13.6223 Y64.5784
G01 X13.5532 Y64.5158
G01 X13.4906 Y64.4467
G01 X13.4358 Y64.3728
G01 X13.3872 Y64.2918
G01 X13.3478 Y64.2087
G01 X13.3163 Y64.1209
G01 X13.3071 Y64.0849
G01 X13.2772 Y64.0804
G01 X13.2176 Y64.0654
G01 X13.1552 Y64.0431
G01 X13.0987 Y64.0163
G01 X13.0460 Y63.9848
G01 X12.9908 Y63.9439
G01 X12.9454 Y63.9026
G01 X11.6045 Y62.5618
G01 X11.5633 Y62.5162
G01 X11.5253 Y62.4650
G01 X11.4925 Y62.4103
G01 X11.4662 Y62.3548
G01 X11.4430 Y62.2901
G01 X11.4282 Y62.2306
G01 X11.4187 Y62.1662
G01 X11.4157 Y62.1037
G01 X11.4157 Y14.7554
G00 Z2.0000
G00 X13.5844 Y14.3729
G01 F60.00
G01 Z0.0000
G01 F150.00
G01 X13.5614 Y14.3418
G01 X13.5136 Y14.2617
G01 X13.4743 Y14.1785
G01 X13.4433 Y14.0919
G01 X13.4198 Y13.9979
G01 X13.4066 Y13.9081
G01 X13.4020 Y13.8162
G01 X13.4020 Y13.1150
G01 X13.4067 Y13.0207
G01 X13.4203 Y12.9297
G01 X13.4437 Y12.8369
G01 X13.4743 Y12.7515
G01 X13.5131 Y12.6694
G01 X13.5614 Y12.5882
G01 X13.6176 Y12.5123
G01 X13.6802 Y12.4432
G01 X13.7493 Y12.3806
G01 X13.8242 Y12.3251
G01 X13.9042 Y12.2772
G01 X13.9885 Y12.2373
G01 X14.0762 Y12.2059
G01 X14.1667 Y12.1833
G01 X14.2589 Y12.1696
G01 X14.3520 Y12.1650
G01 X14.4451 Y12.1696
G01 X14.5373 Y12.1833
G01 X14.6278 Y12.2059
G01 X14.7155 Y12.2373
G01 X14.7998 Y12.2772
G01 X14.8788 Y12.3244
G01 X14.9547 Y12.3806
G01 X15.0238 Y12.4432
G01 X15.0864 Y12.5123
G01 X15.1405 Y12.5852
G01 X15.1909 Y12.6694
G01 X15.2297 Y12.7515
G01 X15.2614 Y12.8404
G01 X15.2842 Y12.9321
G01 X15.2974 Y13.0219
G01 X15.3019 Y13.1125
G01 X15.3020 Y13.8150
G01 X15.2971 Y13.9106
G01 X15.2837 Y14.0003
G01 X15.2617 Y14.0884
G01 X15.2297 Y14.1785
G01 X15.1898 Y14.2628
G01 X15.1405 Y14.3448
G01 X15.0864 Y14.4177
G01 X15.0254 Y14.4850
G01 X14.9547 Y14.5494
G01 X14.8818 Y14.6035
G01 X14.8753 Y14.6077
G01 X14.8753 Y27.1801
G01 X25.6631 Y37.9679
G01 X25.6993 Y38.0079
G01 X25.7301 Y38.0493
G01 X25.7593 Y38.0976
G01 X25.7832 Y38.1487
G01 X25.8006 Y38.1973
G01 X25.8131 Y38.2473
G01 X25.8216 Y38.3031
G01 X25.8243 Y38.3570
G01 X25.8243 Y63.7831
G01 X33.9181 Y71.8769
G01 X33.9543 Y71.9169
G01 X33.9865 Y71.9603
G01 X34.0143 Y72.0066
G01 X34.0364 Y72.0532
G01 X34.0556 Y72.1063
G01 X34.0687 Y72.1587
G01 X34.0766 Y72.2121
G01 X34.0793 Y72.2660
G01 X34.0793 Y81.6901
G01 X35.7889 Y83.3997
G01 X39.9832 Y83.3997
G01 X39.9895 Y83.3935
G01 X40.0370 Y83.3508
G01 X40.0863 Y83.3143
G01 X40.1432 Y83.2804
G01 X40.1987 Y83.2542
G01 X40.2588 Y83.2327
G01 X40.3207 Y83.2172
G01 X40.3851 Y83.2077
G01 X40.4476 Y83.2047
G01 X42.7641 Y83.2047
G01 X42.8303 Y83.2081
G01 X42.8910 Y83.2172
G01 X42.9529 Y83.2327
G01 X43.0130 Y83.2542
G01 X43.0685 Y83.2804
G01 X43.1274 Y83.3157
G01 X43.1766 Y83.3523
G01 X43.2239 Y83.3952
G01 X44.0218 Y84.1931
G01 X44.0647 Y84.2404
G01 X44.1027 Y84.2916
G01 X44.1343 Y84.3442
G01 X44.1628 Y84.4040
G01 X44.1850 Y84.4665
G01 X44.1998 Y84.5260
G01 X44.2089 Y84.5867
G01 X44.2123 Y84.6529
G01 X44.2122 Y87.8807
G01 X44.2092 Y87.9419
G01 X44.1998 Y88.0051
G01 X44.1843 Y88.0670
G01 X44.1637 Y88.1248
G01 X44.1343 Y88.1869
G01 X44.1027 Y88.2395
G01 X44.0647 Y88.2907
G01 X44.0218 Y88.3380
G01 X27.3703 Y104.9896
G01 X27.3703 Y111.4156
G01 X29.3534 Y113.3987
G01 X41.1336 Y113.3987
G01 X43.0387 Y111.4936
G01 X43.0387 Y110.3246
G01 X43.0171 Y110.3142
G01 X42.9392 Y110.2676
G01 X42.8624 Y110.2106
G01 X42.7942 Y110.1488
G01 X42.7332 Y110.0815
G01 X42.6768 Y110.0058
G01 X42.6282 Y109.9248
G01 X42.5874 Y109.8383
G01 X42.5563 Y109.7504
G01 X42.5343 Y109.6623
G01 X42.5209 Y109.5726
G01 X42.5160 Y109.4770
G01 X42.5206 Y109.3839
G01 X42.5343 Y109.2917
G01 X42.5563 Y109.2036
G01 X42.5893 Y109.1112
G01 X42.6282 Y109.0292
G01 X42.6775 Y108.9472
G01 X42.7316 Y108.8743
G01 X42.7942 Y108.8052
G01 X42.8633 Y108.7426
G01 X42.9382 Y108.6871
G01 X43.0182 Y108.6392
G01 X43.1025 Y108.5993
G01 X43.1902 Y108.5679
G01 X43.2831 Y108.5448
G01 X43.3729 Y108.5316
G01 X43.4648 Y108.5270
G01 X44.1660 Y108.5270
G01 X44.2579 Y108.5315
G01 X44.3513 Y108.5453
G01 X44.4418 Y108.5679
G01 X44.5295 Y108.5993
G01 X44.6127 Y108.6386
G01 X44.6958 Y108.6885
G01 X44.7687 Y108.7426
G01 X44.8378 Y108.8052
G01 X44.9019 Y108.8763
G01 X44.9559 Y108.9492
G01 X45.0038 Y109.0292
G01 X45.0437 Y109.1135
G01 X45.0743 Y109.1989
G01 X45.0977 Y109.2917
G01 X45.1116 Y109.3863
G01 X45.1160 Y109.4770
G01 X45.1114 Y109.5701
G01 X45.0977 Y109.6623
G01 X45.0757 Y109.7504
G01 X45.0427 Y109.8428
G01 X45.0038 Y109.9248
G01 X44.9559 Y110.0048
G01 X44.9004 Y110.0797
G01 X44.8394 Y110.1470
G01 X44.7667 Y110.2129
G01 X44.6938 Y110.2669
G01 X44.6138 Y110.3148
G01 X44.5295 Y110.3547
G01 X44.4441 Y110.3853
G01 X44.3537 Y110.4082
G01 X44.3393 Y110.4106
G01 X44.3392 Y111.7655
G01 X44.3359 Y111.8292
G01 X44.3268 Y111.8899
G01 X44.3120 Y111.9494
G01 X44.2898 Y112.0119
G01 X44.2631 Y112.0685
G01 X44.2283 Y112.1263
G01 X44.1917 Y112.1755
G01 X44.1488 Y112.2228
G01 X41.8620 Y114.5097
G01 X41.8136 Y114.5532
G01 X41.7643 Y114.5897
G01 X41.7117 Y114.6213
G01 X41.6519 Y114.6498
G01 X41.5906 Y114.6716
G01 X41.5299 Y114.6868
G01 X41.4692 Y114.6959
G01 X41.4030 Y114.6993
G01 X29.0840 Y114.6993
G01 X29.0178 Y114.6959
G01 X28.9571 Y114.6868
G01 X28.8952 Y114.6713
G01 X28.8329 Y114.6488
G01 X28.7775 Y114.6225
G01 X28.7237 Y114.5904
G01 X28.6715 Y114.5517
G01 X28.6242 Y114.5088
G01 X26.2593 Y112.1440
G01 X26.2158 Y112.0956
G01 X26.1793 Y112.0463
G01 X26.1477 Y111.9937
G01 X26.1192 Y111.9339
G01 X26.0974 Y111.8726
G01 X26.0822 Y111.8119
G01 X26.0731 Y111.7512
G01 X26.0697 Y111.6850
G01 X26.0697 Y104.7190
G01 X26.0728 Y104.6565
G01 X26.0822 Y104.5933
G01 X26.0977 Y104.5314
G01 X26.1192 Y104.4713
G01 X26.1465 Y104.4137
G01 X26.1793 Y104.3589
G01 X26.2173 Y104.3077
G01 X26.2602 Y104.2604
G01 X42.9117 Y87.6088
G01 X42.9117 Y84.9223
G01 X42.4947 Y84.5053
G01 X40.6897 Y84.5053
G01 X40.6581 Y84.5241
G01 X40.6026 Y84.5503
G01 X40.5402 Y84.5726
G01 X40.4795 Y84.5878
G01 X40.4188 Y84.5969
G01 X40.3526 Y84.6003
G01 X40.2864 Y84.5969
G01 X40.2257 Y84.5878
G01 X40.1650 Y84.5726
G01 X40.1015 Y84.5498
G01 X40.0461 Y84.5235
G01 X40.0071 Y84.5003
G01 X36.8894 Y84.5003
G01 X37.4232 Y85.0340
G01 X37.4672 Y85.0320
G01 X37.5603 Y85.0367
G01 X37.6513 Y85.0503
G01 X37.7429 Y85.0733
G01 X37.8295 Y85.1043
G01 X37.9138 Y85.1442
G01 X37.9938 Y85.1921
G01 X38.0696 Y85.2484
G01 X38.1378 Y85.3102
G01 X38.1988 Y85.3775
G01 X38.2572 Y85.4563
G01 X38.3038 Y85.5342
G01 X38.3437 Y85.6185
G01 X38.3751 Y85.7062
G01 X38.3975 Y85.7955
G01 X38.4114 Y85.8889
G01 X38.4160 Y85.9820
G01 X38.4114 Y86.0751
G01 X38.3972 Y86.1697
G01 X38.3743 Y86.2601
G01 X38.3437 Y86.3455
G01 X38.3049 Y86.4276
G01 X38.2559 Y86.5098
G01 X38.2004 Y86.5847
G01 X38.1378 Y86.6538
G01 X38.0667 Y86.7179
G01 X37.9938 Y86.7719
G01 X37.9160 Y86.8186
G01 X37.8318 Y86.8587
G01 X37.7418 Y86.8911
G01 X37.6513 Y86.9137
G01 X37.5591 Y86.9274
G01 X37.4648 Y86.9320
G01 X37.3729 Y86.9274
G01 X37.2807 Y86.9137
G01 X37.1902 Y86.8911
G01 X37.1025 Y86.8597
G01 X37.0182 Y86.8198
G01 X36.9382 Y86.7719
G01 X36.8633 Y86.7164
G01 X36.7934 Y86.6529
G01 X36.7301 Y86.5827
G01 X36.6761 Y86.5098
G01 X36.6294 Y86.4320
G01 X36.5883 Y86.3455
G01 X36.5563 Y86.2554
G01 X36.5343 Y86.1673
G01 X36.5209 Y86.0776
G01 X36.5160 Y85.9820
G01 X36.5209 Y85.8864
G01 X36.5343 Y85.7967
G01 X36.5533 Y85.7205
G01 X33.4092 Y82.5764
G01 X32.7188 Y83.2668
G01 X32.6706 Y83.3105
G01 X32.6203 Y83.3477
G01 X32.5677 Y83.3793
G01 X32.5056 Y83.4087
G01 X32.4478 Y83.4293
G01 X32.3859 Y83.4448
G01 X32.3227 Y83.4542
G01 X32.2615 Y83.4572
G01 X13.3514 Y83.4573
G01 X11.0960 Y85.7127
G01 X12.3907 Y85.7127
G01 X12.4111 Y85.6904
G01 X12.4803 Y85.6279
G01 X12.5542 Y85.5731
G01 X12.6353 Y85.5246
G01 X12.7185 Y85.4853
G01 X12.8062 Y85.4539
G01 X12.8967 Y85.4313
G01 X12.9913 Y85.4174
G01 X13.0820 Y85.4130
G01 X13.1751 Y85.4176
G01 X13.2673 Y85.4313
G01 X13.3554 Y85.4533
G01 X13.4478 Y85.4863
G01 X13.5298 Y85.5252
G01 X13.6088 Y85.5724
G01 X13.6865 Y85.6302
G01 X13.7538 Y85.6912
G01 X13.8148 Y85.7585
G01 X13.8719 Y85.8352
G01 X13.9209 Y85.9174
G01 X13.9597 Y85.9995
G01 X13.9903 Y86.0849
G01 X14.0137 Y86.1777
G01 X14.0276 Y86.2723
G01 X14.0320 Y86.3630
G01 X14.0274 Y86.4561
G01 X14.0132 Y86.5507
G01 X13.9911 Y86.6388
G01 X13.9606 Y86.7243
G01 X13.9198 Y86.8108
G01 X13.8705 Y86.8928
G01 X13.8164 Y86.9657
G01 X13.7554 Y87.0330
G01 X13.6847 Y87.0974
G01 X13.6077 Y87.1542
G01 X13.5298 Y87.2008
G01 X13.4478 Y87.2397
G01 X13.3554 Y87.2727
G01 X13.2673 Y87.2947
G01 X13.1751 Y87.3084
G01 X13.0820 Y87.3130
G01 X12.9913 Y87.3086
G01 X12.8955 Y87.2945
G01 X12.8062 Y87.2721
G01 X12.7207 Y87.2416
G01 X12.6331 Y87.2002
G01 X12.5542 Y87.1529
G01 X12.4803 Y87.0981
G01 X12.4111 Y87.0356
G01 X12.3907 Y87.0133
G01 X8.0583 Y87.0133
G01 X8.0379 Y87.0356
G01 X7.9706 Y87.0966
G01 X7.8958 Y87.1522
G01 X7.8148 Y87.2008
G01 X7.7294 Y87.2411
G01 X7.6404 Y87.2727
G01 X7.5523 Y87.2947
G01 X7.4626 Y87.3081
G01 X7.3670 Y87.3130
G01 X7.2739 Y87.3084
G01 X7.1817 Y87.2947
G01 X7.0936 Y87.2727
G01 X7.0035 Y87.2407
G01 X6.9170 Y87.1996
G01 X6.8392 Y87.1529
G01 X6.7643 Y87.0974
G01 X6.6952 Y87.0348
G01 X6.6342 Y86.9675
G01 X6.5771 Y86.8908
G01 X6.5292 Y86.8108
G01 X6.4903 Y86.7288
G01 X6.4576 Y86.6376
G01 X6.4353 Y86.5483
G01 X6.4216 Y86.4561
G01 X6.4170 Y86.3630
G01 X6.4216 Y86.2699
G01 X6.4353 Y86.1777
G01 X6.4579 Y86.0872
G01 X6.4893 Y85.9995
G01 X6.5292 Y85.9152
G01 X6.5771 Y85.8352
G01 X6.6326 Y85.7603
G01 X6.6952 Y85.6912
G01 X6.7643 Y85.6286
G01 X6.8392 Y85.5731
G01 X6.9192 Y85.5252
G01 X7.0035 Y85.4853
G01 X7.0901 Y85.4543
G01 X7.1841 Y85.4308
G01 X7.2739 Y85.4176
G01 X7.3670 Y85.4130
G01 X7.4626 Y85.4179
G01 X7.5523 Y85.4313
G01 X7.6416 Y85.4536
G01 X7.7328 Y85.4863
G01 X7.8148 Y85.5252
G01 X7.8938 Y85.5724
G01 X7.9706 Y85.6294
G01 X8.0379 Y85.6904
G01 X8.0583 Y85.7127
G01 X9.2566 Y85.7127
G01 X12.6230 Y82.3463
G01 X12.6695 Y82.3043
G01 X12.7187 Y82.2677
G01 X12.7755 Y82.2335
G01 X12.8354 Y82.2053
G01 X12.8932 Y82.1847
G01 X12.9551 Y82.1692
G01 X13.0183 Y82.1598
G01 X13.0820 Y82.1567
G01 X31.9896 Y82.1567
G01 X32.9422 Y81.2042
G01 X32.9787 Y81.1709
G01 X32.9787 Y72.4939
G01 X24.8849 Y64.4001
G01 X24.8487 Y64.3601
G01 X24.8179 Y64.3187
G01 X24.7887 Y64.2704
G01 X24.7648 Y64.2193
G01 X24.7474 Y64.1707
G01 X24.7343 Y64.1183
G01 X24.7264 Y64.0649
G01 X24.7237 Y64.0110
G01 X24.7237 Y38.5849
G01 X14.8753 Y28.7365
G01 X14.8753 Y30.1727
G01 X14.8976 Y30.1931
G01 X14.9601 Y30.2623
G01 X15.0149 Y30.3362
G01 X15.0634 Y30.4173
G01 X15.1027 Y30.5005
G01 X15.1341 Y30.5882
G01 X15.1567 Y30.6787
G01 X15.1706 Y30.7733
G01 X15.1750 Y30.8640
G01 X15.1704 Y30.9571
G01 X15.1567 Y31.0493
G01 X15.1347 Y31.1374
G01 X15.1017 Y31.2298
G01 X15.0628 Y31.3118
G01 X15.0156 Y31.3908
G01 X14.9578 Y31.4685
G01 X14.8968 Y31.5358
G01 X14.8277 Y31.5984
G01 X14.7507 Y31.6552
G01 X14.6728 Y31.7018
G01 X14.5908 Y31.7407
G01 X14.5008 Y31.7731
G01 X14.4079 Y31.7962
G01 X14.3181 Y31.8094
G01 X14.2275 Y31.8139
G01 X14.1294 Y31.8091
G01 X14.0397 Y31.7957
G01 X13.9516 Y31.7737
G01 X13.8615 Y31.7417
G01 X13.7750 Y31.7006
G01 X13.6972 Y31.6539
G01 X13.6223 Y31.5984
G01 X13.5532 Y31.5358
G01 X13.4922 Y31.4685
G01 X13.4351 Y31.3918
G01 X13.3861 Y31.3096
G01 X13.3473 Y31.2275
G01 X13.3159 Y31.1398
G01 X13.2933 Y31.0493
G01 X13.2799 Y30.9596
G01 X13.2750 Y30.8640
G01 X13.2799 Y30.7684
G01 X13.2933 Y30.6787
G01 X13.3156 Y30.5894
G01 X13.3483 Y30.4982
G01 X13.3872 Y30.4162
G01 X13.4344 Y30.3372
G01 X13.4914 Y30.2604
G01 X13.5524 Y30.1931
G01 X13.5747 Y30.1727
G01 X13.5747 Y14.4810
G01 X13.5778 Y14.4173
G01 X13.5844 Y14.3729
G00 Z2.0000
G00 X9.3065 Y23.1005
G01 F60.00
G01 Z0.0000
G01 F150.00
G01 X9.3058 Y23.1090
G01 X9.3040 Y23.1162
G01 X9.3012 Y23.1230
G01 X9.2967 Y23.1303
G01 X9.2910 Y23.1367
G01 X9.2853 Y23.1414
G01 X9.2790 Y23.1452
G01 X9.2710 Y23.1483
G01 X9.1344 Y23.1756
G01 X9.1246 Y23.1756
G01 X9.1150 Y23.1736
G01 X9.1059 Y23.1699
G01 X9.0978 Y23.1644
G01 X9.0941 Y23.1611
G01 X9.0901 Y23.1565
G01 X9.0872 Y23.1525
G01 X9.0843 Y23.1472
G01 X9.0472 Y23.0576
G01 X8.8868 Y22.8175
G01 X8.6971 Y22.6279
G01 X8.6917 Y22.6212
G01 X8.6881 Y22.6148
G01 X8.6851 Y22.6067
G01 X8.6837 Y22.5995
G01 X8.6833 Y22.5934
G01 X8.6833 Y19.4401
G01 X8.6468 Y19.1627
G01 X8.6433 Y19.1544
G01 X8.6415 Y19.1485
G01 X8.6402 Y19.1413
G01 X8.6400 Y19.1351
G01 X8.6404 Y19.1303
G01 X8.6415 Y19.1242
G01 X8.6434 Y19.1184
G01 X8.6453 Y19.1139
G01 X8.6484 Y19.1086
G01 X8.6514 Y19.1047
G01 X8.6555 Y19.1002
G01 X8.6593 Y19.0970
G01 X8.7710 Y19.0222
G01 X8.7763 Y19.0193
G01 X8.7809 Y19.0174
G01 X8.7868 Y19.0157
G01 X8.7916 Y19.0149
G01 X8.7977 Y19.0145
G01 X8.8026 Y19.0147
G01 X8.8075 Y19.0155
G01 X8.8134 Y19.0170
G01 X8.8191 Y19.0193
G01 X8.8245 Y19.0223
G01 X8.8285 Y19.0251
G01 X8.8331 Y19.0291
G01 X9.2927 Y19.4888
G01 X9.2981 Y19.4955
G01 X9.3017 Y19.5019
G01 X9.3047 Y19.5100
G01 X9.3061 Y19.5172
G01 X9.3065 Y19.5233
G01 X9.3065 Y23.1005
G00 Z2.0000
G00 X8.2741 Y22.8259
G01 F60.00
G01 Z0.0000
G01 F150.00
G01 X8.3402 Y22.8657
G01 X8.4243 Y22.9280
G01 X8.5018 Y22.9982
G01 X8.5728 Y23.0767
G01 X8.6343 Y23.1598
G01 X8.6881 Y23.2495
G01 X8.7329 Y23.3441
G01 X8.7684 Y23.4437
G01 X8.7935 Y23.5440
G01 X8.8089 Y23.6475
G01 X8.8140 Y23.7520
G01 X8.8089 Y23.8565
G01 X8.7935 Y23.9600
G01 X8.7681 Y24.0614
G01 X8.7329 Y24.1599
G01 X8.6875 Y24.2556
G01 X8.6343 Y24.3442
G01 X8.5720 Y24.4283
G01 X8.5018 Y24.5058
G01 X8.4243 Y24.5760
G01 X8.3402 Y24.6383
G01 X8.2505 Y24.6921
G01 X8.1559 Y24.7369
G01 X8.0574 Y24.7721
G01 X7.9560 Y24.7975
G01 X7.8525 Y24.8129
G01 X7.7480 Y24.8180
G01 X7.6435 Y24.8129
G01 X7.5400 Y24.7975
G01 X7.4386 Y24.7721
G01 X7.3401 Y24.7369
G01 X7.2444 Y24.6915
G01 X7.1538 Y24.6369
G01 X7.0717 Y24.5760
G01 X6.9960 Y24.5075
G01 X6.9240 Y24.4283
G01 X6.8617 Y24.3442
G01 X6.8068 Y24.2523
G01 X6.7631 Y24.1599
G01 X6.7287 Y24.0638
G01 X6.7025 Y23.9600
G01 X6.6870 Y23.8540
G01 X6.6820 Y23.7520
G01 X6.6871 Y23.6475
G01 X6.7025 Y23.5440
G01 X6.7283 Y23.4414
G01 X6.7631 Y23.3441
G01 X6.8091 Y23.2474
G01 X6.8631 Y23.1578
G01 X6.9240 Y23.0757
G01 X6.9735 Y23.0210
G01 X6.9735 Y19.7062
G01 X2.3352 Y15.0678
G01 X2.2908 Y15.0186
G01 X2.2543 Y14.9693
G01 X2.2227 Y14.9167
G01 X2.1942 Y14.8569
G01 X2.1724 Y14.7956
G01 X2.1572 Y14.7349
G01 X2.1481 Y14.6742
G01 X2.1447 Y14.6080
G01 X2.1447 Y10.0360
G01 X2.1481 Y9.9698
G01 X2.1572 Y9.9091
G01 X2.1727 Y9.8472
G01 X2.1942 Y9.7871
G01 X2.2227 Y9.7273
G01 X2.2543 Y9.6747
G01 X2.2908 Y9.6254
G01 X2.3343 Y9.5770
G01 X3.9862 Y7.9252
G01 X4.0354 Y7.8808
G01 X4.0847 Y7.8443
G01 X4.1373 Y7.8127
G01 X4.1971 Y7.7842
G01 X4.2584 Y7.7624
G01 X4.3191 Y7.7472
G01 X4.3798 Y7.7381
G01 X4.4460 Y7.7347
G01 X43.4350 Y7.7347
G01 X43.5000 Y7.7380
G01 X43.5619 Y7.7472
G01 X43.6214 Y7.7620
G01 X43.6861 Y7.7852
G01 X43.7415 Y7.8115
G01 X43.7963 Y7.8443
G01 X43.8475 Y7.8823
G01 X43.8931 Y7.9235
G01 X45.0387 Y9.0690
G01 X45.0807 Y9.1155
G01 X45.1187 Y9.1667
G01 X45.1515 Y9.2215
G01 X45.1788 Y9.2791
G01 X45.2003 Y9.3392
G01 X45.2158 Y9.4011
G01 X45.2252 Y9.4643
G01 X45.2283 Y9.5268
G01 X45.2283 Y12.3223
G01 X45.2348 Y12.3265
G01 X45.3095 Y12.3822
G01 X45.3768 Y12.4432
G01 X45.4401 Y12.5133
G01 X45.4949 Y12.5872
G01 X45.5428 Y12.6672
G01 X45.5827 Y12.7515
G01 X45.6054 Y12.8147
G01 X46.3446 Y12.8147
G01 X46.3673 Y12.7515
G01 X46.4072 Y12.6672
G01 X46.4551 Y12.5872
G01 X46.5091 Y12.5143
G01 X46.5750 Y12.4416
G01 X46.6423 Y12.3806
G01 X46.7162 Y12.3258
G01 X46.7994 Y12.2761
G01 X46.8815 Y12.2373
G01 X46.9692 Y12.2059
G01 X47.0597 Y12.1833
G01 X47.1494 Y12.1699
G01 X47.2475 Y12.1651
G01 X47.3381 Y12.1696
G01 X47.4303 Y12.1833
G01 X47.5208 Y12.2059
G01 X47.6063 Y12.2364
G01 X47.6950 Y12.2784
G01 X47.7728 Y12.3251
G01 X47.8477 Y12.3806
G01 X47.9168 Y12.4432
G01 X47.9778 Y12.5105
G01 X48.0362 Y12.5893
G01 X48.0828 Y12.6672
G01 X48.1227 Y12.7515
G01 X48.1541 Y12.8392
G01 X48.1762 Y12.9273
G01 X48.1904 Y13.0219
G01 X48.1950 Y13.1138
G01 X48.1950 Y13.8162
G01 X48.1904 Y13.9081
G01 X48.1772 Y13.9979
G01 X48.1537 Y14.0919
G01 X48.1227 Y14.1785
G01 X48.0816 Y14.2650
G01 X48.0349 Y14.3428
G01 X47.9809 Y14.4157
G01 X47.9184 Y14.4850
G01 X47.8477 Y14.5494
G01 X47.7728 Y14.6049
G01 X47.6928 Y14.6528
G01 X47.6074 Y14.6931
G01 X47.5208 Y14.7241
G01 X47.4303 Y14.7467
G01 X47.3381 Y14.7604
G01 X47.2450 Y14.7650
G01 X47.1519 Y14.7604
G01 X47.0597 Y14.7467
G01 X46.9692 Y14.7241
G01 X46.8803 Y14.6922
G01 X46.7972 Y14.6528
G01 X46.7172 Y14.6049
G01 X46.6423 Y14.5494
G01 X46.5716 Y14.4850
G01 X46.5106 Y14.4177
G01 X46.4538 Y14.3407
G01 X46.4061 Y14.2606
G01 X46.3673 Y14.1785
G01 X46.3446 Y14.1153
G01 X45.6054 Y14.1153
G01 X45.5827 Y14.1785
G01 X45.5439 Y14.2606
G01 X45.4949 Y14.3428
G01 X45.4378 Y14.4195
G01 X45.3768 Y14.4868
G01 X45.3086 Y14.5486
G01 X45.2328 Y14.6049
G01 X45.1506 Y14.6539
G01 X45.0685 Y14.6927
G01 X44.9831 Y14.7233
G01 X44.8903 Y14.7467
G01 X44.7981 Y14.7604
G01 X44.7050 Y14.7650
G01 X44.6119 Y14.7604
G01 X44.5173 Y14.7462
G01 X44.4269 Y14.7233
G01 X44.3415 Y14.6927
G01 X44.2594 Y14.6539
G01 X44.1772 Y14.6049
G01 X44.1033 Y14.5501
G01 X44.0332 Y14.4868
G01 X43.9706 Y14.4177
G01 X43.9151 Y14.3428
G01 X43.8661 Y14.2606
G01 X43.8273 Y14.1785
G01 X43.7967 Y14.0931
G01 X43.7738 Y14.0027
G01 X43.7596 Y13.9081
G01 X43.7551 Y13.8175
G01 X43.7550 Y13.1150
G01 X43.7599 Y13.0194
G01 X43.7733 Y12.9297
G01 X43.7953 Y12.8416
G01 X43.8269 Y12.7526
G01 X43.8678 Y12.6661
G01 X43.9144 Y12.5882
G01 X43.9277 Y12.5701
G01 X43.9277 Y9.7974
G01 X43.1656 Y9.0353
G01 X4.7154 Y9.0353
G01 X3.4453 Y10.3054
G01 X3.4453 Y14.3386
G01 X8.0836 Y18.9770
G01 X8.1280 Y19.0262
G01 X8.1645 Y19.0755
G01 X8.1967 Y19.1292
G01 X8.2246 Y19.1879
G01 X8.2468 Y19.2504
G01 X8.2616 Y19.3099
G01 X8.2707 Y19.3706
G01 X8.2741 Y19.4356
G01 X8.2741 Y22.8259
G00 Z2.0000
G00 X15.3054 Y35.0752
G01 F60.00
G01 Z0.0000
G01 F150.00
G01 X15.3084 Y35.0794
G01 X15.3124 Y35.0839
G01 X15.3170 Y35.0879
G01 X15.3220 Y35.0914
G01 X15.3275 Y35.0942
G01 X15.3332 Y35.0963
G01 X15.3391 Y35.0977
G01 X15.3452 Y35.0983
G01 X16.2398 Y35.0984
G01 X16.4910 Y35.1315
G01 X16.7222 Y35.2273
G01 X16.9233 Y35.3816
G01 X21.6875 Y40.1458
G01 X21.8418 Y40.3469
G01 X21.9376 Y40.5780
G01 X21.9706 Y40.8293
G01 X21.9706 Y53.1052
G01 X21.9376 Y53.3565
G01 X21.8418 Y53.5876
G01 X21.6875 Y53.7887
G01 X20.4766 Y54.9995
G01 X20.4726 Y55.0041
G01 X20.4685 Y55.0103
G01 X20.4654 Y55.0169
G01 X20.4632 Y55.0239
G01 X20.4621 Y55.0312
G01 X20.4620 Y55.1296
G01 X20.3918 Y55.3916
G01 X20.2562 Y55.6264
G01 X20.0644 Y55.8182
G01 X19.8296 Y55.9538
G01 X19.5676 Y56.0240
G01 X19.2964 Y56.0240
G01 X19.0344 Y55.9538
G01 X18.7996 Y55.8182
G01 X18.6078 Y55.6264
G01 X18.5789 Y55.5764
G01 X18.5755 Y55.5712
G01 X18.5715 Y55.5666
G01 X18.5669 Y55.5624
G01 X18.5608 Y55.5582
G01 X18.5553 Y55.5554
G01 X18.5483 Y55.5530
G01 X18.5410 Y55.5517
G01 X18.5336 Y55.5514
G01 X18.5262 Y55.5523
G01 X18.3944 Y55.5875
G01 X18.3853 Y55.5913
G01 X18.3771 Y55.5967
G01 X18.3701 Y55.6036
G01 X18.3664 Y55.6086
G01 X18.3640 Y55.6129
G01 X18.3616 Y55.6186
G01 X18.3598 Y55.6245
G01 X18.3590 Y55.6293
G01 X18.3586 Y55.6355
G01 X18.3586 Y59.1784
G01 X18.3590 Y59.1845
G01 X18.3601 Y59.1905
G01 X18.3620 Y59.1964
G01 X18.3651 Y59.2030
G01 X18.3684 Y59.2082
G01 X18.3724 Y59.2129
G01 X18.3786 Y59.2190
G01 X18.3844 Y59.2236
G01 X18.3908 Y59.2272
G01 X18.3977 Y59.2298
G01 X18.4049 Y59.2315
G01 X18.4110 Y59.2320
G01 X18.4667 Y59.2320
G01 X18.8101 Y59.3240
G01 X19.1179 Y59.5017
G01 X19.3693 Y59.7531
G01 X19.5470 Y60.0609
G01 X19.6390 Y60.4043
G01 X19.6390 Y60.7597
G01 X19.5470 Y61.1031
G01 X19.3693 Y61.4109
G01 X19.1179 Y61.6623
G01 X18.8101 Y61.8400
G01 X18.4667 Y61.9320
G01 X18.1113 Y61.9320
G01 X17.7679 Y61.8400
G01 X17.4601 Y61.6623
G01 X17.2087 Y61.4109
G01 X17.0310 Y61.1031
G01 X16.9390 Y60.7597
G01 X16.9390 Y60.5104
G01 X16.9378 Y60.5006
G01 X16.9352 Y60.4925
G01 X16.9312 Y60.4849
G01 X16.9252 Y60.4771
G01 X16.7245 Y60.2764
G01 X16.5702 Y60.0753
G01 X16.4744 Y59.8442
G01 X16.4414 Y59.5929
G01 X16.4414 Y47.8361
G01 X16.4404 Y47.8275
G01 X16.4380 Y47.8193
G01 X16.4343 Y47.8116
G01 X16.4293 Y47.8046
G01 X16.3197 Y47.6949
G01 X16.1420 Y47.3871
G01 X16.0500 Y47.0437
G01 X16.0500 Y46.6883
G01 X16.1420 Y46.3449
G01 X16.3197 Y46.0371
G01 X16.5711 Y45.7857
G01 X16.8789 Y45.6080
G01 X17.2223 Y45.5160
G01 X17.5777 Y45.5160
G01 X17.9211 Y45.6080
G01 X18.2289 Y45.7857
G01 X18.4803 Y46.0371
G01 X18.6580 Y46.3449
G01 X18.7500 Y46.6883
G01 X18.7500 Y47.0437
G01 X18.6580 Y47.3871
G01 X18.4803 Y47.6949
G01 X18.3716 Y47.8037
G01 X18.3677 Y47.8085
G01 X18.3639 Y47.8148
G01 X18.3611 Y47.8216
G01 X18.3593 Y47.8288
G01 X18.3586 Y47.8373
G01 X18.3586 Y48.8340
G01 X18.3591 Y48.8413
G01 X18.3608 Y48.8485
G01 X18.3634 Y48.8554
G01 X18.3670 Y48.8618
G01 X18.3707 Y48.8667
G01 X18.3750 Y48.8710
G01 X18.3798 Y48.8749
G01 X18.3850 Y48.8781
G01 X18.3906 Y48.8806
G01 X18.3965 Y48.8825
G01 X18.4025 Y48.8836
G01 X18.4086 Y48.8840
G01 X20.0046 Y48.8840
G01 X20.0095 Y48.8836
G01 X20.0155 Y48.8825
G01 X20.0214 Y48.8806
G01 X20.0259 Y48.8787
G01 X20.0312 Y48.8756
G01 X20.0361 Y48.8719
G01 X20.0404 Y48.8676
G01 X20.0436 Y48.8638
G01 X20.0481 Y48.8565
G01 X20.0509 Y48.8497
G01 X20.0527 Y48.8425
G01 X20.0534 Y48.8340
G01 X20.0532 Y41.2389
G01 X20.0516 Y41.2305
G01 X20.0486 Y41.2224
G01 X20.0443 Y41.2150
G01 X20.0388 Y41.2084
G01 X15.8570 Y37.0270
G01 X15.8499 Y37.0222
G01 X15.8421 Y37.0186
G01 X15.8338 Y37.0164
G01 X15.8253 Y37.0157
G01 X15.0437 Y37.0157
G01 X15.0338 Y37.0167
G01 X15.0244 Y37.0196
G01 X15.0178 Y37.0230
G01 X15.0117 Y37.0273
G01 X14.9426 Y37.0878
G01 X14.9384 Y37.0922
G01 X14.9347 Y37.0970
G01 X14.9317 Y37.1023
G01 X14.9289 Y37.1090
G01 X14.9268 Y37.1184
G01 X14.9265 Y37.1281
G01 X14.9366 Y37.2706
G01 X14.9374 Y37.2767
G01 X14.9394 Y37.2837
G01 X14.9423 Y37.2904
G01 X14.9462 Y37.2967
G01 X14.9509 Y37.3022
G01 X14.9574 Y37.3078
G01 X15.0539 Y37.3637
G01 X15.3053 Y37.6151
G01 X15.4830 Y37.9229
G01 X15.5750 Y38.2663
G01 X15.5750 Y38.6217
G01 X15.4830 Y38.9651
G01 X15.3053 Y39.2729
G01 X15.0539 Y39.5243
G01 X14.9093 Y39.6078
G01 X14.9024 Y39.6129
G01 X14.8965 Y39.6190
G01 X14.8923 Y39.6250
G01 X14.8890 Y39.6315
G01 X14.8865 Y39.6396
G01 X14.8854 Y39.6469
G01 X14.8853 Y39.7775
G01 X14.8857 Y39.7836
G01 X14.8868 Y39.7896
G01 X14.8882 Y39.7942
G01 X14.8923 Y39.8030
G01 X14.8981 Y39.8109
G01 X14.9015 Y39.8143
G01 X14.9062 Y39.8182
G01 X15.0539 Y39.9037
G01 X15.3053 Y40.1551
G01 X15.4830 Y40.4629
G01 X15.5750 Y40.8063
G01 X15.5750 Y41.1617
G01 X15.4830 Y41.5051
G01 X15.3053 Y41.8129
G01 X15.0539 Y42.0643
G01 X14.9093 Y42.1478
G01 X14.9024 Y42.1529
G01 X14.8965 Y42.1590
G01 X14.8923 Y42.1650
G01 X14.8890 Y42.1715
G01 X14.8865 Y42.1796
G01 X14.8854 Y42.1869
G01 X14.8854 Y42.3211
G01 X14.8860 Y42.3260
G01 X14.8874 Y42.3319
G01 X14.8890 Y42.3365
G01 X14.8917 Y42.3420
G01 X14.8943 Y42.3461
G01 X14.8981 Y42.3509
G01 X14.9015 Y42.3543
G01 X14.9062 Y42.3582
G01 X15.0539 Y42.4437
G01 X15.3053 Y42.6951
G01 X15.4830 Y43.0029
G01 X15.5750 Y43.3463
G01 X15.5750 Y43.7017
G01 X15.4830 Y44.0451
G01 X15.3053 Y44.3529
G01 X15.0539 Y44.6043
G01 X14.9093 Y44.6878
G01 X14.9024 Y44.6929
G01 X14.8965 Y44.6990
G01 X14.8923 Y44.7050
G01 X14.8890 Y44.7115
G01 X14.8865 Y44.7196
G01 X14.8854 Y44.7269
G01 X14.8854 Y44.8599
G01 X14.8860 Y44.8660
G01 X14.8871 Y44.8707
G01 X14.8890 Y44.8765
G01 X14.8911 Y44.8809
G01 X14.8936 Y44.8851
G01 X14.8973 Y44.8899
G01 X14.9006 Y44.8935
G01 X14.9052 Y44.8974
G01 X14.9103 Y44.9008
G01 X15.0539 Y44.9837
G01 X15.3053 Y45.2351
G01 X15.4830 Y45.5429
G01 X15.5750 Y45.8863
G01 X15.5750 Y46.2417
G01 X15.4830 Y46.5851
G01 X15.3053 Y46.8929
G01 X15.0539 Y47.1443
G01 X14.9093 Y47.2278
G01 X14.9024 Y47.2329
G01 X14.8965 Y47.2390
G01 X14.8923 Y47.2450
G01 X14.8890 Y47.2515
G01 X14.8865 Y47.2596
G01 X14.8854 Y47.2669
G01 X14.8854 Y47.3999
G01 X14.8860 Y47.4060
G01 X14.8871 Y47.4107
G01 X14.8890 Y47.4165
G01 X14.8911 Y47.4209
G01 X14.8936 Y47.4251
G01 X14.8973 Y47.4299
G01 X14.9006 Y47.4335
G01 X14.9052 Y47.4374
G01 X14.9103 Y47.4408
G01 X15.0539 Y47.5237
G01 X15.3053 Y47.7751
G01 X15.4830 Y48.0829
G01 X15.5750 Y48.4263
G01 X15.5750 Y48.7817
G01 X15.4830 Y49.1251
G01 X15.3053 Y49.4329
G01 X15.0539 Y49.6843
G01 X14.9093 Y49.7678
G01 X14.9024 Y49.7729
G01 X14.8965 Y49.7790
G01 X14.8923 Y49.7850
G01 X14.8890 Y49.7915
G01 X14.8865 Y49.7996
G01 X14.8854 Y49.8069
G01 X14.8854 Y49.9399
G01 X14.8860 Y49.9460
G01 X14.8871 Y49.9507
G01 X14.8890 Y49.9565
G01 X14.8911 Y49.9609
G01 X14.8936 Y49.9651
G01 X14.8973 Y49.9699
G01 X14.9015 Y49.9743
G01 X14.9052 Y49.9774
G01 X14.9103 Y49.9808
G01 X15.0539 Y50.0637
G01 X15.3053 Y50.3151
G01 X15.4830 Y50.6229
G01 X15.5750 Y50.9663
G01 X15.5750 Y51.3217
G01 X15.4830 Y51.6651
G01 X15.3053 Y51.9729
G01 X15.0539 Y52.2243
G01 X14.9093 Y52.3078
G01 X14.9024 Y52.3129
G01 X14.8965 Y52.3190
G01 X14.8923 Y52.3250
G01 X14.8890 Y52.3315
G01 X14.8865 Y52.3396
G01 X14.8854 Y52.3469
G01 X14.8853 Y52.4787
G01 X14.8858 Y52.4848
G01 X14.8868 Y52.4896
G01 X14.8886 Y52.4954
G01 X14.8906 Y52.4998
G01 X14.8936 Y52.5051
G01 X14.8973 Y52.5099
G01 X14.9015 Y52.5143
G01 X14.9052 Y52.5174
G01 X14.9103 Y52.5208
G01 X15.0539 Y52.6037
G01 X15.3053 Y52.8551
G01 X15.4830 Y53.1629
G01 X15.5750 Y53.5063
G01 X15.5750 Y53.8617
G01 X15.4830 Y54.2051
G01 X15.3053 Y54.5129
G01 X15.0539 Y54.7643
G01 X14.9093 Y54.8478
G01 X14.9024 Y54.8529
G01 X14.8965 Y54.8590
G01 X14.8923 Y54.8650
G01 X14.8890 Y54.8715
G01 X14.8865 Y54.8796
G01 X14.8854 Y54.8869
G01 X14.8853 Y55.0187
G01 X14.8857 Y55.0236
G01 X14.8868 Y55.0296
G01 X14.8886 Y55.0354
G01 X14.8911 Y55.0409
G01 X14.8936 Y55.0451
G01 X14.8973 Y55.0499
G01 X14.9006 Y55.0535
G01 X14.9052 Y55.0574
G01 X14.9103 Y55.0608
G01 X15.0539 Y55.1437
G01 X15.3053 Y55.3951
G01 X15.4830 Y55.7029
G01 X15.5750 Y56.0463
G01 X15.5750 Y56.4017
G01 X15.4830 Y56.7451
G01 X15.3053 Y57.0529
G01 X15.0539 Y57.3043
G01 X14.9093 Y57.3878
G01 X14.9024 Y57.3929
G01 X14.8965 Y57.3990
G01 X14.8923 Y57.4050
G01 X14.8890 Y57.4115
G01 X14.8865 Y57.4196
G01 X14.8854 Y57.4269
G01 X14.8853 Y57.5587
G01 X14.8857 Y57.5636
G01 X14.8868 Y57.5696
G01 X14.8886 Y57.5754
G01 X14.8911 Y57.5809
G01 X14.8936 Y57.5851
G01 X14.8973 Y57.5899
G01 X14.9006 Y57.5935
G01 X14.9052 Y57.5974
G01 X14.9103 Y57.6008
G01 X15.0539 Y57.6837
G01 X15.3053 Y57.9351
G01 X15.4830 Y58.2429
G01 X15.5750 Y58.5863
G01 X15.5750 Y58.9417
G01 X15.4830 Y59.2851
G01 X15.3053 Y59.5929
G01 X15.0539 Y59.8443
G01 X14.9093 Y59.9278
G01 X14.9024 Y59.9329
G01 X14.8965 Y59.9390
G01 X14.8923 Y59.9450
G01 X14.8890 Y59.9515
G01 X14.8865 Y59.9596
G01 X14.8854 Y59.9669
G01 X14.8853 Y60.0987
G01 X14.8857 Y60.1036
G01 X14.8868 Y60.1096
G01 X14.8886 Y60.1154
G01 X14.8911 Y60.1209
G01 X14.8936 Y60.1251
G01 X14.8973 Y60.1299
G01 X14.9006 Y60.1335
G01 X14.9052 Y60.1374
G01 X14.9103 Y60.1408
G01 X15.0539 Y60.2237
G01 X15.3053 Y60.4751
G01 X15.4830 Y60.7829
G01 X15.5750 Y61.1263
G01 X15.5750 Y61.4817
G01 X15.4830 Y61.8251
G01 X15.3053 Y62.1329
G01 X15.0539 Y62.3843
G01 X14.9093 Y62.4678
G01 X14.9024 Y62.4729
G01 X14.8965 Y62.4790
G01 X14.8923 Y62.4850
G01 X14.8890 Y62.4915
G01 X14.8865 Y62.4996
G01 X14.8854 Y62.5069
G01 X14.8854 Y62.6411
G01 X14.8871 Y62.6507
G01 X14.8890 Y62.6565
G01 X14.8911 Y62.6609
G01 X14.8965 Y62.6690
G01 X14.9033 Y62.6759
G01 X14.9103 Y62.6808
G01 X15.0539 Y62.7637
G01 X15.1757 Y62.8855
G01 X15.1794 Y62.8887
G01 X15.1845 Y62.8922
G01 X15.1899 Y62.8950
G01 X15.1945 Y62.8968
G01 X15.2017 Y62.8986
G01 X15.2102 Y62.8993
G01 X15.5508 Y62.8993
G01 X15.8281 Y62.9358
G01 X16.0836 Y63.0417
G01 X16.3056 Y63.2120
G01 X17.0038 Y63.9102
G01 X17.1741 Y64.1322
G01 X17.2800 Y64.3877
G01 X17.3165 Y64.6651
G01 X17.3165 Y73.0247
G01 X17.2800 Y73.3020
G01 X17.1741 Y73.5575
G01 X17.0038 Y73.7795
G01 X14.4441 Y76.3394
G01 X14.4411 Y76.3433
G01 X14.4379 Y76.3485
G01 X14.4358 Y76.3530
G01 X14.4338 Y76.3588
G01 X14.4321 Y76.3684
G01 X14.4320 Y76.3807
G01 X14.3400 Y76.7241
G01 X14.1623 Y77.0319
G01 X13.9109 Y77.2833
G01 X13.6031 Y77.4610
G01 X13.2597 Y77.5530
G01 X12.9043 Y77.5530
G01 X12.5609 Y77.4610
G01 X12.2531 Y77.2833
G01 X12.0017 Y77.0319
G01 X11.8240 Y76.7241
G01 X11.7320 Y76.3807
G01 X11.7320 Y76.0253
G01 X11.8240 Y75.6819
G01 X12.0017 Y75.3741
G01 X12.2531 Y75.1227
G01 X12.5609 Y74.9450
G01 X12.9043 Y74.8530
G01 X12.9166 Y74.8529
G01 X12.9262 Y74.8512
G01 X12.9320 Y74.8492
G01 X12.9365 Y74.8471
G01 X12.9407 Y74.8446
G01 X12.9456 Y74.8409
G01 X15.1829 Y72.6038
G01 X15.1869 Y72.5992
G01 X15.1897 Y72.5951
G01 X15.1922 Y72.5909
G01 X15.1946 Y72.5852
G01 X15.1968 Y72.5769
G01 X15.1975 Y72.5684
G01 X15.1974 Y67.8647
G01 X15.1960 Y67.8550
G01 X15.1941 Y67.8491
G01 X15.1921 Y67.8446
G01 X15.1889 Y67.8392
G01 X15.1860 Y67.8353
G01 X15.1790 Y67.8283
G01 X15.0490 Y67.7333
G01 X15.0438 Y67.7301
G01 X15.0382 Y67.7276
G01 X15.0323 Y67.7258
G01 X15.0262 Y67.7247
G01 X15.0201 Y67.7244
G01 X15.0140 Y67.7248
G01 X14.8967 Y67.7402
G01 X13.5533 Y67.7402
G01 X13.3737 Y67.7166
G01 X13.2096 Y67.6486
G01 X13.0686 Y67.5404
G01 X12.9604 Y67.3994
G01 X12.8924 Y67.2353
G01 X12.8688 Y67.0557
G01 X12.8688 Y67.0359
G01 X12.8681 Y67.0286
G01 X12.8663 Y67.0214
G01 X12.8629 Y67.0135
G01 X12.8582 Y67.0063
G01 X12.8533 Y67.0009
G01 X12.8466 Y66.9955
G01 X12.8391 Y66.9914
G01 X12.6212 Y66.9011
G01 X12.3993 Y66.7308
G01 X11.6772 Y66.0087
G01 X11.6706 Y66.0032
G01 X11.6621 Y65.9984
G01 X11.6575 Y65.9966
G01 X11.6516 Y65.9951
G01 X11.6455 Y65.9942
G01 X11.6406 Y65.9941
G01 X11.6345 Y65.9946
G01 X11.6296 Y65.9956
G01 X11.6227 Y65.9979
G01 X11.5054 Y66.0465
G01 X11.4988 Y66.0498
G01 X11.4928 Y66.0541
G01 X11.4875 Y66.0591
G01 X11.4829 Y66.0649
G01 X11.4793 Y66.0713
G01 X11.4767 Y66.0782
G01 X11.4750 Y66.0854
G01 X11.4745 Y66.0927
G01 X11.4745 Y73.1517
G01 X11.4380 Y73.4290
G01 X11.3321 Y73.6845
G01 X11.1618 Y73.9065
G01 X8.7283 Y76.3404
G01 X8.7254 Y76.3443
G01 X8.7223 Y76.3496
G01 X8.7188 Y76.3588
G01 X8.7171 Y76.3684
G01 X8.7170 Y76.3807
G01 X8.6250 Y76.7241
G01 X8.4473 Y77.0319
G01 X8.1959 Y77.2833
G01 X7.8881 Y77.4610
G01 X7.5447 Y77.5530
G01 X7.1893 Y77.5530
G01 X6.8459 Y77.4610
G01 X6.5381 Y77.2833
G01 X6.2867 Y77.0319
G01 X6.1090 Y76.7241
G01 X6.0170 Y76.3807
G01 X6.0170 Y76.0253
G01 X6.1090 Y75.6819
G01 X6.2867 Y75.3741
G01 X6.5381 Y75.1227
G01 X6.8459 Y74.9450
G01 X7.1893 Y74.8530
G01 X7.2016 Y74.8529
G01 X7.2112 Y74.8512
G01 X7.2170 Y74.8492
G01 X7.2225 Y74.8465
G01 X7.2277 Y74.8432
G01 X7.2315 Y74.8400
G01 X9.3409 Y72.7308
G01 X9.3464 Y72.7242
G01 X9.3512 Y72.7157
G01 X9.3543 Y72.7064
G01 X9.3554 Y72.6979
G01 X9.3555 Y63.7674
G01 X9.3550 Y63.7601
G01 X9.3533 Y63.7529
G01 X9.3430 Y63.7273
G01 X9.3065 Y63.4499
G01 X9.3064 Y24.3998
G01 X9.3053 Y24.3925
G01 X9.3032 Y24.3855
G01 X9.3000 Y24.3789
G01 X9.2959 Y24.3727
G01 X9.2910 Y24.3673
G01 X9.2853 Y24.3626
G01 X9.2790 Y24.3588
G01 X9.2722 Y24.3560
G01 X9.2663 Y24.3545
G01 X9.1356 Y24.3286
G01 X9.1271 Y24.3283
G01 X9.1197 Y24.3292
G01 X9.1127 Y24.3311
G01 X9.1048 Y24.3347
G01 X9.0987 Y24.3388
G01 X9.0933 Y24.3437
G01 X9.0886 Y24.3494
G01 X9.0848 Y24.3557
G01 X9.0472 Y24.4464
G01 X8.8868 Y24.6865
G01 X8.6825 Y24.8907
G01 X8.4424 Y25.0512
G01 X8.1756 Y25.1616
G01 X7.8924 Y25.2180
G01 X7.6036 Y25.2180
G01 X7.3204 Y25.1616
G01 X7.0536 Y25.0512
G01 X6.8135 Y24.8907
G01 X6.6092 Y24.6865
G01 X6.4488 Y24.4464
G01 X6.3384 Y24.1796
G01 X6.2820 Y23.8964
G01 X6.2820 Y23.6076
G01 X6.3384 Y23.3244
G01 X6.4488 Y23.0576
G01 X6.5566 Y22.8964
G01 X6.5596 Y22.8910
G01 X6.5619 Y22.8853
G01 X6.5634 Y22.8794
G01 X6.5643 Y22.8733
G01 X6.5644 Y19.8964
G01 X6.5642 Y19.8915
G01 X6.5632 Y19.8854
G01 X6.5615 Y19.8796
G01 X6.5591 Y19.8739
G01 X6.5546 Y19.8666
G01 X6.5498 Y19.8610
G01 X2.0482 Y15.3595
G01 X1.8779 Y15.1375
G01 X1.7720 Y14.8820
G01 X1.7355 Y14.6047
G01 X1.7355 Y10.0393
G01 X1.7720 Y9.7619
G01 X1.8779 Y9.5064
G01 X2.0482 Y9.2845
G01 X3.6945 Y7.6382
G01 X3.9164 Y7.4679
G01 X4.1719 Y7.3620
G01 X4.4493 Y7.3255
G01 X43.4317 Y7.3255
G01 X43.7091 Y7.3620
G01 X43.9646 Y7.4679
G01 X44.1865 Y7.6382
G01 X45.3248 Y8.7765
G01 X45.4951 Y8.9985
G01 X45.6010 Y9.2539
G01 X45.6375 Y9.5313
G01 X45.6377 Y12.1091
G01 X45.6390 Y12.1164
G01 X45.6409 Y12.1223
G01 X45.6441 Y12.1290
G01 X45.6475 Y12.1342
G01 X45.6542 Y12.1415
G01 X45.6678 Y12.1521
G01 X45.8472 Y12.3859
G01 X45.8522 Y12.3915
G01 X45.8589 Y12.3969
G01 X45.8653 Y12.4006
G01 X45.8723 Y12.4033
G01 X45.8795 Y12.4049
G01 X45.8869 Y12.4055
G01 X46.0656 Y12.4054
G01 X46.0717 Y12.4048
G01 X46.0789 Y12.4029
G01 X46.0847 Y12.4006
G01 X46.0901 Y12.3976
G01 X46.0969 Y12.3923
G01 X46.1028 Y12.3859
G01 X46.2822 Y12.1522
G01 X46.5642 Y11.9358
G01 X46.8926 Y11.7997
G01 X47.2450 Y11.7533
G01 X47.5974 Y11.7997
G01 X47.9258 Y11.9358
G01 X48.2078 Y12.1522
G01 X48.4001 Y12.4028
G01 X48.4041 Y12.4074
G01 X48.4095 Y12.4122
G01 X48.4156 Y12.4161
G01 X48.4233 Y12.4196
G01 X48.4610 Y12.4309
G01 X48.4681 Y12.4322
G01 X48.4741 Y12.4326
G01 X48.5559 Y12.4326
G01 X48.5643 Y12.4319
G01 X48.5702 Y12.4305
G01 X48.6090 Y12.4187
G01 X48.6144 Y12.4161
G01 X48.6185 Y12.4136
G01 X48.6233 Y12.4099
G01 X48.6268 Y12.4065
G01 X48.8222 Y12.1522
G01 X49.1042 Y11.9358
G01 X49.4326 Y11.7997
G01 X49.7850 Y11.7533
G01 X50.1374 Y11.7997
G01 X50.4658 Y11.9358
G01 X50.7478 Y12.1522
G01 X50.9642 Y12.4342
G01 X51.1003 Y12.7626
G01 X51.1471 Y13.1183
G01 X51.1471 Y13.8117
G01 X51.1003 Y14.1674
G01 X50.9642 Y14.4958
G01 X50.8534 Y14.6403
G01 X50.8497 Y14.6466
G01 X50.8470 Y14.6533
G01 X50.8452 Y14.6604
G01 X50.8445 Y14.6676
G01 X50.8445 Y22.7187
G01 X50.8452 Y22.7260
G01 X50.8470 Y22.7332
G01 X50.8498 Y22.7400
G01 X50.8536 Y22.7463
G01 X50.8591 Y22.7529
G01 X50.9238 Y22.8175
G01 X51.0842 Y23.0576
G01 X51.1946 Y23.3244
G01 X51.2510 Y23.6076
G01 X51.2510 Y23.8964
G01 X51.1946 Y24.1796
G01 X51.0842 Y24.4464
G01 X50.9238 Y24.6865
G01 X50.7195 Y24.8907
G01 X50.6682 Y24.9250
G01 X50.6616 Y24.9306
G01 X50.6561 Y24.9371
G01 X50.6523 Y24.9434
G01 X50.6492 Y24.9514
G01 X50.6474 Y24.9598
G01 X50.6470 Y24.9659
G01 X50.6470 Y28.0862
G01 X50.6480 Y28.0948
G01 X50.6504 Y28.1030
G01 X50.6810 Y28.1769
G01 X50.7171 Y28.4510
G01 X50.6810 Y28.7252
G01 X50.5752 Y28.9805
G01 X50.4048 Y29.2025
G01 X48.3977 Y31.2096
G01 X48.3944 Y31.2133
G01 X48.3909 Y31.2183
G01 X48.3884 Y31.2225
G01 X48.3860 Y31.2282
G01 X48.3843 Y31.2340
G01 X48.3835 Y31.2389
G01 X48.3831 Y31.2450
G01 X48.3833 Y31.2499
G01 X48.3849 Y31.2583
G01 X48.3879 Y31.2664
G01 X48.3922 Y31.2738
G01 X48.3977 Y31.2804
G01 X52.5875 Y35.4700
G01 X52.5944 Y35.4752
G01 X52.6008 Y35.4787
G01 X52.6090 Y35.4815
G01 X52.6174 Y35.4829
G01 X52.7567 Y35.4830
G01 X53.1001 Y35.5750
G01 X53.4079 Y35.7527
G01 X53.6593 Y36.0041
G01 X53.8370 Y36.3119
G01 X53.9290 Y36.6553
G01 X53.9290 Y37.0107
G01 X53.8370 Y37.3541
G01 X53.6593 Y37.6619
G01 X53.4079 Y37.9133
G01 X53.1001 Y38.0910
G01 X52.7567 Y38.1830
G01 X52.4013 Y38.1830
G01 X52.0579 Y38.0910
G01 X51.7501 Y37.9133
G01 X51.4987 Y37.6619
G01 X51.3210 Y37.3541
G01 X51.2679 Y37.1559
G01 X51.2662 Y37.1512
G01 X51.2635 Y37.1455
G01 X51.2601 Y37.1403
G01 X51.2561 Y37.1355
G01 X46.1736 Y32.0529
G01 X46.1660 Y32.0467
G01 X46.1573 Y32.0421
G01 X46.1480 Y32.0393
G01 X46.1382 Y32.0383
G01 X41.0783 Y32.0383
G01 X41.0720 Y32.0389
G01 X41.0672 Y32.0398
G01 X41.0612 Y32.0418
G01 X41.0556 Y32.0444
G01 X40.9211 Y32.1220
G01 X40.5777 Y32.2140
G01 X40.2223 Y32.2140
G01 X39.8789 Y32.1220
G01 X39.5711 Y31.9443
G01 X39.3197 Y31.6929
G01 X39.1420 Y31.3851
G01 X39.0500 Y31.0417
G01 X39.0500 Y30.6863
G01 X39.1420 Y30.3429
G01 X39.3197 Y30.0351
G01 X39.5711 Y29.7837
G01 X39.8789 Y29.6060
G01 X40.2223 Y29.5140
G01 X40.5777 Y29.5140
G01 X40.9211 Y29.6060
G01 X41.2289 Y29.7837
G01 X41.3516 Y29.9063
G01 X41.3585 Y29.9115
G01 X41.3649 Y29.9150
G01 X41.3719 Y29.9175
G01 X41.3803 Y29.9191
G01 X42.1023 Y29.9193
G01 X42.1084 Y29.9189
G01 X42.1133 Y29.9181
G01 X42.1191 Y29.9164
G01 X42.1248 Y29.9140
G01 X42.1290 Y29.9115
G01 X42.1340 Y29.9080
G01 X42.1385 Y29.9038
G01 X42.1425 Y29.8991
G01 X42.1458 Y29.8939
G01 X42.1485 Y29.8884
G01 X42.1971 Y29.7711
G01 X42.1991 Y29.7653
G01 X42.2008 Y29.7557
G01 X42.2005 Y29.7459
G01 X42.1984 Y29.7363
G01 X42.1944 Y29.7274
G01 X42.1903 Y29.7212
G01 X42.1863 Y29.7166
G01 X41.4868 Y29.0171
G01 X41.4812 Y29.0123
G01 X41.4739 Y29.0078
G01 X41.4671 Y29.0050
G01 X41.4599 Y29.0032
G01 X41.4514 Y29.0025
G01 X38.1796 Y29.0025
G01 X38.1723 Y29.0030
G01 X38.1663 Y29.0043
G01 X38.1605 Y29.0063
G01 X38.1550 Y29.0090
G01 X38.1498 Y29.0123
G01 X38.1442 Y29.0171
G01 X32.8251 Y34.3362
G01 X32.8211 Y34.3408
G01 X32.8176 Y34.3459
G01 X32.8148 Y34.3513
G01 X32.8123 Y34.3583
G01 X32.8109 Y34.3655
G01 X32.8105 Y34.3716
G01 X32.8105 Y47.7517
G01 X32.7740 Y48.0292
G01 X32.6682 Y48.2846
G01 X32.4978 Y48.5065
G01 X27.8035 Y53.2008
G01 X27.5815 Y53.3711
G01 X27.3261 Y53.4770
G01 X27.0520 Y53.5131
G01 X26.7779 Y53.4770
G01 X26.5225 Y53.3711
G01 X26.4249 Y53.2965
G01 X26.4196 Y53.2933
G01 X26.4151 Y53.2912
G01 X26.4105 Y53.2896
G01 X26.4045 Y53.2882
G01 X26.3983 Y53.2876
G01 X26.3909 Y53.2879
G01 X26.3836 Y53.2893
G01 X26.3766 Y53.2917
G01 X26.2572 Y53.3506
G01 X26.2521 Y53.3541
G01 X26.2475 Y53.3581
G01 X26.2441 Y53.3618
G01 X26.2405 Y53.3668
G01 X26.2375 Y53.3722
G01 X26.2352 Y53.3779
G01 X26.2338 Y53.3827
G01 X26.2328 Y53.3888
G01 X26.2326 Y54.0767
G01 X26.2331 Y54.0828
G01 X26.2341 Y54.0876
G01 X26.2374 Y54.0968
G01 X26.2424 Y54.1052
G01 X26.2463 Y54.1099
G01 X26.2499 Y54.1133
G01 X26.2579 Y54.1190
G01 X26.2656 Y54.1225
G01 X26.3938 Y54.1652
G01 X26.3986 Y54.1666
G01 X26.4047 Y54.1676
G01 X26.4109 Y54.1678
G01 X26.4171 Y54.1672
G01 X26.4256 Y54.1652
G01 X26.4335 Y54.1617
G01 X26.6544 Y54.0342
G01 X26.9164 Y53.9640
G01 X27.1876 Y53.9640
G01 X27.4496 Y54.0342
G01 X27.6844 Y54.1698
G01 X27.8762 Y54.3616
G01 X28.0108 Y54.5947
G01 X28.0141 Y54.5997
G01 X28.0179 Y54.6042
G01 X29.3785 Y55.9648
G01 X29.5328 Y56.1659
G01 X29.6286 Y56.3970
G01 X29.6616 Y56.6483
G01 X29.6617 Y59.9714
G01 X29.6622 Y59.9764
G01 X29.6635 Y59.9824
G01 X29.6671 Y59.9917
G01 X29.7070 Y60.0609
G01 X29.7990 Y60.4043
G01 X29.7990 Y60.7597
G01 X29.7070 Y61.1031
G01 X29.5293 Y61.4109
G01 X29.4197 Y61.5206
G01 X29.4154 Y61.5266
G01 X29.4114 Y61.5342
G01 X29.4088 Y61.5423
G01 X29.4077 Y61.5496
G01 X29.4077 Y63.9985
G01 X29.4092 Y64.0084
G01 X29.4111 Y64.0143
G01 X29.4131 Y64.0188
G01 X29.4601 Y64.1002
G01 X29.5340 Y64.3762
G01 X29.5340 Y64.6618
G01 X29.4601 Y64.9378
G01 X29.3172 Y65.1852
G01 X29.1152 Y65.3872
G01 X28.8678 Y65.5300
G01 X28.5918 Y65.6040
G01 X28.5057 Y65.6041
G01 X28.4997 Y65.6050
G01 X28.4937 Y65.6065
G01 X28.4880 Y65.6088
G01 X28.4816 Y65.6124
G01 X28.4758 Y65.6169
G01 X28.4716 Y65.6213
G01 X28.4672 Y65.6272
G01 X28.4642 Y65.6326
G01 X28.4136 Y65.7544
G01 X28.4112 Y65.7639
G01 X28.4108 Y65.7737
G01 X28.4119 Y65.7822
G01 X28.4150 Y65.7916
G01 X28.4198 Y65.8001
G01 X28.4253 Y65.8067
G01 X34.2045 Y71.5858
G01 X34.3588 Y71.7869
G01 X34.4546 Y72.0180
G01 X34.4876 Y72.2693
G01 X34.4876 Y81.5002
G01 X34.4880 Y81.5063
G01 X34.4894 Y81.5135
G01 X34.4919 Y81.5205
G01 X34.4947 Y81.5259
G01 X34.4982 Y81.5310
G01 X34.5022 Y81.5356
G01 X35.9434 Y82.9768
G01 X35.9490 Y82.9816
G01 X35.9563 Y82.9861
G01 X35.9643 Y82.9892
G01 X35.9715 Y82.9909
G01 X35.9788 Y82.9914
G01 X39.8337 Y82.9913
G01 X39.8397 Y82.9907
G01 X39.8468 Y82.9889
G01 X39.8524 Y82.9867
G01 X39.8578 Y82.9838
G01 X39.9180 Y82.9379
G01 X40.1735 Y82.8320
G01 X40.4509 Y82.7955
G01 X42.7608 Y82.7955
G01 X43.0381 Y82.8320
G01 X43.2936 Y82.9379
G01 X43.5156 Y83.1082
G01 X44.3088 Y83.9014
G01 X44.4792 Y84.1234
G01 X44.5850 Y84.3788
G01 X44.6215 Y84.6562
G01 X44.6215 Y87.8749
G01 X44.5850 Y88.1523
G01 X44.4792 Y88.4077
G01 X44.3088 Y88.6297
G01 X27.7941 Y105.1443
G01 X27.7901 Y105.1489
G01 X27.7873 Y105.1530
G01 X27.7838 Y105.1594
G01 X27.7813 Y105.1664
G01 X27.7800 Y105.1724
G01 X27.7795 Y105.1797
G01 X27.7795 Y111.2254
G01 X27.7799 Y111.2315
G01 X27.7810 Y111.2375
G01 X27.7829 Y111.2434
G01 X27.7860 Y111.2500
G01 X27.7893 Y111.2552
G01 X27.7941 Y111.2608
G01 X29.5082 Y112.9749
G01 X29.5148 Y112.9804
G01 X29.5222 Y112.9847
G01 X29.5291 Y112.9873
G01 X29.5375 Y112.9891
G01 X29.5436 Y112.9895
G01 X40.9434 Y112.9895
G01 X40.9483 Y112.9893
G01 X40.9544 Y112.9883
G01 X40.9614 Y112.9861
G01 X40.9680 Y112.9830
G01 X40.9732 Y112.9797
G01 X40.9788 Y112.9749
G01 X42.6149 Y111.3388
G01 X42.6204 Y111.3322
G01 X42.6242 Y111.3259
G01 X42.6273 Y111.3179
G01 X42.6291 Y111.3095
G01 X42.6295 Y111.3034
G01 X42.6295 Y110.5614
G01 X42.6291 Y110.5552
G01 X42.6277 Y110.5479
G01 X42.6251 Y110.5410
G01 X42.6216 Y110.5344
G01 X42.6171 Y110.5285
G01 X42.6119 Y110.5233
G01 X42.5032 Y110.4398
G01 X42.2868 Y110.1578
G01 X42.1507 Y109.8294
G01 X42.1043 Y109.4770
G01 X42.1507 Y109.1246
G01 X42.2868 Y108.7962
G01 X42.5032 Y108.5142
G01 X42.7575 Y108.3186
G01 X42.7610 Y108.3150
G01 X42.7648 Y108.3101
G01 X42.7680 Y108.3047
G01 X42.7700 Y108.3001
G01 X42.7818 Y108.2611
G01 X42.7831 Y108.2552
G01 X42.7836 Y108.2491
G01 X42.7836 Y108.1661
G01 X42.7831 Y108.1588
G01 X42.7815 Y108.1517
G01 X42.7704 Y108.1150
G01 X42.7668 Y108.1071
G01 X42.7626 Y108.1009
G01 X42.7584 Y108.0962
G01 X42.7537 Y108.0921
G01 X42.5032 Y107.8998
G01 X42.2868 Y107.6178
G01 X42.1507 Y107.2894
G01 X42.1043 Y106.9370
G01 X42.1507 Y106.5846
G01 X42.2868 Y106.2562
G01 X42.5032 Y105.9742
G01 X42.7575 Y105.7786
G01 X42.7610 Y105.7750
G01 X42.7648 Y105.7701
G01 X42.7680 Y105.7647
G01 X42.7700 Y105.7601
G01 X42.7818 Y105.7211
G01 X42.7831 Y105.7152
G01 X42.7836 Y105.7091
G01 X42.7836 Y105.6261
G01 X42.7831 Y105.6188
G01 X42.7815 Y105.6117
G01 X42.7704 Y105.5750
G01 X42.7668 Y105.5671
G01 X42.7626 Y105.5609
G01 X42.7584 Y105.5562
G01 X42.7537 Y105.5521
G01 X42.5032 Y105.3598
G01 X42.2868 Y105.0778
G01 X42.1507 Y104.7494
G01 X42.1043 Y104.3970
G01 X42.1507 Y104.0446
G01 X42.2868 Y103.7162
G01 X42.5032 Y103.4342
G01 X42.7575 Y103.2386
G01 X42.7610 Y103.2350
G01 X42.7648 Y103.2301
G01 X42.7680 Y103.2247
G01 X42.7700 Y103.2201
G01 X42.7818 Y103.1811
G01 X42.7829 Y103.1764
G01 X42.7835 Y103.1703
G01 X42.7836 Y103.0861
G01 X42.7831 Y103.0788
G01 X42.7815 Y103.0717
G01 X42.7704 Y103.0350
G01 X42.7668 Y103.0271
G01 X42.7626 Y103.0209
G01 X42.7584 Y103.0162
G01 X42.7537 Y103.0121
G01 X42.5032 Y102.8198
G01 X42.2868 Y102.5378
G01 X42.1507 Y102.2094
G01 X42.1043 Y101.8570
G01 X42.1507 Y101.5046
G01 X42.2868 Y101.1762
G01 X42.5032 Y100.8942
G01 X42.7852 Y100.6778
G01 X43.1136 Y100.5417
G01 X43.4693 Y100.4949
G01 X44.1627 Y100.4949
G01 X44.5184 Y100.5417
G01 X44.7572 Y100.6406
G01 X44.7642 Y100.6429
G01 X44.7714 Y100.6442
G01 X45.6685 Y100.6444
G01 X45.6758 Y100.6439
G01 X45.6830 Y100.6422
G01 X45.6899 Y100.6396
G01 X45.6973 Y100.6353
G01 X45.7039 Y100.6298
G01 X51.8569 Y94.4768
G01 X51.8609 Y94.4722
G01 X51.8656 Y94.4650
G01 X51.8686 Y94.4582
G01 X51.8708 Y94.4499
G01 X51.8715 Y94.4414
G01 X51.8715 Y89.1371
G01 X51.8710 Y89.1310
G01 X51.8697 Y89.1250
G01 X51.8677 Y89.1192
G01 X51.8650 Y89.1137
G01 X51.8617 Y89.1085
G01 X51.8577 Y89.1038
G01 X51.8532 Y89.0997
G01 X51.8483 Y89.0961
G01 X51.8406 Y89.0921
G01 X51.7233 Y89.0435
G01 X51.7164 Y89.0412
G01 X51.7091 Y89.0399
G01 X51.7017 Y89.0398
G01 X51.6944 Y89.0407
G01 X51.6874 Y89.0426
G01 X51.6806 Y89.0456
G01 X51.6744 Y89.0495
G01 X51.6688 Y89.0543
G01 X38.7270 Y101.9965
G01 X38.7222 Y102.0036
G01 X38.7186 Y102.0114
G01 X38.7164 Y102.0197
G01 X38.7157 Y102.0282
G01 X38.7157 Y105.4735
G01 X38.6792 Y105.7509
G01 X38.5733 Y106.0064
G01 X38.4030 Y106.2284
G01 X34.7885 Y109.8428
G01 X34.5666 Y110.0131
G01 X34.3111 Y110.1190
G01 X34.0337 Y110.1555
G01 X33.0971 Y110.1555
G01 X33.0887 Y110.1562
G01 X33.0839 Y110.1573
G01 X33.0782 Y110.1592
G01 X33.0727 Y110.1618
G01 X33.0676 Y110.1651
G01 X32.8584 Y110.3257
G01 X32.5300 Y110.4617
G01 X32.1742 Y110.5085
G01 X31.4808 Y110.5085
G01 X31.1251 Y110.4617
G01 X30.7967 Y110.3257
G01 X30.5147 Y110.1093
G01 X30.2983 Y109.8273
G01 X30.1623 Y109.4989
G01 X30.1159 Y109.1465
G01 X30.1623 Y108.7940
G01 X30.2983 Y108.4656
G01 X30.5147 Y108.1837
G01 X30.7691 Y107.9881
G01 X30.7726 Y107.9845
G01 X30.7764 Y107.9796
G01 X30.7790 Y107.9753
G01 X30.7816 Y107.9696
G01 X30.7931 Y107.9316
G01 X30.7948 Y107.9233
G01 X30.7952 Y107.9173
G01 X30.7952 Y107.8356
G01 X30.7947 Y107.8283
G01 X30.7931 Y107.8212
G01 X30.7820 Y107.7845
G01 X30.7790 Y107.7777
G01 X30.7742 Y107.7704
G01 X30.7700 Y107.7657
G01 X30.7653 Y107.7616
G01 X30.5147 Y107.5693
G01 X30.2983 Y107.2873
G01 X30.1623 Y106.9589
G01 X30.1159 Y106.6065
G01 X30.1623 Y106.2540
G01 X30.2983 Y105.9256
G01 X30.5147 Y105.6437
G01 X30.7967 Y105.4273
G01 X31.1252 Y105.2912
G01 X31.4808 Y105.2444
G01 X32.1742 Y105.2444
G01 X32.5299 Y105.2912
G01 X32.7687 Y105.3901
G01 X32.7768 Y105.3927
G01 X32.7841 Y105.3938
G01 X33.8070 Y105.3939
G01 X33.8143 Y105.3934
G01 X33.8215 Y105.3917
G01 X33.8273 Y105.3896
G01 X33.8327 Y105.3868
G01 X33.8378 Y105.3833
G01 X33.8424 Y105.3793
G01 X34.8687 Y104.3529
G01 X34.8747 Y104.3451
G01 X34.8787 Y104.3375
G01 X34.8815 Y104.3282
G01 X34.8825 Y104.3184
G01 X34.8825 Y100.8820
G01 X34.9190 Y100.6046
G01 X35.0249 Y100.3491
G01 X35.1952 Y100.1271
G01 X48.4569 Y86.8655
G01 X48.4624 Y86.8589
G01 X48.4662 Y86.8526
G01 X48.4693 Y86.8446
G01 X48.4711 Y86.8362
G01 X48.4715 Y86.8301
G01 X48.4715 Y79.8989
G01 X48.4711 Y79.8927
G01 X48.4703 Y79.8879
G01 X48.4671 Y79.8785
G01 X48.4643 Y79.8730
G01 X48.4615 Y79.8689
G01 X48.4549 Y79.8617
G01 X48.4500 Y79.8578
G01 X48.4447 Y79.8546
G01 X48.3275 Y79.7968
G01 X48.3205 Y79.7944
G01 X48.3120 Y79.7929
G01 X48.3033 Y79.7929
G01 X48.2960 Y79.7941
G01 X48.2867 Y79.7973
G01 X48.2782 Y79.8023
G01 X48.1218 Y79.9222
G01 X47.7934 Y80.0583
G01 X47.4377 Y80.1051
G01 X46.5443 Y80.1051
G01 X46.1886 Y80.0583
G01 X45.8602 Y79.9222
G01 X45.5744 Y79.7029
G01 X45.5693 Y79.6996
G01 X45.5649 Y79.6975
G01 X45.5592 Y79.6954
G01 X45.5545 Y79.6942
G01 X45.5449 Y79.6933
G01 X44.3451 Y79.6933
G01 X44.0677 Y79.6568
G01 X43.8123 Y79.5510
G01 X43.5903 Y79.3807
G01 X41.2656 Y77.0563
G01 X41.2596 Y77.0521
G01 X41.2530 Y77.0488
G01 X41.2449 Y77.0462
G01 X41.2376 Y77.0451
G01 X41.0983 Y77.0450
G01 X40.7549 Y76.9530
G01 X40.4471 Y76.7753
G01 X40.1957 Y76.5239
G01 X40.0180 Y76.2161
G01 X39.9260 Y75.8727
G01 X39.9260 Y75.5173
G01 X40.0107 Y75.2011
G01 X40.0116 Y75.1963
G01 X40.0121 Y75.1901
G01 X40.0118 Y75.1840
G01 X40.0108 Y75.1779
G01 X40.0081 Y75.1697
G01 X40.0033 Y75.1611
G01 X39.9978 Y75.1544
G01 X39.9902 Y75.1481
G01 X39.8732 Y75.0803
G01 X39.8677 Y75.0776
G01 X39.8630 Y75.0759
G01 X39.8571 Y75.0744
G01 X39.8509 Y75.0737
G01 X39.8448 Y75.0737
G01 X39.8374 Y75.0748
G01 X39.8315 Y75.0765
G01 X39.8247 Y75.0795
G01 X39.8195 Y75.0827
G01 X39.8137 Y75.0874
G01 X38.7917 Y76.1097
G01 X38.7886 Y76.1136
G01 X38.7854 Y76.1189
G01 X38.7816 Y76.1282
G01 X38.7240 Y76.3431
G01 X38.5463 Y76.6509
G01 X38.2949 Y76.9023
G01 X37.9871 Y77.0800
G01 X37.6437 Y77.1720
G01 X37.2883 Y77.1720
G01 X36.9449 Y77.0800
G01 X36.6371 Y76.9023
G01 X36.3857 Y76.6509
G01 X36.2080 Y76.3431
G01 X36.1160 Y75.9997
G01 X36.1160 Y75.6443
G01 X36.2080 Y75.3009
G01 X36.3857 Y74.9931
G01 X36.6371 Y74.7417
G01 X36.9449 Y74.5640
G01 X37.2883 Y74.4720
G01 X37.4155 Y74.4719
G01 X37.4228 Y74.4708
G01 X37.4298 Y74.4686
G01 X37.4364 Y74.4655
G01 X37.4435 Y74.4606
G01 X39.3129 Y72.5916
G01 X39.3184 Y72.5850
G01 X39.3227 Y72.5776
G01 X39.3260 Y72.5683
G01 X39.3274 Y72.5599
G01 X39.3274 Y67.6270
G01 X39.3263 Y67.6184
G01 X39.3241 Y67.6113
G01 X39.3209 Y67.6047
G01 X39.3160 Y67.5975
G01 X39.3089 Y67.5906
G01 X39.2436 Y67.5404
G01 X39.1354 Y67.3994
G01 X39.0674 Y67.2353
G01 X39.0438 Y67.0557
G01 X39.0438 Y65.7123
G01 X39.0674 Y65.5327
G01 X39.1354 Y65.3686
G01 X39.2436 Y65.2276
G01 X39.3846 Y65.1194
G01 X39.4606 Y65.0879
G01 X39.4659 Y65.0850
G01 X39.4699 Y65.0821
G01 X39.4737 Y65.0789
G01 X39.4778 Y65.0744
G01 X39.4814 Y65.0695
G01 X39.4844 Y65.0641
G01 X39.4867 Y65.0584
G01 X39.4880 Y65.0537
G01 X39.5180 Y64.9027
G01 X39.5188 Y64.8978
G01 X39.5190 Y64.8917
G01 X39.5178 Y64.8819
G01 X39.5152 Y64.8738
G01 X39.5112 Y64.8662
G01 X39.5060 Y64.8593
G01 X39.3197 Y64.6729
G01 X39.1420 Y64.3651
G01 X39.0500 Y64.0217
G01 X39.0500 Y63.6663
G01 X39.1420 Y63.3229
G01 X39.3197 Y63.0151
G01 X39.5711 Y62.7637
G01 X39.7157 Y62.6802
G01 X39.7226 Y62.6751
G01 X39.7285 Y62.6690
G01 X39.7327 Y62.6630
G01 X39.7360 Y62.6565
G01 X39.7382 Y62.6496
G01 X39.7396 Y62.6411
G01 X39.7397 Y62.5093
G01 X39.7392 Y62.5032
G01 X39.7382 Y62.4984
G01 X39.7364 Y62.4926
G01 X39.7344 Y62.4882
G01 X39.7321 Y62.4839
G01 X39.7285 Y62.4790
G01 X39.7244 Y62.4745
G01 X39.7198 Y62.4706
G01 X39.7147 Y62.4672
G01 X39.5711 Y62.3843
G01 X39.3197 Y62.1329
G01 X39.1420 Y61.8251
G01 X39.0500 Y61.4817
G01 X39.0500 Y61.1263
G01 X39.1420 Y60.7829
G01 X39.3197 Y60.4751
G01 X39.5711 Y60.2237
G01 X39.7157 Y60.1402
G01 X39.7226 Y60.1351
G01 X39.7285 Y60.1290
G01 X39.7327 Y60.1230
G01 X39.7360 Y60.1165
G01 X39.7382 Y60.1096
G01 X39.7396 Y60.1011
G01 X39.7397 Y59.9693
G01 X39.7392 Y59.9632
G01 X39.7382 Y59.9584
G01 X39.7364 Y59.9526
G01 X39.7344 Y59.9482
G01 X39.7321 Y59.9439
G01 X39.7285 Y59.9390
G01 X39.7244 Y59.9345
G01 X39.7198 Y59.9306
G01 X39.7147 Y59.9272
G01 X39.5711 Y59.8443
G01 X39.3197 Y59.5929
G01 X39.1420 Y59.2851
G01 X39.0500 Y58.9417
G01 X39.0500 Y58.5863
G01 X39.1420 Y58.2429
G01 X39.3197 Y57.9351
G01 X39.5711 Y57.6837
G01 X39.7157 Y57.6002
G01 X39.7226 Y57.5951
G01 X39.7285 Y57.5890
G01 X39.7327 Y57.5830
G01 X39.7360 Y57.5765
G01 X39.7382 Y57.5696
G01 X39.7396 Y57.5611
G01 X39.7397 Y57.4293
G01 X39.7392 Y57.4232
G01 X39.7382 Y57.4184
G01 X39.7364 Y57.4126
G01 X39.7344 Y57.4082
G01 X39.7321 Y57.4039
G01 X39.7285 Y57.3990
G01 X39.7244 Y57.3945
G01 X39.7198 Y57.3906
G01 X39.7147 Y57.3872
G01 X39.5711 Y57.3043
G01 X39.3197 Y57.0529
G01 X39.1420 Y56.7451
G01 X39.0500 Y56.4017
G01 X39.0500 Y56.0463
G01 X39.1420 Y55.7029
G01 X39.3197 Y55.3951
G01 X39.5711 Y55.1437
G01 X39.7157 Y55.0602
G01 X39.7226 Y55.0551
G01 X39.7285 Y55.0490
G01 X39.7327 Y55.0430
G01 X39.7360 Y55.0365
G01 X39.7382 Y55.0296
G01 X39.7396 Y55.0211
G01 X39.7397 Y54.8893
G01 X39.7392 Y54.8832
G01 X39.7382 Y54.8784
G01 X39.7364 Y54.8726
G01 X39.7344 Y54.8682
G01 X39.7321 Y54.8639
G01 X39.7285 Y54.8590
G01 X39.7244 Y54.8545
G01 X39.7198 Y54.8506
G01 X39.7147 Y54.8472
G01 X39.5711 Y54.7643
G01 X39.3197 Y54.5129
G01 X39.1420 Y54.2051
G01 X39.0500 Y53.8617
G01 X39.0500 Y53.5063
G01 X39.1420 Y53.1629
G01 X39.3197 Y52.8551
G01 X39.5711 Y52.6037
G01 X39.7157 Y52.5202
G01 X39.7226 Y52.5151
G01 X39.7285 Y52.5090
G01 X39.7327 Y52.5030
G01 X39.7360 Y52.4965
G01 X39.7382 Y52.4896
G01 X39.7396 Y52.4811
G01 X39.7397 Y52.3493
G01 X39.7392 Y52.3432
G01 X39.7382 Y52.3384
G01 X39.7364 Y52.3326
G01 X39.7344 Y52.3282
G01 X39.7321 Y52.3239
G01 X39.7285 Y52.3190
G01 X39.7244 Y52.3145
G01 X39.7198 Y52.3106
G01 X39.7147 Y52.3072
G01 X39.5711 Y52.2243
G01 X39.3197 Y51.9729
G01 X39.1420 Y51.6651
G01 X39.0500 Y51.3217
G01 X39.0500 Y50.9663
G01 X39.1420 Y50.6229
G01 X39.3197 Y50.3151
G01 X39.5711 Y50.0637
G01 X39.7157 Y49.9802
G01 X39.7226 Y49.9751
G01 X39.7277 Y49.9699
G01 X39.7327 Y49.9630
G01 X39.7360 Y49.9565
G01 X39.7382 Y49.9496
G01 X39.7396 Y49.9411
G01 X39.7397 Y49.8105
G01 X39.7393 Y49.8044
G01 X39.7382 Y49.7984
G01 X39.7364 Y49.7926
G01 X39.7344 Y49.7882
G01 X39.7321 Y49.7839
G01 X39.7285 Y49.7790
G01 X39.7244 Y49.7745
G01 X39.7198 Y49.7706
G01 X39.7147 Y49.7672
G01 X39.5711 Y49.6843
G01 X39.3197 Y49.4329
G01 X39.1420 Y49.1251
G01 X39.0500 Y48.7817
G01 X39.0500 Y48.4263
G01 X39.1420 Y48.0829
G01 X39.3197 Y47.7751
G01 X39.5711 Y47.5237
G01 X39.7157 Y47.4402
G01 X39.7217 Y47.4359
G01 X39.7277 Y47.4299
G01 X39.7321 Y47.4241
G01 X39.7360 Y47.4165
G01 X39.7382 Y47.4096
G01 X39.7396 Y47.4011
G01 X39.7397 Y47.2705
G01 X39.7393 Y47.2644
G01 X39.7382 Y47.2584
G01 X39.7364 Y47.2526
G01 X39.7344 Y47.2482
G01 X39.7321 Y47.2439
G01 X39.7285 Y47.2390
G01 X39.7244 Y47.2345
G01 X39.7198 Y47.2306
G01 X39.7147 Y47.2272
G01 X39.5711 Y47.1443
G01 X39.3197 Y46.8929
G01 X39.1420 Y46.5851
G01 X39.0500 Y46.2417
G01 X39.0500 Y45.8863
G01 X39.1420 Y45.5429
G01 X39.3197 Y45.2351
G01 X39.5711 Y44.9837
G01 X39.7157 Y44.9002
G01 X39.7217 Y44.8959
G01 X39.7277 Y44.8899
G01 X39.7321 Y44.8841
G01 X39.7360 Y44.8765
G01 X39.7382 Y44.8696
G01 X39.7396 Y44.8611
G01 X39.7397 Y44.7305
G01 X39.7393 Y44.7244
G01 X39.7382 Y44.7184
G01 X39.7364 Y44.7126
G01 X39.7344 Y44.7082
G01 X39.7321 Y44.7039
G01 X39.7285 Y44.6990
G01 X39.7244 Y44.6945
G01 X39.7198 Y44.6906
G01 X39.7147 Y44.6872
G01 X39.5711 Y44.6043
G01 X39.3197 Y44.3529
G01 X39.1420 Y44.0451
G01 X39.0500 Y43.7017
G01 X39.0500 Y43.3463
G01 X39.1420 Y43.0029
G01 X39.3197 Y42.6951
G01 X39.5711 Y42.4437
G01 X39.7157 Y42.3602
G01 X39.7217 Y42.3559
G01 X39.7277 Y42.3499
G01 X39.7321 Y42.3441
G01 X39.7360 Y42.3365
G01 X39.7382 Y42.3296
G01 X39.7396 Y42.3211
G01 X39.7397 Y42.1905
G01 X39.7393 Y42.1844
G01 X39.7382 Y42.1784
G01 X39.7364 Y42.1726
G01 X39.7344 Y42.1682
G01 X39.7321 Y42.1639
G01 X39.7285 Y42.1590
G01 X39.7244 Y42.1545
G01 X39.7198 Y42.1506
G01 X39.7147 Y42.1472
G01 X39.5711 Y42.0643
G01 X39.3197 Y41.8129
G01 X39.1420 Y41.5051
G01 X39.0500 Y41.1617
G01 X39.0500 Y40.8063
G01 X39.1420 Y40.4629
G01 X39.3197 Y40.1551
G01 X39.5711 Y39.9037
G01 X39.7157 Y39.8202
G01 X39.7217 Y39.8159
G01 X39.7277 Y39.8099
G01 X39.7321 Y39.8041
G01 X39.7360 Y39.7965
G01 X39.7382 Y39.7896
G01 X39.7396 Y39.7811
G01 X39.7397 Y39.6505
G01 X39.7393 Y39.6444
G01 X39.7382 Y39.6384
G01 X39.7364 Y39.6326
G01 X39.7344 Y39.6282
G01 X39.7321 Y39.6239
G01 X39.7285 Y39.6190
G01 X39.7244 Y39.6145
G01 X39.7198 Y39.6106
G01 X39.7147 Y39.6072
G01 X39.5711 Y39.5243
G01 X39.3197 Y39.2729
G01 X39.1420 Y38.9651
G01 X39.0500 Y38.6217
G01 X39.0500 Y38.2663
G01 X39.1420 Y37.9229
G01 X39.3197 Y37.6151
G01 X39.5711 Y37.3637
G01 X39.7157 Y37.2802
G01 X39.7217 Y37.2759
G01 X39.7277 Y37.2699
G01 X39.7321 Y37.2641
G01 X39.7360 Y37.2565
G01 X39.7382 Y37.2496
G01 X39.7396 Y37.2411
G01 X39.7397 Y37.1105
G01 X39.7393 Y37.1044
G01 X39.7382 Y37.0984
G01 X39.7364 Y37.0926
G01 X39.7344 Y37.0882
G01 X39.7321 Y37.0839
G01 X39.7285 Y37.0790
G01 X39.7244 Y37.0745
G01 X39.7198 Y37.0706
G01 X39.7147 Y37.0672
G01 X39.5711 Y36.9843
G01 X39.3197 Y36.7329
G01 X39.1420 Y36.4251
G01 X39.0500 Y36.0817
G01 X39.0500 Y35.7263
G01 X39.1420 Y35.3829
G01 X39.3197 Y35.0751
G01 X39.5711 Y34.8237
G01 X39.8789 Y34.6460
G01 X40.2223 Y34.5540
G01 X40.5777 Y34.5540
G01 X40.9211 Y34.6460
G01 X41.2289 Y34.8237
G01 X41.4803 Y35.0751
G01 X41.6580 Y35.3829
G01 X41.6832 Y35.4768
G01 X41.6855 Y35.4826
G01 X41.6884 Y35.4880
G01 X41.6920 Y35.4930
G01 X41.6953 Y35.4967
G01 X41.7019 Y35.5023
G01 X41.7094 Y35.5067
G01 X41.7580 Y35.5269
G01 X41.9800 Y35.6972
G01 X50.6908 Y44.4081
G01 X50.8612 Y44.6300
G01 X50.9670 Y44.8854
G01 X51.0035 Y45.1629
G01 X51.0035 Y46.8051
G01 X51.0037 Y46.8100
G01 X51.0047 Y46.8160
G01 X51.0060 Y46.8207
G01 X51.0083 Y46.8264
G01 X51.0112 Y46.8318
G01 X51.0148 Y46.8367
G01 X51.0189 Y46.8412
G01 X51.0226 Y46.8444
G01 X51.0287 Y46.8485
G01 X51.0354 Y46.8517
G01 X51.0412 Y46.8536
G01 X51.0484 Y46.8548
G01 X51.1800 Y46.8587
G01 X51.1861 Y46.8582
G01 X51.1908 Y46.8573
G01 X51.1966 Y46.8555
G01 X51.2022 Y46.8530
G01 X51.2074 Y46.8499
G01 X51.2112 Y46.8469
G01 X51.2156 Y46.8427
G01 X51.2188 Y46.8390
G01 X51.2239 Y46.8307
G01 X51.2273 Y46.8216
G01 X51.3210 Y46.4719
G01 X51.4987 Y46.1641
G01 X51.7501 Y45.9127
G01 X52.0579 Y45.7350
G01 X52.4013 Y45.6430
G01 X52.7567 Y45.6430
G01 X53.1001 Y45.7350
G01 X53.4079 Y45.9127
G01 X53.6593 Y46.1641
G01 X53.8370 Y46.4719
G01 X53.9290 Y46.8153
G01 X53.9290 Y47.1707
G01 X53.8370 Y47.5141
G01 X53.6593 Y47.8219
G01 X53.6506 Y47.8307
G01 X53.6450 Y47.8388
G01 X53.6423 Y47.8443
G01 X53.6403 Y47.8501
G01 X53.6389 Y47.8573
G01 X53.6385 Y47.8634
G01 X53.6386 Y54.5072
G01 X53.6390 Y54.5120
G01 X53.6403 Y54.5180
G01 X53.6423 Y54.5238
G01 X53.6450 Y54.5293
G01 X53.6506 Y54.5374
G01 X53.6593 Y54.5462
G01 X53.8370 Y54.8540
G01 X53.9290 Y55.1974
G01 X53.9290 Y55.5528
G01 X53.8370 Y55.8962
G01 X53.6593 Y56.2040
G01 X53.4079 Y56.4554
G01 X53.1001 Y56.6331
G01 X52.7567 Y56.7251
G01 X52.4013 Y56.7251
G01 X52.0579 Y56.6331
G01 X51.7501 Y56.4554
G01 X51.4987 Y56.2040
G01 X51.3210 Y55.8962
G01 X51.2273 Y55.5465
G01 X51.2239 Y55.5374
G01 X51.2215 Y55.5331
G01 X51.2180 Y55.5281
G01 X51.2112 Y55.5212
G01 X51.2033 Y55.5157
G01 X51.1989 Y55.5135
G01 X51.1932 Y55.5115
G01 X51.1836 Y55.5096
G01 X51.1776 Y55.5094
G01 X51.0496 Y55.5132
G01 X51.0424 Y55.5143
G01 X51.0354 Y55.5164
G01 X51.0298 Y55.5190
G01 X51.0236 Y55.5229
G01 X51.0181 Y55.5277
G01 X51.0133 Y55.5333
G01 X51.0094 Y55.5395
G01 X51.0068 Y55.5451
G01 X51.0045 Y55.5533
G01 X51.0035 Y55.5630
G01 X51.0036 Y62.9866
G01 X51.0050 Y62.9950
G01 X51.0083 Y63.0043
G01 X51.0126 Y63.0117
G01 X51.0181 Y63.0183
G01 X57.0778 Y69.0779
G01 X57.2481 Y69.2999
G01 X57.3540 Y69.5554
G01 X57.3905 Y69.8327
G01 X57.3905 Y96.8140
G01 X57.3540 Y97.0914
G01 X57.2481 Y97.3469
G01 X57.0778 Y97.5688
G01 X47.0777 Y107.5690
G01 X46.8557 Y107.7393
G01 X46.6002 Y107.8452
G01 X46.3228 Y107.8817
G01 X45.1674 Y107.8817
G01 X45.1600 Y107.8823
G01 X45.1539 Y107.8836
G01 X45.1481 Y107.8856
G01 X45.1425 Y107.8883
G01 X45.1373 Y107.8918
G01 X45.1326 Y107.8958
G01 X45.1289 Y107.8998
G01 X44.8782 Y108.0921
G01 X44.8711 Y108.0987
G01 X44.8655 Y108.1065
G01 X44.8614 Y108.1153
G01 X44.8501 Y108.1530
G01 X44.8489 Y108.1589
G01 X44.8484 Y108.1649
G01 X44.8484 Y108.2479
G01 X44.8488 Y108.2539
G01 X44.8501 Y108.2610
G01 X44.8610 Y108.2976
G01 X44.8638 Y108.3043
G01 X44.8674 Y108.3105
G01 X44.8728 Y108.3171
G01 X44.8782 Y108.3219
G01 X45.1288 Y108.5142
G01 X45.3452 Y108.7962
G01 X45.4813 Y109.1246
G01 X45.5277 Y109.4770
G01 X45.4813 Y109.8294
G01 X45.3452 Y110.1578
G01 X45.1288 Y110.4398
G01 X44.8468 Y110.6562
G01 X44.7782 Y110.6847
G01 X44.7738 Y110.6869
G01 X44.7687 Y110.6903
G01 X44.7631 Y110.6951
G01 X44.7583 Y110.7006
G01 X44.7544 Y110.7068
G01 X44.7510 Y110.7147
G01 X44.7490 Y110.7231
G01 X44.7485 Y110.7304
G01 X44.7485 Y111.7597
G01 X44.7120 Y112.0372
G01 X44.6062 Y112.2926
G01 X44.4358 Y112.5145
G01 X42.1545 Y114.7958
G01 X41.9325 Y114.9662
G01 X41.6771 Y115.0720
G01 X41.3997 Y115.1085
G01 X29.0873 Y115.1085
G01 X28.8099 Y115.0720
G01 X28.5545 Y114.9662
G01 X28.3325 Y114.7958
G01 X25.9732 Y112.4365
G01 X25.8029 Y112.2145
G01 X25.6970 Y111.9591
G01 X25.6605 Y111.6817
G01 X25.6605 Y106.6833
G01 X25.6600 Y106.6772
G01 X25.6587 Y106.6712
G01 X25.6567 Y106.6654
G01 X25.6540 Y106.6599
G01 X25.6507 Y106.6547
G01 X25.6467 Y106.6500
G01 X25.6422 Y106.6459
G01 X25.6373 Y106.6423
G01 X25.6296 Y106.6383
G01 X25.5123 Y106.5897
G01 X25.5054 Y106.5874
G01 X25.4993 Y106.5863
G01 X25.4932 Y106.5859
G01 X25.4859 Y106.5864
G01 X25.4799 Y106.5877
G01 X25.4741 Y106.5897
G01 X25.4686 Y106.5924
G01 X25.4624 Y106.5965
G01 X25.4578 Y106.6005
G01 X22.5400 Y109.5184
G01 X22.3180 Y109.6887
G01 X22.0626 Y109.7945
G01 X21.7852 Y109.8310
G01 X20.5189 Y109.8310
G01 X20.5140 Y109.8312
G01 X20.5079 Y109.8322
G01 X20.5009 Y109.8344
G01 X20.4942 Y109.8375
G01 X20.4881 Y109.8416
G01 X20.4827 Y109.8465
G01 X20.4773 Y109.8532
G01 X20.4438 Y109.9035
G01 X20.2395 Y110.1077
G01 X19.9994 Y110.2682
G01 X19.7326 Y110.3786
G01 X19.4494 Y110.4350
G01 X19.1606 Y110.4350
G01 X18.8774 Y110.3786
G01 X18.6106 Y110.2682
G01 X18.3705 Y110.1077
G01 X18.1662 Y109.9035
G01 X18.0058 Y109.6634
G01 X17.8954 Y109.3966
G01 X17.8390 Y109.1134
G01 X17.8390 Y108.8246
G01 X17.8954 Y108.5414
G01 X18.0058 Y108.2746
G01 X18.1662 Y108.0345
G01 X18.3705 Y107.8303
G01 X18.6106 Y107.6698
G01 X18.8774 Y107.5594
G01 X19.1606 Y107.5030
G01 X19.4494 Y107.5030
G01 X19.7326 Y107.5594
G01 X19.9994 Y107.6698
G01 X20.0530 Y107.7055
G01 X20.0574 Y107.7077
G01 X20.0632 Y107.7098
G01 X20.0728 Y107.7118
G01 X21.3289 Y107.7120
G01 X21.3338 Y107.7118
G01 X21.3399 Y107.7108
G01 X21.3457 Y107.7091
G01 X21.3503 Y107.7072
G01 X21.3577 Y107.7029
G01 X21.3643 Y107.6974
G01 X23.9475 Y105.1140
G01 X23.9527 Y105.1071
G01 X23.9571 Y105.0984
G01 X23.9598 Y105.0889
G01 X23.9605 Y105.0804
G01 X23.9605 Y104.0193
G01 X23.9970 Y103.7419
G01 X24.1028 Y103.4865
G01 X24.2732 Y103.2645
G01 X40.2019 Y87.3358
G01 X40.2059 Y87.3312
G01 X40.2100 Y87.3250
G01 X40.2136 Y87.3172
G01 X40.2158 Y87.3089
G01 X40.2165 Y87.3016
G01 X40.2165 Y86.7254
G01 X40.2163 Y86.7205
G01 X40.2153 Y86.7144
G01 X40.2131 Y86.7074
G01 X40.2094 Y86.6997
G01 X40.2044 Y86.6927
G01 X40.1957 Y86.6839
G01 X40.0180 Y86.3761
G01 X39.9260 Y86.0327
G01 X39.9260 Y85.6773
G01 X40.0180 Y85.3339
G01 X40.1167 Y85.1629
G01 X40.1205 Y85.1539
G01 X40.1225 Y85.1443
G01 X40.1228 Y85.1370
G01 X40.1221 Y85.1309
G01 X40.1204 Y85.1238
G01 X40.1182 Y85.1181
G01 X40.0526 Y84.9757
G01 X40.0495 Y84.9704
G01 X40.0466 Y84.9663
G01 X40.0424 Y84.9618
G01 X40.0386 Y84.9585
G01 X40.0335 Y84.9550
G01 X40.0280 Y84.9521
G01 X39.9324 Y84.9124
G01 X39.9242 Y84.9098
G01 X39.9144 Y84.9086
G01 X38.5885 Y84.9086
G01 X38.5800 Y84.9093
G01 X38.5717 Y84.9115
G01 X38.5628 Y84.9157
G01 X38.5558 Y84.9207
G01 X38.5523 Y84.9241
G01 X38.5483 Y84.9288
G01 X38.5450 Y84.9340
G01 X38.5428 Y84.9383
G01 X38.4932 Y85.0580
G01 X38.4911 Y85.0651
G01 X38.4900 Y85.0736
G01 X38.4903 Y85.0821
G01 X38.4921 Y85.0905
G01 X38.4942 Y85.0963
G01 X38.4964 Y85.1006
G01 X38.5020 Y85.1087
G01 X38.5463 Y85.1531
G01 X38.7240 Y85.4609
G01 X38.8160 Y85.8043
G01 X38.8160 Y86.1597
G01 X38.7240 Y86.5031
G01 X38.5463 Y86.8109
G01 X38.2949 Y87.0623
G01 X37.9871 Y87.2400
G01 X37.6437 Y87.3320
G01 X37.2883 Y87.3320
G01 X36.9449 Y87.2400
G01 X36.6371 Y87.0623
G01 X36.3857 Y86.8109
G01 X36.2080 Y86.5031
G01 X36.1160 Y86.1597
G01 X36.1160 Y85.8802
G01 X36.1150 Y85.8716
G01 X36.1126 Y85.8634
G01 X36.1095 Y85.8568
G01 X36.1047 Y85.8497
G01 X33.4452 Y83.1898
G01 X33.4386 Y83.1843
G01 X33.4323 Y83.1805
G01 X33.4243 Y83.1774
G01 X33.4171 Y83.1757
G01 X33.4123 Y83.1753
G01 X33.4061 Y83.1753
G01 X33.3965 Y83.1770
G01 X33.3918 Y83.1786
G01 X33.3862 Y83.1811
G01 X33.3810 Y83.1843
G01 X33.3771 Y83.1873
G01 X33.0105 Y83.5538
G01 X32.7886 Y83.7241
G01 X32.5331 Y83.8300
G01 X32.2557 Y83.8665
G01 X13.5391 Y83.8666
G01 X13.5295 Y83.8680
G01 X13.5213 Y83.8708
G01 X13.5138 Y83.8749
G01 X13.5062 Y83.8811
G01 X12.4919 Y84.8954
G01 X12.4857 Y84.9031
G01 X12.4811 Y84.9118
G01 X12.4782 Y84.9212
G01 X12.4773 Y84.9310
G01 X12.4777 Y84.9372
G01 X12.4786 Y84.9421
G01 X12.4803 Y84.9480
G01 X12.4828 Y84.9536
G01 X12.5510 Y85.0717
G01 X12.5546 Y85.0767
G01 X12.5580 Y85.0803
G01 X12.5657 Y85.0865
G01 X12.5744 Y85.0910
G01 X12.5791 Y85.0926
G01 X12.5851 Y85.0940
G01 X12.5950 Y85.0946
G01 X12.6047 Y85.0932
G01 X12.9043 Y85.0130
G01 X13.2597 Y85.0130
G01 X13.6031 Y85.1050
G01 X13.9109 Y85.2827
G01 X14.1623 Y85.5341
G01 X14.3400 Y85.8419
G01 X14.4320 Y86.1853
G01 X14.4320 Y86.5407
G01 X14.3400 Y86.8841
G01 X14.1623 Y87.1919
G01 X13.9109 Y87.4433
G01 X13.6031 Y87.6210
G01 X13.2597 Y87.7130
G01 X12.9043 Y87.7130
G01 X12.5609 Y87.6210
G01 X12.2531 Y87.4433
G01 X12.2443 Y87.4346
G01 X12.2362 Y87.4290
G01 X12.2307 Y87.4263
G01 X12.2249 Y87.4243
G01 X12.2189 Y87.4230
G01 X12.2141 Y87.4226
G01 X8.2362 Y87.4225
G01 X8.2301 Y87.4230
G01 X8.2241 Y87.4243
G01 X8.2183 Y87.4263
G01 X8.2128 Y87.4290
G01 X8.2047 Y87.4346
G01 X8.1959 Y87.4433
G01 X7.8881 Y87.6210
G01 X7.5447 Y87.7130
G01 X7.1893 Y87.7130
G01 X6.8459 Y87.6210
G01 X6.5381 Y87.4433
G01 X6.2867 Y87.1919
G01 X6.1090 Y86.8841
G01 X6.0170 Y86.5407
G01 X6.0170 Y86.1853
G01 X6.1090 Y85.8419
G01 X6.2867 Y85.5341
G01 X6.5381 Y85.2827
G01 X6.8459 Y85.1050
G01 X7.1893 Y85.0130
G01 X7.5447 Y85.0130
G01 X7.8881 Y85.1050
G01 X8.1959 Y85.2827
G01 X8.2047 Y85.2914
G01 X8.2128 Y85.2970
G01 X8.2206 Y85.3006
G01 X8.2289 Y85.3028
G01 X8.2374 Y85.3035
G01 X9.0664 Y85.3035
G01 X9.0725 Y85.3031
G01 X9.0785 Y85.3020
G01 X9.0844 Y85.3001
G01 X9.0910 Y85.2970
G01 X9.0972 Y85.2929
G01 X9.1018 Y85.2889
G01 X12.3305 Y82.0602
G01 X12.5525 Y81.8898
G01 X12.8079 Y81.7840
G01 X13.0853 Y81.7475
G01 X31.8019 Y81.7474
G01 X31.8104 Y81.7463
G01 X31.8197 Y81.7432
G01 X31.8272 Y81.7391
G01 X31.8348 Y81.7329
G01 X32.5558 Y81.0120
G01 X32.5613 Y81.0054
G01 X32.5651 Y80.9991
G01 X32.5679 Y80.9923
G01 X32.5697 Y80.9851
G01 X32.5704 Y80.9766
G01 X32.5704 Y72.6838
G01 X32.5702 Y72.6789
G01 X32.5692 Y72.6728
G01 X32.5675 Y72.6670
G01 X32.5651 Y72.6613
G01 X32.5606 Y72.6540
G01 X32.5558 Y72.6484
G01 X24.5985 Y64.6912
G01 X24.4442 Y64.4901
G01 X24.3484 Y64.2590
G01 X24.3154 Y64.0077
G01 X24.3154 Y38.7748
G01 X24.3147 Y38.7663
G01 X24.3120 Y38.7568
G01 X24.3076 Y38.7481
G01 X24.3048 Y38.7440
G01 X24.3008 Y38.7394
G01 X15.5232 Y29.9618
G01 X15.5156 Y29.9557
G01 X15.5082 Y29.9515
G01 X15.4989 Y29.9485
G01 X15.4893 Y29.9472
G01 X15.4820 Y29.9475
G01 X15.4736 Y29.9493
G01 X15.4668 Y29.9518
G01 X15.4604 Y29.9554
G01 X15.3538 Y30.0369
G01 X15.3494 Y30.0412
G01 X15.3463 Y30.0449
G01 X15.3429 Y30.0500
G01 X15.3401 Y30.0554
G01 X15.3381 Y30.0612
G01 X15.3367 Y30.0671
G01 X15.3361 Y30.0732
G01 X15.3363 Y30.0793
G01 X15.3380 Y30.0889
G01 X15.3401 Y30.0946
G01 X15.3422 Y30.0990
G01 X15.4830 Y30.3429
G01 X15.5750 Y30.6863
G01 X15.5750 Y31.0417
G01 X15.4830 Y31.3851
G01 X15.3053 Y31.6929
G01 X15.0539 Y31.9443
G01 X14.7461 Y32.1220
G01 X14.4027 Y32.2140
G01 X14.0473 Y32.2140
G01 X13.7039 Y32.1220
G01 X13.3961 Y31.9443
G01 X13.3255 Y31.8738
G01 X13.3206 Y31.8701
G01 X13.3142 Y31.8665
G01 X13.3085 Y31.8642
G01 X13.3026 Y31.8627
G01 X13.2965 Y31.8618
G01 X13.2891 Y31.8618
G01 X13.2830 Y31.8627
G01 X13.2760 Y31.8646
G01 X13.1519 Y31.9162
G01 X13.1457 Y31.9201
G01 X13.1410 Y31.9241
G01 X13.1361 Y31.9295
G01 X13.1326 Y31.9346
G01 X13.1298 Y31.9400
G01 X13.1277 Y31.9458
G01 X13.1262 Y31.9518
G01 X13.1255 Y31.9591
G01 X13.1255 Y34.8077
G01 X13.1262 Y34.8162
G01 X13.1280 Y34.8234
G01 X13.1308 Y34.8302
G01 X13.1346 Y34.8365
G01 X13.1385 Y34.8413
G01 X13.1428 Y34.8456
G01 X13.1477 Y34.8493
G01 X13.1541 Y34.8529
G01 X13.2737 Y34.9025
G01 X13.2806 Y34.9048
G01 X13.2879 Y34.9061
G01 X13.2965 Y34.9062
G01 X13.3038 Y34.9051
G01 X13.3096 Y34.9034
G01 X13.3153 Y34.9010
G01 X13.3206 Y34.8979
G01 X13.3255 Y34.8942
G01 X13.3961 Y34.8237
G01 X13.7039 Y34.6460
G01 X14.0473 Y34.5540
G01 X14.4027 Y34.5540
G01 X14.7461 Y34.6460
G01 X15.0539 Y34.8237
G01 X15.3054 Y35.0752
G00 Z2.0000
G00 X15.1701 Y38.3484
G01 F60.00
G01 Z0.0000
G01 F150.00
G01 X15.1750 Y38.4440
G01 X15.1704 Y38.5371
G01 X15.1567 Y38.6293
G01 X15.1341 Y38.7198
G01 X15.1027 Y38.8075
G01 X15.0628 Y38.8918
G01 X15.0149 Y38.9718
G01 X14.9594 Y39.0467
G01 X14.8968 Y39.1158
G01 X14.8277 Y39.1784
G01 X14.7528 Y39.2339
G01 X14.6728 Y39.2818
G01 X14.5885 Y39.3217
G01 X14.5008 Y39.3531
G01 X14.4103 Y39.3757
G01 X14.3181 Y39.3894
G01 X14.2250 Y39.3940
G01 X14.1319 Y39.3894
G01 X14.0397 Y39.3757
G01 X13.9492 Y39.3531
G01 X13.8615 Y39.3217
G01 X13.7772 Y39.2818
G01 X13.6972 Y39.2339
G01 X13.6223 Y39.1784
G01 X13.5532 Y39.1158
G01 X13.4906 Y39.0467
G01 X13.4351 Y38.9718
G01 X13.3872 Y38.8918
G01 X13.3473 Y38.8075
G01 X13.3159 Y38.7198
G01 X13.2933 Y38.6293
G01 X13.2796 Y38.5371
G01 X13.2750 Y38.4440
G01 X13.2796 Y38.3509
G01 X13.2933 Y38.2587
G01 X13.3159 Y38.1682
G01 X13.3473 Y38.0805
G01 X13.3872 Y37.9962
G01 X13.4351 Y37.9162
G01 X13.4906 Y37.8413
G01 X13.5532 Y37.7722
G01 X13.6223 Y37.7096
G01 X13.6972 Y37.6541
G01 X13.7772 Y37.6062
G01 X13.8615 Y37.5663
G01 X13.9492 Y37.5349
G01 X14.0397 Y37.5123
G01 X14.1319 Y37.4986
G01 X14.2250 Y37.4940
G01 X14.3181 Y37.4986
G01 X14.4103 Y37.5123
G01 X14.5008 Y37.5349
G01 X14.5885 Y37.5663
G01 X14.6728 Y37.6062
G01 X14.7528 Y37.6541
G01 X14.8277 Y37.7096
G01 X14.8968 Y37.7722
G01 X14.9594 Y37.8413
G01 X15.0149 Y37.9162
G01 X15.0628 Y37.9962
G01 X15.1027 Y38.0805
G01 X15.1341 Y38.1682
G01 X15.1567 Y38.2587
G01 X15.1701 Y38.3484
G00 Z2.0000
G00 X15.1701 Y40.8884
G01 F60.00
G01 Z0.0000
G01 F150.00
G01 X15.1750 Y40.9840
G01 X15.1704 Y41.0771
G01 X15.1567 Y41.1693
G01 X15.1341 Y41.2598
G01 X15.1027 Y41.3475
G01 X15.0628 Y41.4318
G01 X15.0149 Y41.5118
G01 X14.9594 Y41.5867
G01 X14.8968 Y41.6558
G01 X14.8277 Y41.7184
G01 X14.7528 Y41.7739
G01 X14.6728 Y41.8218
G01 X14.5885 Y41.8617
G01 X14.5008 Y41.8931
G01 X14.4103 Y41.9157
G01 X14.3181 Y41.9294
G01 X14.2250 Y41.9340
G01 X14.1319 Y41.9294
G01 X14.0397 Y41.9157
G01 X13.9492 Y41.8931
G01 X13.8615 Y41.8617
G01 X13.7772 Y41.8218
G01 X13.6972 Y41.7739
G01 X13.6223 Y41.7184
G01 X13.5532 Y41.6558
G01 X13.4906 Y41.5867
G01 X13.4351 Y41.5118
G01 X13.3872 Y41.4318
G01 X13.3473 Y41.3475
G01 X13.3159 Y41.2598
G01 X13.2933 Y41.1693
G01 X13.2796 Y41.0771
G01 X13.2750 Y40.9840
G01 X13.2796 Y40.8909
G01 X13.2933 Y40.7987
G01 X13.3159 Y40.7082
G01 X13.3473 Y40.6205
G01 X13.3872 Y40.5362
G01 X13.4351 Y40.4562
G01 X13.4906 Y40.3813
G01 X13.5532 Y40.3122
G01 X13.6223 Y40.2496
G01 X13.6972 Y40.1941
G01 X13.7772 Y40.1462
G01 X13.8615 Y40.1063
G01 X13.9492 Y40.0749
G01 X14.0397 Y40.0523
G01 X14.1319 Y40.0386
G01 X14.2250 Y40.0340
G01 X14.3181 Y40.0386
G01 X14.4103 Y40.0523
G01 X14.5008 Y40.0749
G01 X14.5885 Y40.1063
G01 X14.6728 Y40.1462
G01 X14.7528 Y40.1941
G01 X14.8277 Y40.2496
G01 X14.8968 Y40.3122
G01 X14.9594 Y40.3813
G01 X15.0149 Y40.4562
G01 X15.0628 Y40.5362
G01 X15.1027 Y40.6205
G01 X15.1341 Y40.7082
G01 X15.1567 Y40.7987
G01 X15.1701 Y40.8884
G00 Z2.0000
G00 X15.1701 Y43.4284
G01 F60.00
G01 Z0.0000
G01 F150.00
G01 X15.1750 Y43.5240
G01 X15.1704 Y43.6171
G01 X15.1567 Y43.7093
G01 X15.1341 Y43.7998
G01 X15.1027 Y43.8875
G01 X15.0628 Y43.9718
G01 X15.0149 Y44.0518
G01 X14.9594 Y44.1267
G01 X14.8968 Y44.1958
G01 X14.8277 Y44.2584
G01 X14.7528 Y44.3139
G01 X14.6728 Y44.3618
G01 X14.5885 Y44.4017
G01 X14.5008 Y44.4331
G01 X14.4103 Y44.4557
G01 X14.3181 Y44.4694
G01 X14.2250 Y44.4740
G01 X14.1319 Y44.4694
G01 X14.0397 Y44.4557
G01 X13.9492 Y44.4331
G01 X13.8615 Y44.4017
G01 X13.7772 Y44.3618
G01 X13.6972 Y44.3139
G01 X13.6223 Y44.2584
G01 X13.5532 Y44.1958
G01 X13.4906 Y44.1267
G01 X13.4351 Y44.0518
G01 X13.3872 Y43.9718
G01 X13.3473 Y43.8875
G01 X13.3159 Y43.7998
G01 X13.2933 Y43.7093
G01 X13.2796 Y43.6171
G01 X13.2750 Y43.5240
G01 X13.2796 Y43.4309
G01 X13.2933 Y43.3387
G01 X13.3159 Y43.2482
G01 X13.3473 Y43.1605
G01 X13.3872 Y43.0762
G01 X13.4351 Y42.9962
G01 X13.4906 Y42.9213
G01 X13.5532 Y42.8522
G01 X13.6223 Y42.7896
G01 X13.6972 Y42.7341
G01 X13.7772 Y42.6862
G01 X13.8615 Y42.6463
G01 X13.9492 Y42.6149
G01 X14.0397 Y42.5923
G01 X14.1319 Y42.5786
G01 X14.2250 Y42.5740
G01 X14.3181 Y42.5786
G01 X14.4103 Y42.5923
G01 X14.5008 Y42.6149
G01 X14.5885 Y42.6463
G01 X14.6728 Y42.6862
G01 X14.7528 Y42.7341
G01 X14.8277 Y42.7896
G01 X14.8968 Y42.8522
G01 X14.9594 Y42.9213
G01 X15.0149 Y42.9962
G01 X15.0628 Y43.0762
G01 X15.1027 Y43.1605
G01 X15.1341 Y43.2482
G01 X15.1567 Y43.3387
G01 X15.1701 Y43.4284
G00 Z2.0000
G00 X15.1701 Y45.9684
G01 F60.00
G01 Z0.0000
G01 F150.00
G01 X15.1750 Y46.0640
G01 X15.1704 Y46.1571
G01 X15.1567 Y46.2493
G01 X15.1341 Y46.3398
G01 X15.1027 Y46.4275
G01 X15.0628 Y46.5118
G01 X15.0149 Y46.5918
G01 X14.9594 Y46.6667
G01 X14.8968 Y46.7358
G01 X14.8277 Y46.7984
G01 X14.7528 Y46.8539
G01 X14.6728 Y46.9018
G01 X14.5885 Y46.9417
G01 X14.5008 Y46.9731
G01 X14.4103 Y46.9957
G01 X14.3181 Y47.0094
G01 X14.2250 Y47.0140
G01 X14.1319 Y47.0094
G01 X14.0397 Y46.9957
G01 X13.9492 Y46.9731
G01 X13.8615 Y46.9417
G01 X13.7772 Y46.9018
G01 X13.6972 Y46.8539
G01 X13.6223 Y46.7984
G01 X13.5532 Y46.7358
G01 X13.4906 Y46.6667
G01 X13.4351 Y46.5918
G01 X13.3872 Y46.5118
G01 X13.3473 Y46.4275
G01 X13.3159 Y46.3398
G01 X13.2933 Y46.2493
G01 X13.2796 Y46.1571
G01 X13.2750 Y46.0640
G01 X13.2796 Y45.9709
G01 X13.2933 Y45.8787
G01 X13.3159 Y45.7882
G01 X13.3473 Y45.7005
G01 X13.3872 Y45.6162
G01 X13.4351 Y45.5362
G01 X13.4906 Y45.4613
G01 X13.5532 Y45.3922
G01 X13.6223 Y45.3296
G01 X13.6972 Y45.2741
G01 X13.7772 Y45.2262
G01 X13.8615 Y45.1863
G01 X13.9492 Y45.1549
G01 X14.0397 Y45.1323
G01 X14.1319 Y45.1186
G01 X14.2250 Y45.1140
G01 X14.3181 Y45.1186
G01 X14.4103 Y45.1323
G01 X14.5008 Y45.1549
G01 X14.5885 Y45.1863
G01 X14.6728 Y45.2262
G01 X14.7528 Y45.2741
G01 X14.8277 Y45.3296
G01 X14.8968 Y45.3922
G01 X14.9594 Y45.4613
G01 X15.0149 Y45.5362
G01 X15.0628 Y45.6162
G01 X15.1027 Y45.7005
G01 X15.1341 Y45.7882
G01 X15.1567 Y45.8787
G01 X15.1701 Y45.9684
G00 Z2.0000
G00 X16.8604 Y47.6472
G01 F60.00
G01 Z0.0000
G01 F150.00
G01 X16.7973 Y47.6004
G01 X16.7282 Y47.5378
G01 X16.6656 Y47.4687
G01 X16.6101 Y47.3938
G01 X16.5622 Y47.3138
G01 X16.5223 Y47.2295
G01 X16.4909 Y47.1418
G01 X16.4683 Y47.0513
G01 X16.4546 Y46.9591
G01 X16.4500 Y46.8660
G01 X16.4546 Y46.7729
G01 X16.4683 Y46.6807
G01 X16.4909 Y46.5902
G01 X16.5223 Y46.5025
G01 X16.5622 Y46.4182
G01 X16.6101 Y46.3382
G01 X16.6656 Y46.2633
G01 X16.7282 Y46.1942
G01 X16.7973 Y46.1316
G01 X16.8722 Y46.0761
G01 X16.9522 Y46.0282
G01 X17.0365 Y45.9883
G01 X17.1242 Y45.9569
G01 X17.2147 Y45.9343
G01 X17.3069 Y45.9206
G01 X17.4000 Y45.9160
G01 X17.4931 Y45.9206
G01 X17.5853 Y45.9343
G01 X17.6758 Y45.9569
G01 X17.7635 Y45.9883
G01 X17.8478 Y46.0282
G01 X17.9278 Y46.0761
G01 X18.0027 Y46.1316
G01 X18.0734 Y46.1960
G01 X18.1344 Y46.2633
G01 X18.1885 Y46.3362
G01 X18.2378 Y46.4182
G01 X18.2777 Y46.5025
G01 X18.3097 Y46.5926
G01 X18.3317 Y46.6807
G01 X18.3451 Y46.7704
G01 X18.3500 Y46.8660
G01 X18.3451 Y46.9616
G01 X18.3317 Y47.0513
G01 X18.3097 Y47.1394
G01 X18.2777 Y47.2295
G01 X18.2378 Y47.3138
G01 X18.1899 Y47.3938
G01 X18.1328 Y47.4705
G01 X18.0700 Y47.5394
G01 X18.0027 Y47.6004
G01 X17.9396 Y47.6472
G01 X17.9476 Y47.7010
G01 X17.9503 Y47.7549
G01 X17.9503 Y53.1576
G01 X18.8265 Y52.2813
G01 X18.8295 Y52.2700
G01 X18.8500 Y52.2129
G01 X18.8776 Y52.1549
G01 X18.9082 Y52.1040
G01 X18.9435 Y52.0563
G01 X18.9857 Y52.0094
G01 X19.0323 Y51.9670
G01 X19.0820 Y51.9302
G01 X19.1350 Y51.8984
G01 X19.1932 Y51.8711
G01 X19.2491 Y51.8511
G01 X19.3067 Y51.8366
G01 X19.3678 Y51.8273
G01 X19.4320 Y51.8240
G01 X19.4938 Y51.8270
G01 X19.5549 Y51.8361
G01 X19.6172 Y51.8519
G01 X19.6753 Y51.8730
G01 X19.7290 Y51.8984
G01 X19.7799 Y51.9289
G01 X19.8317 Y51.9670
G01 X19.8775 Y52.0085
G01 X19.9190 Y52.0543
G01 X19.9571 Y52.1061
G01 X19.9876 Y52.1570
G01 X20.0130 Y52.2107
G01 X20.0341 Y52.2688
G01 X20.0499 Y52.3311
G01 X20.0590 Y52.3922
G01 X20.0620 Y52.4540
G01 X20.0590 Y52.5158
G01 X20.0499 Y52.5769
G01 X20.0341 Y52.6392
G01 X20.0130 Y52.6973
G01 X19.9876 Y52.7510
G01 X19.9571 Y52.8019
G01 X19.9190 Y52.8537
G01 X19.8792 Y52.8977
G01 X19.8297 Y52.9425
G01 X19.7820 Y52.9778
G01 X19.7311 Y53.0084
G01 X19.6731 Y53.0360
G01 X19.6160 Y53.0565
G01 X19.6047 Y53.0595
G01 X17.9503 Y54.7139
G01 X17.9503 Y59.3683
G01 X18.2174 Y59.6355
G01 X18.2890 Y59.6320
G01 X18.3821 Y59.6366
G01 X18.4743 Y59.6503
G01 X18.5648 Y59.6729
G01 X18.6525 Y59.7043
G01 X18.7368 Y59.7442
G01 X18.8168 Y59.7921
G01 X18.8926 Y59.8484
G01 X18.9608 Y59.9102
G01 X19.0234 Y59.9793
G01 X19.0789 Y60.0542
G01 X19.1268 Y60.1342
G01 X19.1667 Y60.2185
G01 X19.1981 Y60.3062
G01 X19.2207 Y60.3967
G01 X19.2345 Y60.4901
G01 X19.2390 Y60.5820
G01 X19.2344 Y60.6751
G01 X19.2207 Y60.7673
G01 X19.1981 Y60.8578
G01 X19.1667 Y60.9455
G01 X19.1268 Y61.0298
G01 X19.0789 Y61.1098
G01 X19.0234 Y61.1847
G01 X18.9608 Y61.2538
G01 X18.8917 Y61.3164
G01 X18.8168 Y61.3719
G01 X18.7368 Y61.4198
G01 X18.6525 Y61.4597
G01 X18.5648 Y61.4911
G01 X18.4743 Y61.5137
G01 X18.3821 Y61.5274
G01 X18.2865 Y61.5319
G01 X18.1959 Y61.5274
G01 X18.1061 Y61.5142
G01 X18.0132 Y61.4911
G01 X17.9255 Y61.4597
G01 X17.8412 Y61.4198
G01 X17.7592 Y61.3705
G01 X17.6863 Y61.3164
G01 X17.6190 Y61.2554
G01 X17.5546 Y61.1847
G01 X17.4991 Y61.1098
G01 X17.4501 Y61.0276
G01 X17.4113 Y60.9455
G01 X17.3807 Y60.8601
G01 X17.3575 Y60.7685
G01 X17.3436 Y60.6751
G01 X17.3390 Y60.5808
G01 X17.3437 Y60.4877
G01 X17.3570 Y60.3979
G01 X17.3702 Y60.3446
G01 X17.0109 Y59.9853
G01 X16.9731 Y59.9433
G01 X16.9425 Y59.9019
G01 X16.9159 Y59.8577
G01 X16.8916 Y59.8068
G01 X16.8728 Y59.7536
G01 X16.8603 Y59.7035
G01 X16.8524 Y59.6501
G01 X16.8497 Y59.5962
G01 X16.8497 Y47.7549
G01 X16.8524 Y47.7010
G01 X16.8604 Y47.6472
G00 Z2.0000
G00 X15.1701 Y48.5084
G01 F60.00
G01 Z0.0000
G01 F150.00
G01 X15.1750 Y48.6040
G01 X15.1704 Y48.6971
G01 X15.1567 Y48.7893
G01 X15.1341 Y48.8798
G01 X15.1027 Y48.9675
G01 X15.0628 Y49.0518
G01 X15.0149 Y49.1318
G01 X14.9594 Y49.2067
G01 X14.8968 Y49.2758
G01 X14.8277 Y49.3384
G01 X14.7528 Y49.3939
G01 X14.6728 Y49.4418
G01 X14.5885 Y49.4817
G01 X14.5008 Y49.5131
G01 X14.4103 Y49.5357
G01 X14.3181 Y49.5494
G01 X14.2250 Y49.5540
G01 X14.1319 Y49.5494
G01 X14.0397 Y49.5357
G01 X13.9492 Y49.5131
G01 X13.8615 Y49.4817
G01 X13.7772 Y49.4418
G01 X13.6972 Y49.3939
G01 X13.6223 Y49.3384
G01 X13.5532 Y49.2758
G01 X13.4906 Y49.2067
G01 X13.4351 Y49.1318
G01 X13.3872 Y49.0518
G01 X13.3473 Y48.9675
G01 X13.3159 Y48.8798
G01 X13.2933 Y48.7893
G01 X13.2796 Y48.6971
G01 X13.2750 Y48.6040
G01 X13.2796 Y48.5109
G01 X13.2933 Y48.4187
G01 X13.3159 Y48.3282
G01 X13.3473 Y48.2405
G01 X13.3872 Y48.1562
G01 X13.4351 Y48.0762
G01 X13.4906 Y48.0013
G01 X13.5532 Y47.9322
G01 X13.6223 Y47.8696
G01 X13.6972 Y47.8141
G01 X13.7772 Y47.7662
G01 X13.8615 Y47.7263
G01 X13.9492 Y47.6949
G01 X14.0397 Y47.6723
G01 X14.1319 Y47.6586
G01 X14.2250 Y47.6540
G01 X14.3181 Y47.6586
G01 X14.4103 Y47.6723
G01 X14.5008 Y47.6949
G01 X14.5885 Y47.7263
G01 X14.6728 Y47.7662
G01 X14.7528 Y47.8141
G01 X14.8277 Y47.8696
G01 X14.8968 Y47.9322
G01 X14.9594 Y48.0013
G01 X15.0149 Y48.0762
G01 X15.0628 Y48.1562
G01 X15.1027 Y48.2405
G01 X15.1341 Y48.3282
G01 X15.1567 Y48.4187
G01 X15.1701 Y48.5084
G00 Z2.0000
G00 X15.1701 Y51.0484
G01 F60.00
G01 Z0.0000
G01 F150.00
G01 X15.1750 Y51.1440
G01 X15.1704 Y51.2371
G01 X15.1567 Y51.3293
G01 X15.1341 Y51.4198
G01 X15.1027 Y51.5075
G01 X15.0628 Y51.5918
G01 X15.0149 Y51.6718
G01 X14.9594 Y51.7467
G01 X14.8968 Y51.8158
G01 X14.8277 Y51.8784
G01 X14.7528 Y51.9339
G01 X14.6728 Y51.9818
G01 X14.5885 Y52.0217
G01 X14.5008 Y52.0531
G01 X14.4103 Y52.0757
G01 X14.3181 Y52.0894
G01 X14.2250 Y52.0940
G01 X14.1319 Y52.0894
G01 X14.0397 Y52.0757
G01 X13.9492 Y52.0531
G01 X13.8615 Y52.0217
G01 X13.7772 Y51.9818
G01 X13.6972 Y51.9339
G01 X13.6223 Y51.8784
G01 X13.5532 Y51.8158
G01 X13.4906 Y51.7467
G01 X13.4351 Y51.6718
G01 X13.3872 Y51.5918
G01 X13.3473 Y51.5075
G01 X13.3159 Y51.4198
G01 X13.2933 Y51.3293
G01 X13.2796 Y51.2371
G01 X13.2750 Y51.1440
G01 X13.2796 Y51.0509
G01 X13.2933 Y50.9587
G01 X13.3159 Y50.8682
G01 X13.3473 Y50.7805
G01 X13.3872 Y50.6962
G01 X13.4351 Y50.6162
G01 X13.4906 Y50.5413
G01 X13.5532 Y50.4722
G01 X13.6223 Y50.4096
G01 X13.6972 Y50.3541
G01 X13.7772 Y50.3062
G01 X13.8615 Y50.2663
G01 X13.9492 Y50.2349
G01 X14.0397 Y50.2123
G01 X14.1319 Y50.1986
G01 X14.2250 Y50.1940
G01 X14.3181 Y50.1986
G01 X14.4103 Y50.2123
G01 X14.5008 Y50.2349
G01 X14.5885 Y50.2663
G01 X14.6728 Y50.3062
G01 X14.7528 Y50.3541
G01 X14.8277 Y50.4096
G01 X14.8968 Y50.4722
G01 X14.9594 Y50.5413
G01 X15.0149 Y50.6162
G01 X15.0628 Y50.6962
G01 X15.1027 Y50.7805
G01 X15.1341 Y50.8682
G01 X15.1567 Y50.9587
G01 X15.1701 Y51.0484
G00 Z2.0000
G00 X15.1701 Y53.5884
G01 F60.00
G01 Z0.0000
G01 F150.00
G01 X15.1750 Y53.6840
G01 X15.1704 Y53.7771
G01 X15.1567 Y53.8693
G01 X15.1341 Y53.9598
G01 X15.1027 Y54.0475
G01 X15.0628 Y54.1318
G01 X15.0149 Y54.2118
G01 X14.9594 Y54.2867
G01 X14.8968 Y54.3558
G01 X14.8277 Y54.4184
G01 X14.7528 Y54.4739
G01 X14.6728 Y54.5218
G01 X14.5885 Y54.5617
G01 X14.5008 Y54.5931
G01 X14.4103 Y54.6157
G01 X14.3181 Y54.6294
G01 X14.2250 Y54.6340
G01 X14.1319 Y54.6294
G01 X14.0397 Y54.6157
G01 X13.9492 Y54.5931
G01 X13.8615 Y54.5617
G01 X13.7772 Y54.5218
G01 X13.6972 Y54.4739
G01 X13.6223 Y54.4184
G01 X13.5532 Y54.3558
G01 X13.4906 Y54.2867
G01 X13.4351 Y54.2118
G01 X13.3872 Y54.1318
G01 X13.3473 Y54.0475
G01 X13.3159 Y53.9598
G01 X13.2933 Y53.8693
G01 X13.2796 Y53.7771
G01 X13.2750 Y53.6840
G01 X13.2796 Y53.5909
G01 X13.2933 Y53.4987
G01 X13.3159 Y53.4082
G01 X13.3473 Y53.3205
G01 X13.3872 Y53.2362
G01 X13.4351 Y53.1562
G01 X13.4906 Y53.0813
G01 X13.5532 Y53.0122
G01 X13.6223 Y52.9496
G01 X13.6972 Y52.8941
G01 X13.7772 Y52.8462
G01 X13.8615 Y52.8063
G01 X13.9492 Y52.7749
G01 X14.0397 Y52.7523
G01 X14.1319 Y52.7386
G01 X14.2250 Y52.7340
G01 X14.3181 Y52.7386
G01 X14.4103 Y52.7523
G01 X14.5008 Y52.7749
G01 X14.5885 Y52.8063
G01 X14.6728 Y52.8462
G01 X14.7528 Y52.8941
G01 X14.8277 Y52.9496
G01 X14.8968 Y53.0122
G01 X14.9594 Y53.0813
G01 X15.0149 Y53.1562
G01 X15.0628 Y53.2362
G01 X15.1027 Y53.3205
G01 X15.1341 Y53.4082
G01 X15.1567 Y53.4987
G01 X15.1701 Y53.5884
G00 Z2.0000
G00 X15.1701 Y56.1284
G01 F60.00
G01 Z0.0000
G01 F150.00
G01 X15.1750 Y56.2240
G01 X15.1704 Y56.3171
G01 X15.1567 Y56.4093
G01 X15.1341 Y56.4998
G01 X15.1027 Y56.5875
G01 X15.0628 Y56.6718
G01 X15.0149 Y56.7518
G01 X14.9594 Y56.8267
G01 X14.8968 Y56.8958
G01 X14.8277 Y56.9584
G01 X14.7528 Y57.0139
G01 X14.6728 Y57.0618
G01 X14.5885 Y57.1017
G01 X14.5008 Y57.1331
G01 X14.4103 Y57.1557
G01 X14.3181 Y57.1694
G01 X14.2250 Y57.1740
G01 X14.1319 Y57.1694
G01 X14.0397 Y57.1557
G01 X13.9492 Y57.1331
G01 X13.8615 Y57.1017
G01 X13.7772 Y57.0618
G01 X13.6972 Y57.0139
G01 X13.6223 Y56.9584
G01 X13.5532 Y56.8958
G01 X13.4906 Y56.8267
G01 X13.4351 Y56.7518
G01 X13.3872 Y56.6718
G01 X13.3473 Y56.5875
G01 X13.3159 Y56.4998
G01 X13.2933 Y56.4093
G01 X13.2796 Y56.3171
G01 X13.2750 Y56.2240
G01 X13.2796 Y56.1309
G01 X13.2933 Y56.0387
G01 X13.3159 Y55.9482
G01 X13.3473 Y55.8605
G01 X13.3872 Y55.7762
G01 X13.4351 Y55.6962
G01 X13.4906 Y55.6213
G01 X13.5532 Y55.5522
G01 X13.6223 Y55.4896
G01 X13.6972 Y55.4341
G01 X13.7772 Y55.3862
G01 X13.8615 Y55.3463
G01 X13.9492 Y55.3149
G01 X14.0397 Y55.2923
G01 X14.1319 Y55.2786
G01 X14.2250 Y55.2740
G01 X14.3181 Y55.2786
G01 X14.4103 Y55.2923
G01 X14.5008 Y55.3149
G01 X14.5885 Y55.3463
G01 X14.6728 Y55.3862
G01 X14.7528 Y55.4341
G01 X14.8277 Y55.4896
G01 X14.8968 Y55.5522
G01 X14.9594 Y55.6213
G01 X15.0149 Y55.6962
G01 X15.0628 Y55.7762
G01 X15.1027 Y55.8605
G01 X15.1341 Y55.9482
G01 X15.1567 Y56.0387
G01 X15.1701 Y56.1284
G00 Z2.0000
G00 X15.1701 Y58.6684
G01 F60.00
G01 Z0.0000
G01 F150.00
G01 X15.1750 Y58.7640
G01 X15.1704 Y58.8571
G01 X15.1567 Y58.9493
G01 X15.1341 Y59.0398
G01 X15.1027 Y59.1275
G01 X15.0628 Y59.2118
G01 X15.0149 Y59.2918
G01 X14.9594 Y59.3667
G01 X14.8968 Y59.4358
G01 X14.8277 Y59.4984
G01 X14.7528 Y59.5539
G01 X14.6728 Y59.6018
G01 X14.5885 Y59.6417
G01 X14.5008 Y59.6731
G01 X14.4103 Y59.6957
G01 X14.3181 Y59.7094
G01 X14.2250 Y59.7140
G01 X14.1319 Y59.7094
G01 X14.0397 Y59.6957
G01 X13.9492 Y59.6731
G01 X13.8615 Y59.6417
G01 X13.7772 Y59.6018
G01 X13.6972 Y59.5539
G01 X13.6223 Y59.4984
G01 X13.5532 Y59.4358
G01 X13.4906 Y59.3667
G01 X13.4351 Y59.2918
G01 X13.3872 Y59.2118
G01 X13.3473 Y59.1275
G01 X13.3159 Y59.0398
G01 X13.2933 Y58.9493
G01 X13.2796 Y58.8571
G01 X13.2750 Y58.7640
G01 X13.2796 Y58.6709
G01 X13.2933 Y58.5787
G01 X13.3159 Y58.4882
G01 X13.3473 Y58.4005
G01 X13.3872 Y58.3162
G01 X13.4351 Y58.2362
G01 X13.4906 Y58.1613
G01 X13.5532 Y58.0922
G01 X13.6223 Y58.0296
G01 X13.6972 Y57.9741
G01 X13.7772 Y57.9262
G01 X13.8615 Y57.8863
G01 X13.9492 Y57.8549
G01 X14.0397 Y57.8323
G01 X14.1319 Y57.8186
G01 X14.2250 Y57.8140
G01 X14.3181 Y57.8186
G01 X14.4103 Y57.8323
G01 X14.5008 Y57.8549
G01 X14.5885 Y57.8863
G01 X14.6728 Y57.9262
G01 X14.7528 Y57.9741
G01 X14.8277 Y58.0296
G01 X14.8968 Y58.0922
G01 X14.9594 Y58.1613
G01 X15.0149 Y58.2362
G01 X15.0628 Y58.3162
G01 X15.1027 Y58.4005
G01 X15.1341 Y58.4882
G01 X15.1567 Y58.5787
G01 X15.1701 Y58.6684
G00 Z2.0000
G00 X15.1701 Y61.2084
G01 F60.00
G01 Z0.0000
G01 F150.00
G01 X15.1750 Y61.3040
G01 X15.1704 Y61.3971
G01 X15.1567 Y61.4893
G01 X15.1341 Y61.5798
G01 X15.1027 Y61.6675
G01 X15.0628 Y61.7518
G01 X15.0149 Y61.8318
G01 X14.9594 Y61.9067
G01 X14.8968 Y61.9758
G01 X14.8277 Y62.0384
G01 X14.7528 Y62.0939
G01 X14.6728 Y62.1418
G01 X14.5885 Y62.1817
G01 X14.5008 Y62.2131
G01 X14.4103 Y62.2357
G01 X14.3181 Y62.2494
G01 X14.2250 Y62.2540
G01 X14.1319 Y62.2494
G01 X14.0397 Y62.2357
G01 X13.9492 Y62.2131
G01 X13.8615 Y62.1817
G01 X13.7772 Y62.1418
G01 X13.6972 Y62.0939
G01 X13.6223 Y62.0384
G01 X13.5532 Y61.9758
G01 X13.4906 Y61.9067
G01 X13.4351 Y61.8318
G01 X13.3872 Y61.7518
G01 X13.3473 Y61.6675
G01 X13.3159 Y61.5798
G01 X13.2933 Y61.4893
G01 X13.2796 Y61.3971
G01 X13.2750 Y61.3040
G01 X13.2796 Y61.2109
G01 X13.2933 Y61.1187
G01 X13.3159 Y61.0282
G01 X13.3473 Y60.9405
G01 X13.3872 Y60.8562
G01 X13.4351 Y60.7762
G01 X13.4906 Y60.7013
G01 X13.5532 Y60.6322
G01 X13.6223 Y60.5696
G01 X13.6972 Y60.5141
G01 X13.7772 Y60.4662
G01 X13.8615 Y60.4263
G01 X13.9492 Y60.3949
G01 X14.0397 Y60.3723
G01 X14.1319 Y60.3586
G01 X14.2250 Y60.3540
G01 X14.3181 Y60.3586
G01 X14.4103 Y60.3723
G01 X14.5008 Y60.3949
G01 X14.5885 Y60.4263
G01 X14.6728 Y60.4662
G01 X14.7528 Y60.5141
G01 X14.8277 Y60.5696
G01 X14.8968 Y60.6322
G01 X14.9594 Y60.7013
G01 X15.0149 Y60.7762
G01 X15.0628 Y60.8562
G01 X15.1027 Y60.9405
G01 X15.1341 Y61.0282
G01 X15.1567 Y61.1187
G01 X15.1701 Y61.2084
G00 Z2.0000
G00 X9.7647 Y63.7008
G01 F60.00
G01 Z0.0000
G01 F150.00
G01 X9.7437 Y63.6420
G01 X9.7282 Y63.5801
G01 X9.7188 Y63.5169
G01 X9.7157 Y63.4532
G01 X9.7157 Y19.3331
G01 X8.8122 Y18.4295
G01 X8.7709 Y18.3841
G01 X8.7313 Y18.3310
G01 X8.6985 Y18.2762
G01 X8.6712 Y18.2186
G01 X8.6490 Y18.1561
G01 X8.6342 Y18.0966
G01 X8.6251 Y18.0359
G01 X8.6217 Y17.9697
G01 X8.6217 Y14.5063
G01 X8.5994 Y14.4859
G01 X8.5384 Y14.4186
G01 X8.4828 Y14.3438
G01 X8.4342 Y14.2628
G01 X8.3948 Y14.1797
G01 X8.3629 Y14.0908
G01 X8.3403 Y14.0003
G01 X8.3266 Y13.9081
G01 X8.3220 Y13.8150
G01 X8.3220 Y13.1150
G01 X8.3266 Y13.0219
G01 X8.3403 Y12.9297
G01 X8.3629 Y12.8392
G01 X8.3943 Y12.7515
G01 X8.4348 Y12.6661
G01 X8.4821 Y12.5872
G01 X8.5361 Y12.5143
G01 X8.6002 Y12.4432
G01 X8.6713 Y12.3791
G01 X8.7442 Y12.3251
G01 X8.8220 Y12.2784
G01 X8.9085 Y12.2373
G01 X8.9986 Y12.2053
G01 X9.0867 Y12.1833
G01 X9.1764 Y12.1699
G01 X9.2720 Y12.1650
G01 X9.3651 Y12.1696
G01 X9.4573 Y12.1833
G01 X9.5478 Y12.2059
G01 X9.6333 Y12.2364
G01 X9.7220 Y12.2784
G01 X9.7998 Y12.3251
G01 X9.8765 Y12.3822
G01 X9.9438 Y12.4432
G01 X10.0064 Y12.5123
G01 X10.0619 Y12.5872
G01 X10.1098 Y12.6672
G01 X10.1497 Y12.7515
G01 X10.1811 Y12.8392
G01 X10.2037 Y12.9297
G01 X10.2173 Y13.0207
G01 X10.2220 Y13.1150
G01 X10.2220 Y13.8162
G01 X10.2174 Y13.9081
G01 X10.2037 Y14.0003
G01 X10.1811 Y14.0908
G01 X10.1506 Y14.1763
G01 X10.1092 Y14.2639
G01 X10.0619 Y14.3428
G01 X10.0071 Y14.4167
G01 X9.9446 Y14.4859
G01 X9.9223 Y14.5063
G01 X9.9223 Y17.7003
G01 X10.8258 Y18.6039
G01 X10.8687 Y18.6512
G01 X10.9067 Y18.7024
G01 X10.9383 Y18.7550
G01 X10.9677 Y18.8171
G01 X10.9883 Y18.8749
G01 X11.0038 Y18.9368
G01 X11.0132 Y19.0000
G01 X11.0163 Y19.0625
G01 X11.0163 Y62.9530
G01 X11.0313 Y62.9622
G01 X11.0806 Y62.9987
G01 X11.1288 Y63.0424
G01 X13.4202 Y65.3337
G01 X13.8250 Y65.3337
G01 X13.8900 Y65.3370
G01 X13.9519 Y65.3462
G01 X14.0161 Y65.3625
G01 X14.0761 Y65.3842
G01 X14.1315 Y65.4105
G01 X14.1709 Y65.4340
G01 X14.9000 Y65.4340
G01 X14.9270 Y65.4353
G01 X14.9536 Y65.4393
G01 X14.9775 Y65.4452
G01 X15.0075 Y65.4559
G01 X15.0296 Y65.4665
G01 X15.0528 Y65.4803
G01 X15.0745 Y65.4964
G01 X15.0945 Y65.5145
G01 X15.1126 Y65.5345
G01 X15.1287 Y65.5562
G01 X15.1425 Y65.5794
G01 X15.1531 Y65.6015
G01 X15.1638 Y65.6315
G01 X15.1697 Y65.6554
G01 X15.1739 Y65.6845
G01 X15.1750 Y65.7090
G01 X15.1750 Y67.0602
G01 X15.1737 Y67.0860
G01 X15.1697 Y67.1126
G01 X15.1632 Y67.1388
G01 X15.1550 Y67.1619
G01 X15.1425 Y67.1886
G01 X15.1300 Y67.2097
G01 X15.1110 Y67.2353
G01 X15.0945 Y67.2535
G01 X15.0745 Y67.2716
G01 X15.0528 Y67.2877
G01 X15.0296 Y67.3015
G01 X15.0052 Y67.3131
G01 X14.9798 Y67.3222
G01 X14.9536 Y67.3287
G01 X14.9294 Y67.3324
G01 X14.9000 Y67.3340
G01 X13.5488 Y67.3340
G01 X13.5206 Y67.3324
G01 X13.4964 Y67.3287
G01 X13.4725 Y67.3228
G01 X13.4448 Y67.3131
G01 X13.4204 Y67.3015
G01 X13.3972 Y67.2877
G01 X13.3755 Y67.2716
G01 X13.3555 Y67.2535
G01 X13.3359 Y67.2315
G01 X13.3200 Y67.2097
G01 X13.3075 Y67.1886
G01 X13.2969 Y67.1665
G01 X13.2868 Y67.1388
G01 X13.2805 Y67.1139
G01 X13.2763 Y67.0860
G01 X13.2750 Y67.0590
G01 X13.2750 Y66.6343
G01 X13.1496 Y66.6343
G01 X13.0871 Y66.6312
G01 X13.0239 Y66.6218
G01 X12.9632 Y66.6066
G01 X12.9019 Y66.5848
G01 X12.8443 Y66.5575
G01 X12.7895 Y66.5247
G01 X12.7383 Y66.4867
G01 X12.6910 Y66.4438
G01 X11.0653 Y64.8182
G01 X11.0653 Y73.1550
G01 X11.0619 Y73.2212
G01 X11.0528 Y73.2819
G01 X11.0373 Y73.3438
G01 X11.0158 Y73.4039
G01 X10.9873 Y73.4637
G01 X10.9557 Y73.5163
G01 X10.9192 Y73.5656
G01 X10.8757 Y73.6140
G01 X8.3156 Y76.1740
G01 X8.3170 Y76.2042
G01 X8.3125 Y76.2949
G01 X8.2990 Y76.3871
G01 X8.2761 Y76.4788
G01 X8.2451 Y76.5654
G01 X8.2048 Y76.6508
G01 X8.1569 Y76.7308
G01 X8.1014 Y76.8057
G01 X8.0388 Y76.8748
G01 X7.9677 Y76.9389
G01 X7.8948 Y76.9929
G01 X7.8170 Y77.0396
G01 X7.7305 Y77.0807
G01 X7.6428 Y77.1121
G01 X7.5499 Y77.1352
G01 X7.4601 Y77.1484
G01 X7.3695 Y77.1529
G01 X7.2739 Y77.1484
G01 X7.1817 Y77.1347
G01 X7.0889 Y77.1113
G01 X7.0035 Y77.0807
G01 X6.9214 Y77.0419
G01 X6.8392 Y76.9929
G01 X6.7643 Y76.9374
G01 X6.6936 Y76.8730
G01 X6.6326 Y76.8057
G01 X6.5785 Y76.7328
G01 X6.5292 Y76.6508
G01 X6.4893 Y76.5665
G01 X6.4579 Y76.4788
G01 X6.4348 Y76.3859
G01 X6.4216 Y76.2961
G01 X6.4171 Y76.2055
G01 X6.4216 Y76.1099
G01 X6.4353 Y76.0177
G01 X6.4587 Y75.9249
G01 X6.4903 Y75.8372
G01 X6.5292 Y75.7552
G01 X6.5758 Y75.6773
G01 X6.6326 Y75.6003
G01 X6.6970 Y75.5296
G01 X6.7643 Y75.4686
G01 X6.8372 Y75.4145
G01 X6.9203 Y75.3646
G01 X7.0035 Y75.3253
G01 X7.0889 Y75.2947
G01 X7.1805 Y75.2715
G01 X7.2751 Y75.2575
G01 X7.3658 Y75.2530
G01 X7.3960 Y75.2544
G01 X9.7647 Y72.8856
G01 X9.7647 Y63.7008
G00 Z2.0000
G00 X20.0120 Y49.2840
G01 F60.00
G01 Z0.0000
G01 F150.00
G01 X20.0218 Y49.2850
G01 X20.0311 Y49.2878
G01 X20.0387 Y49.2918
G01 X20.0465 Y49.2978
G01 X20.0529 Y49.3052
G01 X20.0577 Y49.3137
G01 X20.0608 Y49.3230
G01 X20.0620 Y49.3328
G01 X20.0620 Y50.4940
G01 X20.0610 Y50.5038
G01 X20.0582 Y50.5131
G01 X20.0536 Y50.5218
G01 X20.0482 Y50.5285
G01 X20.0408 Y50.5349
G01 X20.0323 Y50.5397
G01 X20.0265 Y50.5418
G01 X20.0218 Y50.5430
G01 X20.0120 Y50.5440
G01 X18.8520 Y50.5440
G01 X18.8422 Y50.5430
G01 X18.8329 Y50.5402
G01 X18.8253 Y50.5362
G01 X18.8175 Y50.5302
G01 X18.8111 Y50.5228
G01 X18.8063 Y50.5143
G01 X18.8032 Y50.5050
G01 X18.8024 Y50.5001
G01 X18.8020 Y50.4940
G01 X18.8020 Y49.3340
G01 X18.8027 Y49.3255
G01 X18.8054 Y49.3160
G01 X18.8098 Y49.3073
G01 X18.8158 Y49.2995
G01 X18.8232 Y49.2931
G01 X18.8317 Y49.2883
G01 X18.8410 Y49.2852
G01 X18.8508 Y49.2840
G01 X20.0120 Y49.2840
G00 Z2.0000
G00 X27.6787 Y49.8498
G01 F60.00
G01 Z0.0000
G01 F150.00
G01 X27.6820 Y49.9140
G01 X27.6790 Y49.9758
G01 X27.6699 Y50.0369
G01 X27.6549 Y50.0969
G01 X27.6340 Y50.1551
G01 X27.6076 Y50.2110
G01 X27.5758 Y50.2640
G01 X27.5390 Y50.3137
G01 X27.4975 Y50.3595
G01 X27.4517 Y50.4010
G01 X27.4020 Y50.4378
G01 X27.3490 Y50.4696
G01 X27.2931 Y50.4960
G01 X27.2349 Y50.5169
G01 X27.1749 Y50.5319
G01 X27.1138 Y50.5410
G01 X27.0520 Y50.5440
G01 X26.9902 Y50.5410
G01 X26.9291 Y50.5319
G01 X26.8691 Y50.5169
G01 X26.8109 Y50.4960
G01 X26.7550 Y50.4696
G01 X26.7020 Y50.4378
G01 X26.6523 Y50.4010
G01 X26.6065 Y50.3595
G01 X26.5650 Y50.3137
G01 X26.5282 Y50.2640
G01 X26.4964 Y50.2110
G01 X26.4700 Y50.1551
G01 X26.4491 Y50.0969
G01 X26.4341 Y50.0369
G01 X26.4250 Y49.9758
G01 X26.4220 Y49.9140
G01 X26.4250 Y49.8522
G01 X26.4341 Y49.7911
G01 X26.4491 Y49.7311
G01 X26.4700 Y49.6729
G01 X26.4964 Y49.6170
G01 X26.5282 Y49.5640
G01 X26.5650 Y49.5143
G01 X26.6065 Y49.4685
G01 X26.6523 Y49.4270
G01 X26.7020 Y49.3902
G01 X26.7550 Y49.3584
G01 X26.8109 Y49.3320
G01 X26.8691 Y49.3111
G01 X26.9291 Y49.2961
G01 X26.9902 Y49.2870
G01 X27.0520 Y49.2840
G01 X27.1138 Y49.2870
G01 X27.1749 Y49.2961
G01 X27.2349 Y49.3111
G01 X27.2931 Y49.3320
G01 X27.3490 Y49.3584
G01 X27.4020 Y49.3902
G01 X27.4517 Y49.4270
G01 X27.4975 Y49.4685
G01 X27.5390 Y49.5143
G01 X27.5758 Y49.5640
G01 X27.6076 Y49.6170
G01 X27.6340 Y49.6729
G01 X27.6549 Y49.7311
G01 X27.6699 Y49.7911
G01 X27.6787 Y49.8498
G00 Z2.0000
G00 X27.6787 Y57.4698
