(G-CODE GENERATED BY FLATCAM v8.994 - www.flatcam.org - Version Date: 2020/11/7)

(Name: Controle_Motor.GBL_cutout_cnc)
(Type: G-code from Geometry)
(Units: MM)

(Created on Saturday, 31 July 2021 at 13:21)

(This preprocessor is the default preprocessor used by FlatCAM.)
(It is made to work with MACH3 compatible motion controllers.)

(TOOL DIAMETER: 3.0 mm)
(Feedrate_XY: 120.0 mm/min)
(Feedrate_Z: 50.0 mm/min)
(Feedrate rapids 1500.0 mm/min)

(Z_Cut: -3.0 mm)
(DepthPerCut: 0.6 mm <=>5 passes)
(Z_Move: 2.0 mm)
(Z Start: None mm)
(Z End: 15.0 mm)
(X,Y End: None mm)
(Steps per circle: 64)
(Preprocessor Geometry: default)

(X range:   -1.7270 ...   61.7980  mm)
(Y range:   -1.6000 ...  121.8688  mm)

(Spindle Speed: 1000.0 RPM)
G21
G90
G94

G01 F120.00

M5
G00 Z15.0000
G00 X0.0000 Y0.0000
T1
M6    
(MSG, Change to Tool Dia = 3.0000)
M0
G00 Z15.0000

M03 S1000.0
G01 F120.00
G00 X27.6355 Y-1.6000
G01 F50.00
G01 Z-0.6000
G01 F120.00
G01 X-0.1270 Y-1.6000
G01 X-0.2838 Y-1.5923
G01 X-0.4391 Y-1.5693
G01 X-0.5915 Y-1.5311
G01 X-0.7393 Y-1.4782
G01 X-0.8812 Y-1.4111
G01 X-1.0159 Y-1.3304
G01 X-1.1420 Y-1.2368
G01 X-1.2584 Y-1.1314
G01 X-1.3638 Y-1.0150
G01 X-1.4574 Y-0.8889
G01 X-1.5381 Y-0.7542
G01 X-1.6052 Y-0.6123
G01 X-1.6581 Y-0.4645
G01 X-1.6963 Y-0.3121
G01 X-1.7193 Y-0.1568
G01 X-1.7270 Y0.0000
G01 X-1.7270 Y57.7344
G00 X-1.7270 Y57.7344
G01 F50.00
G01 Z-1.2000
G01 F120.00
G01 X-1.7270 Y0.0000
G01 X-1.7193 Y-0.1568
G01 X-1.6963 Y-0.3121
G01 X-1.6581 Y-0.4645
G01 X-1.6052 Y-0.6123
G01 X-1.5381 Y-0.7542
G01 X-1.4574 Y-0.8889
G01 X-1.3638 Y-1.0150
G01 X-1.2584 Y-1.1314
G01 X-1.1420 Y-1.2368
G01 X-1.0159 Y-1.3304
G01 X-0.8812 Y-1.4111
G01 X-0.7393 Y-1.4782
G01 X-0.5915 Y-1.5311
G01 X-0.4391 Y-1.5693
G01 X-0.2838 Y-1.5923
G01 X-0.1270 Y-1.6000
G01 X27.6355 Y-1.6000
G00 X27.6355 Y-1.6000
G01 F50.00
G01 Z-1.8000
G01 F120.00
G01 X-0.1270 Y-1.6000
G01 X-0.2838 Y-1.5923
G01 X-0.4391 Y-1.5693
G01 X-0.5915 Y-1.5311
G01 X-0.7393 Y-1.4782
G01 X-0.8812 Y-1.4111
G01 X-1.0159 Y-1.3304
G01 X-1.1420 Y-1.2368
G01 X-1.2584 Y-1.1314
G01 X-1.3638 Y-1.0150
G01 X-1.4574 Y-0.8889
G01 X-1.5381 Y-0.7542
G01 X-1.6052 Y-0.6123
G01 X-1.6581 Y-0.4645
G01 X-1.6963 Y-0.3121
G01 X-1.7193 Y-0.1568
G01 X-1.7270 Y0.0000
G01 X-1.7270 Y57.7344
G00 X-1.7270 Y57.7344
G01 F50.00
G01 Z-2.4000
G01 F120.00
G01 X-1.7270 Y0.0000
G01 X-1.7193 Y-0.1568
G01 X-1.6963 Y-0.3121
G01 X-1.6581 Y-0.4645
G01 X-1.6052 Y-0.6123
G01 X-1.5381 Y-0.7542
G01 X-1.4574 Y-0.8889
G01 X-1.3638 Y-1.0150
G01 X-1.2584 Y-1.1314
G01 X-1.1420 Y-1.2368
G01 X-1.0159 Y-1.3304
G01 X-0.8812 Y-1.4111
G01 X-0.7393 Y-1.4782
G01 X-0.5915 Y-1.5311
G01 X-0.4391 Y-1.5693
G01 X-0.2838 Y-1.5923
G01 X-0.1270 Y-1.6000
G01 X27.6355 Y-1.6000
G00 X27.6355 Y-1.6000
G01 F50.00
G01 Z-3.0000
G01 F120.00
G01 X-0.1270 Y-1.6000
G01 X-0.2838 Y-1.5923
G01 X-0.4391 Y-1.5693
G01 X-0.5915 Y-1.5311
G01 X-0.7393 Y-1.4782
G01 X-0.8812 Y-1.4111
G01 X-1.0159 Y-1.3304
G01 X-1.1420 Y-1.2368
G01 X-1.2584 Y-1.1314
G01 X-1.3638 Y-1.0150
G01 X-1.4574 Y-0.8889
G01 X-1.5381 Y-0.7542
G01 X-1.6052 Y-0.6123
G01 X-1.6581 Y-0.4645
G01 X-1.6963 Y-0.3121
G01 X-1.7193 Y-0.1568
G01 X-1.7270 Y0.0000
G01 X-1.7270 Y57.7344
G00 Z2.0000
G00 X-1.7270 Y62.7344
G01 F50.00
G01 Z-0.6000
G01 F120.00
G01 X-1.7270 Y120.2688
G01 X-1.7193 Y120.4256
G01 X-1.6963 Y120.5809
G01 X-1.6581 Y120.7333
G01 X-1.6052 Y120.8811
G01 X-1.5381 Y121.0230
G01 X-1.4574 Y121.1577
G01 X-1.3638 Y121.2838
G01 X-1.2584 Y121.4002
G01 X-1.1420 Y121.5056
G01 X-1.0159 Y121.5992
G01 X-0.8812 Y121.6799
G01 X-0.7393 Y121.7470
G01 X-0.5915 Y121.7999
G01 X-0.4391 Y121.8381
G01 X-0.2838 Y121.8611
G01 X-0.1270 Y121.8688
G01 X27.6355 Y121.8688
G00 X27.6355 Y121.8688
G01 F50.00
G01 Z-1.2000
G01 F120.00
G01 X-0.1270 Y121.8688
G01 X-0.2838 Y121.8611
G01 X-0.4391 Y121.8381
G01 X-0.5915 Y121.7999
G01 X-0.7393 Y121.7470
G01 X-0.8812 Y121.6799
G01 X-1.0159 Y121.5992
G01 X-1.1420 Y121.5056
G01 X-1.2584 Y121.4002
G01 X-1.3638 Y121.2838
G01 X-1.4574 Y121.1577
G01 X-1.5381 Y121.0230
G01 X-1.6052 Y120.8811
G01 X-1.6581 Y120.7333
G01 X-1.6963 Y120.5809
G01 X-1.7193 Y120.4256
G01 X-1.7270 Y120.2688
G01 X-1.7270 Y62.7344
G00 X-1.7270 Y62.7344
G01 F50.00
G01 Z-1.8000
G01 F120.00
G01 X-1.7270 Y120.2688
G01 X-1.7193 Y120.4256
G01 X-1.6963 Y120.5809
G01 X-1.6581 Y120.7333
G01 X-1.6052 Y120.8811
G01 X-1.5381 Y121.0230
G01 X-1.4574 Y121.1577
G01 X-1.3638 Y121.2838
G01 X-1.2584 Y121.4002
G01 X-1.1420 Y121.5056
G01 X-1.0159 Y121.5992
G01 X-0.8812 Y121.6799
G01 X-0.7393 Y121.7470
G01 X-0.5915 Y121.7999
G01 X-0.4391 Y121.8381
G01 X-0.2838 Y121.8611
G01 X-0.1270 Y121.8688
G01 X27.6355 Y121.8688
G00 X27.6355 Y121.8688
G01 F50.00
G01 Z-2.4000
G01 F120.00
G01 X-0.1270 Y121.8688
G01 X-0.2838 Y121.8611
G01 X-0.4391 Y121.8381
G01 X-0.5915 Y121.7999
G01 X-0.7393 Y121.7470
G01 X-0.8812 Y121.6799
G01 X-1.0159 Y121.5992
G01 X-1.1420 Y121.5056
G01 X-1.2584 Y121.4002
G01 X-1.3638 Y121.2838
G01 X-1.4574 Y121.1577
G01 X-1.5381 Y121.0230
G01 X-1.6052 Y120.8811
G01 X-1.6581 Y120.7333
G01 X-1.6963 Y120.5809
G01 X-1.7193 Y120.4256
G01 X-1.7270 Y120.2688
G01 X-1.7270 Y62.7344
G00 X-1.7270 Y62.7344
G01 F50.00
G01 Z-3.0000
G01 F120.00
G01 X-1.7270 Y120.2688
G01 X-1.7193 Y120.4256
G01 X-1.6963 Y120.5809
G01 X-1.6581 Y120.7333
G01 X-1.6052 Y120.8811
G01 X-1.5381 Y121.0230
G01 X-1.4574 Y121.1577
G01 X-1.3638 Y121.2838
G01 X-1.2584 Y121.4002
G01 X-1.1420 Y121.5056
G01 X-1.0159 Y121.5992
G01 X-0.8812 Y121.6799
G01 X-0.7393 Y121.7470
G01 X-0.5915 Y121.7999
G01 X-0.4391 Y121.8381
G01 X-0.2838 Y121.8611
G01 X-0.1270 Y121.8688
G01 X27.6355 Y121.8688
G00 Z2.0000
G00 X32.6355 Y121.8688
G01 F50.00
G01 Z-0.6000
G01 F120.00
G01 X60.1980 Y121.8688
G01 X60.3548 Y121.8611
G01 X60.5101 Y121.8381
G01 X60.6625 Y121.7999
G01 X60.8103 Y121.7470
G01 X60.9522 Y121.6799
G01 X61.0869 Y121.5992
G01 X61.2130 Y121.5056
G01 X61.3294 Y121.4002
G01 X61.4348 Y121.2838
G01 X61.5284 Y121.1577
G01 X61.6091 Y121.0230
G01 X61.6762 Y120.8811
G01 X61.7291 Y120.7333
G01 X61.7673 Y120.5809
G01 X61.7903 Y120.4256
G01 X61.7980 Y120.2688
G01 X61.7980 Y62.7344
G00 X61.7980 Y62.7344
G01 F50.00
G01 Z-1.2000
G01 F120.00
G01 X61.7980 Y120.2688
G01 X61.7903 Y120.4256
G01 X61.7673 Y120.5809
G01 X61.7291 Y120.7333
G01 X61.6762 Y120.8811
G01 X61.6091 Y121.0230
G01 X61.5284 Y121.1577
G01 X61.4348 Y121.2838
G01 X61.3294 Y121.4002
G01 X61.2130 Y121.5056
G01 X61.0869 Y121.5992
G01 X60.9522 Y121.6799
G01 X60.8103 Y121.7470
G01 X60.6625 Y121.7999
G01 X60.5101 Y121.8381
G01 X60.3548 Y121.8611
G01 X60.1980 Y121.8688
G01 X32.6355 Y121.8688
G00 X32.6355 Y121.8688
G01 F50.00
G01 Z-1.8000
G01 F120.00
G01 X60.1980 Y121.8688
G01 X60.3548 Y121.8611
G01 X60.5101 Y121.8381
G01 X60.6625 Y121.7999
G01 X60.8103 Y121.7470
G01 X60.9522 Y121.6799
G01 X61.0869 Y121.5992
G01 X61.2130 Y121.5056
G01 X61.3294 Y121.4002
G01 X61.4348 Y121.2838
G01 X61.5284 Y121.1577
G01 X61.6091 Y121.0230
G01 X61.6762 Y120.8811
G01 X61.7291 Y120.7333
G01 X61.7673 Y120.5809
G01 X61.7903 Y120.4256
G01 X61.7980 Y120.2688
G01 X61.7980 Y62.7344
G00 X61.7980 Y62.7344
G01 F50.00
G01 Z-2.4000
G01 F120.00
G01 X61.7980 Y120.2688
G01 X61.7903 Y120.4256
G01 X61.7673 Y120.5809
G01 X61.7291 Y120.7333
G01 X61.6762 Y120.8811
G01 X61.6091 Y121.0230
G01 X61.5284 Y121.1577
G01 X61.4348 Y121.2838
G01 X61.3294 Y121.4002
G01 X61.2130 Y121.5056
G01 X61.0869 Y121.5992
G01 X60.9522 Y121.6799
G01 X60.8103 Y121.7470
G01 X60.6625 Y121.7999
G01 X60.5101 Y121.8381
G01 X60.3548 Y121.8611
G01 X60.1980 Y121.8688
G01 X32.6355 Y121.8688
G00 X32.6355 Y121.8688
G01 F50.00
G01 Z-3.0000
G01 F120.00
G01 X60.1980 Y121.8688
G01 X60.3548 Y121.8611
G01 X60.5101 Y121.8381
G01 X60.6625 Y121.7999
G01 X60.8103 Y121.7470
G01 X60.9522 Y121.6799
G01 X61.0869 Y121.5992
G01 X61.2130 Y121.5056
G01 X61.3294 Y121.4002
G01 X61.4348 Y121.2838
G01 X61.5284 Y121.1577
G01 X61.6091 Y121.0230
G01 X61.6762 Y120.8811
G01 X61.7291 Y120.7333
G01 X61.7673 Y120.5809
G01 X61.7903 Y120.4256
G01 X61.7980 Y120.2688
G01 X61.7980 Y62.7344
G00 Z2.0000
G00 X61.7980 Y57.7344
G01 F50.00
G01 Z-0.6000
G01 F120.00
G01 X61.7980 Y0.0000
G01 X61.7903 Y-0.1568
G01 X61.7673 Y-0.3121
G01 X61.7291 Y-0.4645
G01 X61.6762 Y-0.6123
G01 X61.6091 Y-0.7542
G01 X61.5284 Y-0.8889
G01 X61.4348 Y-1.0150
G01 X61.3294 Y-1.1314
G01 X61.2130 Y-1.2368
G01 X61.0869 Y-1.3304
G01 X60.9522 Y-1.4111
G01 X60.8103 Y-1.4782
G01 X60.6625 Y-1.5311
G01 X60.5101 Y-1.5693
G01 X60.3548 Y-1.5923
G01 X60.1980 Y-1.6000
G01 X32.6355 Y-1.6000
G00 X32.6355 Y-1.6000
G01 F50.00
G01 Z-1.2000
G01 F120.00
G01 X60.1980 Y-1.6000
G01 X60.3548 Y-1.5923
G01 X60.5101 Y-1.5693
G01 X60.6625 Y-1.5311
G01 X60.8103 Y-1.4782
G01 X60.9522 Y-1.4111
G01 X61.0869 Y-1.3304
G01 X61.2130 Y-1.2368
G01 X61.3294 Y-1.1314
G01 X61.4348 Y-1.0150
G01 X61.5284 Y-0.8889
G01 X61.6091 Y-0.7542
G01 X61.6762 Y-0.6123
G01 X61.7291 Y-0.4645
G01 X61.7673 Y-0.3121
G01 X61.7903 Y-0.1568
G01 X61.7980 Y0.0000
G01 X61.7980 Y57.7344
G00 X61.7980 Y57.7344
G01 F50.00
G01 Z-1.8000
G01 F120.00
G01 X61.7980 Y0.0000
G01 X61.7903 Y-0.1568
G01 X61.7673 Y-0.3121
G01 X61.7291 Y-0.4645
G01 X61.6762 Y-0.6123
G01 X61.6091 Y-0.7542
G01 X61.5284 Y-0.8889
G01 X61.4348 Y-1.0150
G01 X61.3294 Y-1.1314
G01 X61.2130 Y-1.2368
G01 X61.0869 Y-1.3304
G01 X60.9522 Y-1.4111
G01 X60.8103 Y-1.4782
G01 X60.6625 Y-1.5311
G01 X60.5101 Y-1.5693
G01 X60.3548 Y-1.5923
G01 X60.1980 Y-1.6000
G01 X32.6355 Y-1.6000
G00 X32.6355 Y-1.6000
G01 F50.00
G01 Z-2.4000
G01 F120.00
G01 X60.1980 Y-1.6000
G01 X60.3548 Y-1.5923
G01 X60.5101 Y-1.5693
G01 X60.6625 Y-1.5311
G01 X60.8103 Y-1.4782
G01 X60.9522 Y-1.4111
G01 X61.0869 Y-1.3304
G01 X61.2130 Y-1.2368
G01 X61.3294 Y-1.1314
G01 X61.4348 Y-1.0150
G01 X61.5284 Y-0.8889
G01 X61.6091 Y-0.7542
G01 X61.6762 Y-0.6123
G01 X61.7291 Y-0.4645
G01 X61.7673 Y-0.3121
G01 X61.7903 Y-0.1568
G01 X61.7980 Y0.0000
G01 X61.7980 Y57.7344
G00 X61.7980 Y57.7344
G01 F50.00
G01 Z-3.0000
G01 F120.00
G01 X61.7980 Y0.0000
G01 X61.7903 Y-0.1568
G01 X61.7673 Y-0.3121
G01 X61.7291 Y-0.4645
G01 X61.6762 Y-0.6123
G01 X61.6091 Y-0.7542
G01 X61.5284 Y-0.8889
G01 X61.4348 Y-1.0150
G01 X61.3294 Y-1.1314
G01 X61.2130 Y-1.2368
G01 X61.0869 Y-1.3304
G01 X60.9522 Y-1.4111
G01 X60.8103 Y-1.4782
G01 X60.6625 Y-1.5311
G01 X60.5101 Y-1.5693
G01 X60.3548 Y-1.5923
G01 X60.1980 Y-1.6000
G01 X32.6355 Y-1.6000
G00 Z2.0000
M05
G00 Z2.0000
G00 Z15.00


