(G-CODE GENERATED BY FLATCAM v8.994 - www.flatcam.org - Version Date: 2020/11/7)

(Name: Controle_Motor.GBL_cutout_cnc)
(Type: G-code from Geometry)
(Units: MM)

(Created on Sunday, 01 August 2021 at 15:55)

(This preprocessor is the default preprocessor used by FlatCAM.)
(It is made to work with MACH3 compatible motion controllers.)

(TOOL DIAMETER: 2.4 mm)
(Feedrate_XY: 120.0 mm/min)
(Feedrate_Z: 60.0 mm/min)
(Feedrate rapids 1500.0 mm/min)

(Z_Cut: -4.5 mm)
(Z_Move: 2.0 mm)
(Z Start: None mm)
(Z End: 35.0 mm)
(X,Y End: None mm)
(Steps per circle: 64)
(Preprocessor Geometry: default)

(X range:   -1.4270 ...   61.4980  mm)
(Y range:   -1.3000 ...  121.5688  mm)

(Spindle Speed: 1000.0 RPM)
G21
G90
G94

G01 F120.00

M5
G00 Z15.0000
G00 X0.0000 Y0.0000
T1
M6    
(MSG, Change to Tool Dia = 2.4000)
M0
G00 Z15.0000

M03 S1000.0
G01 F120.00
G00 X27.4355 Y-1.3000
G01 F60.00
G01 Z-4.5000
G01 F120.00
G01 X-0.1270 Y-1.3000
G01 X-0.2544 Y-1.2937
G01 X-0.3806 Y-1.2750
G01 X-0.5044 Y-1.2440
G01 X-0.6245 Y-1.2010
G01 X-0.7398 Y-1.1465
G01 X-0.8492 Y-1.0809
G01 X-0.9517 Y-1.0049
G01 X-1.0462 Y-0.9192
G01 X-1.1319 Y-0.8247
G01 X-1.2079 Y-0.7222
G01 X-1.2735 Y-0.6128
G01 X-1.3280 Y-0.4975
G01 X-1.3710 Y-0.3774
G01 X-1.4020 Y-0.2536
G01 X-1.4207 Y-0.1274
G01 X-1.4270 Y0.0000
G01 X-1.4270 Y57.5344
G00 Z2.0000
G00 X-1.4270 Y62.9344
G01 F60.00
G01 Z-4.5000
G01 F120.00
G01 X-1.4270 Y120.2688
G01 X-1.4207 Y120.3962
G01 X-1.4020 Y120.5224
G01 X-1.3710 Y120.6462
G01 X-1.3280 Y120.7663
G01 X-1.2735 Y120.8816
G01 X-1.2079 Y120.9910
G01 X-1.1319 Y121.0935
G01 X-1.0462 Y121.1880
G01 X-0.9517 Y121.2737
G01 X-0.8492 Y121.3497
G01 X-0.7398 Y121.4153
G01 X-0.6245 Y121.4698
G01 X-0.5044 Y121.5128
G01 X-0.3806 Y121.5438
G01 X-0.2544 Y121.5625
G01 X-0.1270 Y121.5688
G01 X27.4355 Y121.5688
G00 Z2.0000
G00 X32.8355 Y121.5688
G01 F60.00
G01 Z-4.5000
G01 F120.00
G01 X60.1980 Y121.5688
G01 X60.3254 Y121.5625
G01 X60.4516 Y121.5438
G01 X60.5754 Y121.5128
G01 X60.6955 Y121.4698
G01 X60.8108 Y121.4153
G01 X60.9202 Y121.3497
G01 X61.0227 Y121.2737
G01 X61.1172 Y121.1880
G01 X61.2029 Y121.0935
G01 X61.2789 Y120.9910
G01 X61.3445 Y120.8816
G01 X61.3990 Y120.7663
G01 X61.4420 Y120.6462
G01 X61.4730 Y120.5224
G01 X61.4917 Y120.3962
G01 X61.4980 Y120.2688
G01 X61.4980 Y62.9344
G00 Z2.0000
G00 X61.4980 Y57.5344
G01 F60.00
G01 Z-4.5000
G01 F120.00
G01 X61.4980 Y0.0000
G01 X61.4917 Y-0.1274
G01 X61.4730 Y-0.2536
G01 X61.4420 Y-0.3774
G01 X61.3990 Y-0.4975
G01 X61.3445 Y-0.6128
G01 X61.2789 Y-0.7222
G01 X61.2029 Y-0.8247
G01 X61.1172 Y-0.9192
G01 X61.0227 Y-1.0049
G01 X60.9202 Y-1.0809
G01 X60.8108 Y-1.1465
G01 X60.6955 Y-1.2010
G01 X60.5754 Y-1.2440
G01 X60.4516 Y-1.2750
G01 X60.3254 Y-1.2937
G01 X60.1980 Y-1.3000
G01 X32.8355 Y-1.3000
G00 Z2.0000
M05
G00 Z2.0000
G00 Z35.00


