(G-CODE GENERATED BY FLATCAM v8.994 - www.flatcam.org - Version Date: 2020/11/7)

(Name: Controle_Motor.TXT_cnc)
(Type: G-code from Geometry)
(Units: MM)

(Created on Saturday, 31 July 2021 at 12:47)

(This preprocessor is the default preprocessor used by FlatCAM.)
(It is made to work with MACH3 compatible motion controllers.)


(TOOLS DIAMETER: )
(Tool: 1 -> Dia: 0.9)
(Tool: 2 -> Dia: 0.91)
(Tool: 3 -> Dia: 1.0)
(Tool: 4 -> Dia: 1.1)
(Tool: 5 -> Dia: 1.38)
(Tool: 6 -> Dia: 3.0)

(FEEDRATE Z: )
(Tool: 1 -> Feedrate: 150.0)
(Tool: 2 -> Feedrate: 150.0)
(Tool: 3 -> Feedrate: 150.0)
(Tool: 4 -> Feedrate: 150.0)
(Tool: 5 -> Feedrate: 150.0)
(Tool: 6 -> Feedrate: 150.0)

(FEEDRATE RAPIDS: )
(Tool: 1 -> Feedrate Rapids: 1500)
(Tool: 2 -> Feedrate Rapids: 1500)
(Tool: 3 -> Feedrate Rapids: 1500)
(Tool: 4 -> Feedrate Rapids: 1500)
(Tool: 5 -> Feedrate Rapids: 1500)
(Tool: 6 -> Feedrate Rapids: 1500)

(Z_CUT: )
(Tool: 1 -> Z_Cut: -3.000000000000001)
(Tool: 2 -> Z_Cut: -3.000000000000001)
(Tool: 3 -> Z_Cut: -3.000000000000001)
(Tool: 4 -> Z_Cut: -3.000000000000001)
(Tool: 5 -> Z_Cut: -3.000000000000001)
(Tool: 6 -> Z_Cut: -3.000000000000001)

(Tools Offset: )
(Tool: 1 -> Offset Z: 0.0)
(Tool: 2 -> Offset Z: 0.0)
(Tool: 3 -> Offset Z: 0.0)

(Z_MOVE: )
(Tool: 1 -> Z_Move: 2)
(Tool: 2 -> Z_Move: 2)
(Tool: 3 -> Z_Move: 2)
(Tool: 4 -> Z_Move: 2)
(Tool: 5 -> Z_Move: 2)
(Tool: 6 -> Z_Move: 2)

(Z Toolchange: 15.0 mm)
(X,Y Toolchange: 0.0000, 0.0000 mm)
(Z Start: None mm)
(Z End: 20.0 mm)
(X,Y End: None mm)
(Steps per circle: 64)
(Preprocessor Excellon: default)

(X range:    2.0560 ...   57.6340  mm)
(Y range:    2.1830 ...  118.0860  mm)

(Spindle Speed: 1000 RPM)
G21
G90
G94

G01 F150.00

M5
G00 Z15.0000
T1
G00 X0.0000 Y0.0000                
M6
(MSG, Change to Tool Dia = 0.9000 ||| Total drills for tool T1 = 55)
M0
G00 Z15.0000

G01 F150.00
M03 S1000
G00 X52.8320 Y36.8300
G01 Z-3.0000
G01 Z0
G00 Z2.0000
G00 X52.8320 Y46.9900
G01 Z-3.0000
G01 Z0
G00 Z2.0000
G00 X55.3720 Y55.3719
G01 Z-3.0000
G01 Z0
G00 Z2.0000
G00 X52.8320 Y55.3721
G01 Z-3.0000
G01 Z0
G00 Z2.0000
G00 X40.6530 Y51.1410
G01 Z-3.0000
G01 Z0
G00 Z2.0000
G00 X40.6530 Y53.6810
G01 Z-3.0000
G01 Z0
G00 Z2.0000
G00 X40.6530 Y56.2210
G01 Z-3.0000
G01 Z0
G00 Z2.0000
G00 X40.6530 Y58.7610
G01 Z-3.0000
G01 Z0
G00 Z2.0000
G00 X40.6530 Y61.3010
G01 Z-3.0000
G01 Z0
G00 Z2.0000
G00 X40.6530 Y63.8410
G01 Z-3.0000
G01 Z0
G00 Z2.0000
G00 X40.6530 Y66.3810
G01 Z-3.0000
G01 Z0
G00 Z2.0000
G00 X37.7190 Y75.8190
G01 Z-3.0000
G01 Z0
G00 Z2.0000
G00 X41.5290 Y75.6920
G01 Z-3.0000
G01 Z0
G00 Z2.0000
G00 X47.2440 Y76.2000
G01 Z-3.0000
G01 Z0
G00 Z2.0000
G00 X47.2440 Y78.7400
G01 Z-3.0000
G01 Z0
G00 Z2.0000
G00 X47.2440 Y81.2800
G01 Z-3.0000
G01 Z0
G00 Z2.0000
G00 X41.5290 Y85.8520
G01 Z-3.0000
G01 Z0
G00 Z2.0000
G00 X37.7190 Y85.9790
G01 Z-3.0000
G01 Z0
G00 Z2.0000
G00 X30.3530 Y92.4560
G01 Z-3.0000
G01 Z0
G00 Z2.0000
G00 X27.8130 Y92.4560
G01 Z-3.0000
G01 Z0
G00 Z2.0000
G00 X7.6200 Y100.9650
G01 Z-3.0000
G01 Z0
G00 Z2.0000
G00 X7.6200 Y90.8050
G01 Z-3.0000
G01 Z0
G00 Z2.0000
G00 X7.6200 Y86.3600
G01 Z-3.0000
G01 Z0
G00 Z2.0000
G00 X13.3350 Y86.3600
G01 Z-3.0000
G01 Z0
G00 Z2.0000
G00 X19.0500 Y86.2330
G01 Z-3.0000
G01 Z0
G00 Z2.0000
G00 X24.7650 Y86.1060
G01 Z-3.0000
G01 Z0
G00 Z2.0000
G00 X30.3530 Y86.1060
G01 Z-3.0000
G01 Z0
G00 Z2.0000
G00 X30.3530 Y75.9460
G01 Z-3.0000
G01 Z0
G00 Z2.0000
G00 X24.7650 Y75.9460
G01 Z-3.0000
G01 Z0
G00 Z2.0000
G00 X19.0500 Y76.0730
G01 Z-3.0000
G01 Z0
G00 Z2.0000
G00 X13.3350 Y76.2000
G01 Z-3.0000
G01 Z0
G00 Z2.0000
G00 X7.6200 Y76.2000
G01 Z-3.0000
G01 Z0
G00 Z2.0000
G00 X14.4780 Y66.3810
G01 Z-3.0000
G01 Z0
G00 Z2.0000
G00 X14.4780 Y63.8410
G01 Z-3.0000
G01 Z0
G00 Z2.0000
G00 X14.4780 Y61.3010
G01 Z-3.0000
G01 Z0
G00 Z2.0000
G00 X14.4780 Y58.7610
G01 Z-3.0000
G01 Z0
G00 Z2.0000
G00 X14.4780 Y56.2210
G01 Z-3.0000
G01 Z0
G00 Z2.0000
G00 X14.4780 Y53.6810
G01 Z-3.0000
G01 Z0
G00 Z2.0000
G00 X14.4780 Y51.1410
G01 Z-3.0000
G01 Z0
G00 Z2.0000
G00 X14.4780 Y48.6010
G01 Z-3.0000
G01 Z0
G00 Z2.0000
G00 X14.4780 Y46.0610
G01 Z-3.0000
G01 Z0
G00 Z2.0000
G00 X14.4780 Y43.5210
G01 Z-3.0000
G01 Z0
G00 Z2.0000
G00 X14.4780 Y40.9810
G01 Z-3.0000
G01 Z0
G00 Z2.0000
G00 X14.4780 Y38.4410
G01 Z-3.0000
G01 Z0
G00 Z2.0000
G00 X14.4780 Y35.9010
G01 Z-3.0000
G01 Z0
G00 Z2.0000
G00 X14.4780 Y33.3610
G01 Z-3.0000
G01 Z0
G00 Z2.0000
G00 X14.4780 Y30.8610
G01 Z-3.0000
G01 Z0
G00 Z2.0000
G00 X40.6530 Y30.8610
G01 Z-3.0000
G01 Z0
G00 Z2.0000
G00 X40.6530 Y33.3610
G01 Z-3.0000
G01 Z0
G00 Z2.0000
G00 X40.6530 Y35.9010
G01 Z-3.0000
G01 Z0
G00 Z2.0000
G00 X40.6530 Y38.4410
G01 Z-3.0000
G01 Z0
G00 Z2.0000
G00 X40.6530 Y40.9810
G01 Z-3.0000
G01 Z0
G00 Z2.0000
G00 X40.6530 Y43.5210
G01 Z-3.0000
G01 Z0
G00 Z2.0000
G00 X40.6530 Y46.0610
G01 Z-3.0000
G01 Z0
G00 Z2.0000
G00 X40.6530 Y48.6010
G01 Z-3.0000
G01 Z0
G00 Z2.0000
M05
G00 Z20.00


