(G-CODE GENERATED BY FLATCAM v8.994 - www.flatcam.org - Version Date: 2020/11/7)

(Name: Controle_Motor.GBL_iso_combined_cnc)
(Type: G-code from Geometry)
(Units: MM)

(Created on Sunday, 01 August 2021 at 11:56)

(This preprocessor is the default preprocessor used by FlatCAM.)
(It is made to work with MACH3 compatible motion controllers.)

(TOOL DIAMETER: 0.1 mm)
(Feedrate_XY: 120.0 mm/min)
(Feedrate_Z: 60.0 mm/min)
(Feedrate rapids 1500.0 mm/min)

(Z_Cut: 0.0 mm)
(Z_Move: 2.0 mm)
(Z Start: None mm)
(Z End: 20.0 mm)
(X,Y End: None mm)
(Steps per circle: 64)
(Preprocessor Geometry: default)

(X range:   -0.1770 ...   60.2480  mm)
(Y range:   -0.0500 ...  120.3188  mm)

(Spindle Speed: 0.0 RPM)
G21
G90
G94

G01 F120.00

M5
G00 Z15.0000
G00 X0.0000 Y0.0000
T1
M6    
(MSG, Change to Tool Dia = 0.1000)
M0
G00 Z15.0000

M03
G01 F120.00
G00 X5.0982 Y3.5286
G01 F60.00
G01 Z0.0000
G01 F120.00
G01 X5.1060 Y3.6830
G01 X5.0985 Y3.8349
G01 X5.0762 Y3.9854
G01 X5.0393 Y4.1329
G01 X4.9880 Y4.2762
G01 X4.9230 Y4.4137
G01 X4.8448 Y4.5441
G01 X4.7542 Y4.6663
G01 X4.6520 Y4.7790
G01 X4.5393 Y4.8812
G01 X4.4171 Y4.9718
G01 X4.2867 Y5.0500
G01 X4.1492 Y5.1150
G01 X4.0059 Y5.1663
G01 X3.8584 Y5.2032
G01 X3.7079 Y5.2255
G01 X3.5560 Y5.2330
G01 X3.4041 Y5.2255
G01 X3.2536 Y5.2032
G01 X3.1061 Y5.1663
G01 X2.9628 Y5.1150
G01 X2.8253 Y5.0500
G01 X2.6949 Y4.9718
G01 X2.5727 Y4.8812
G01 X2.4600 Y4.7790
G01 X2.3578 Y4.6663
G01 X2.2672 Y4.5441
G01 X2.1890 Y4.4137
G01 X2.1240 Y4.2762
G01 X2.0727 Y4.1329
G01 X2.0358 Y3.9854
G01 X2.0135 Y3.8349
G01 X2.0060 Y3.6830
G01 X2.0135 Y3.5311
G01 X2.0358 Y3.3806
G01 X2.0727 Y3.2331
G01 X2.1240 Y3.0898
G01 X2.1890 Y2.9523
G01 X2.2672 Y2.8219
G01 X2.3578 Y2.6997
G01 X2.4600 Y2.5870
G01 X2.5727 Y2.4848
G01 X2.6949 Y2.3942
G01 X2.8253 Y2.3160
G01 X2.9628 Y2.2510
G01 X3.1061 Y2.1997
G01 X3.2536 Y2.1628
G01 X3.4041 Y2.1405
G01 X3.5560 Y2.1330
G01 X3.7079 Y2.1405
G01 X3.8584 Y2.1628
G01 X4.0059 Y2.1997
G01 X4.1492 Y2.2510
G01 X4.2867 Y2.3160
G01 X4.4171 Y2.3942
G01 X4.5393 Y2.4848
G01 X4.6520 Y2.5870
G01 X4.7542 Y2.6997
G01 X4.8448 Y2.8219
G01 X4.9230 Y2.9523
G01 X4.9880 Y3.0898
G01 X5.0393 Y3.2331
G01 X5.0762 Y3.3806
G01 X5.0982 Y3.5286
G00 Z2.0000
G00 X3.3639 Y5.6330
G01 F60.00
G01 Z0.0000
G01 F120.00
G01 X2.9872 Y5.5580
G01 X2.6324 Y5.4111
G01 X2.3130 Y5.1977
G01 X2.0413 Y4.9260
G01 X1.8279 Y4.6067
G01 X1.6810 Y4.2518
G01 X1.6060 Y3.8751
G01 X1.6060 Y3.4909
G01 X1.6810 Y3.1142
G01 X1.8279 Y2.7594
G01 X2.0413 Y2.4400
G01 X2.3130 Y2.1683
G01 X2.6324 Y1.9549
G01 X2.9872 Y1.8080
G01 X3.3639 Y1.7330
G01 X3.7481 Y1.7330
G01 X4.1248 Y1.8080
G01 X4.4797 Y1.9549
G01 X4.7990 Y2.1683
G01 X5.0707 Y2.4400
G01 X5.2841 Y2.7594
G01 X5.4310 Y3.1142
G01 X5.5060 Y3.4909
G01 X5.5060 Y3.8751
G01 X5.4310 Y4.2518
G01 X5.2841 Y4.6067
G01 X5.0707 Y4.9260
G01 X4.7990 Y5.1977
G01 X4.4797 Y5.4111
G01 X4.1248 Y5.5580
G01 X3.7481 Y5.6330
G01 X3.3639 Y5.6330
G00 Z2.0000
G00 X11.2399 Y14.8805
G01 F60.00
G01 Z0.0000
G01 F120.00
G01 X11.2437 Y14.8837
G01 X11.2480 Y14.8882
G01 X11.2509 Y14.8922
G01 X11.2541 Y14.8975
G01 X11.2561 Y14.9020
G01 X11.2580 Y14.9079
G01 X11.2591 Y14.9140
G01 X11.2595 Y14.9202
G01 X11.2594 Y17.9187
G01 X11.2585 Y17.9260
G01 X11.2570 Y17.9319
G01 X11.2547 Y17.9376
G01 X11.2517 Y17.9429
G01 X11.2482 Y17.9479
G01 X11.2440 Y17.9524
G01 X11.2393 Y17.9564
G01 X11.2341 Y17.9597
G01 X11.2286 Y17.9624
G01 X11.1102 Y18.0114
G01 X11.1044 Y18.0133
G01 X11.0995 Y18.0143
G01 X11.0897 Y18.0147
G01 X11.0801 Y18.0133
G01 X11.0719 Y18.0105
G01 X11.0644 Y18.0064
G01 X11.0568 Y18.0002
G01 X10.5983 Y17.5416
G01 X10.5936 Y17.5359
G01 X10.5893 Y17.5285
G01 X10.5867 Y17.5216
G01 X10.5850 Y17.5144
G01 X10.5845 Y17.5071
G01 X10.5845 Y14.6658
G01 X10.5852 Y14.6574
G01 X10.5874 Y14.6491
G01 X10.5903 Y14.6425
G01 X10.5941 Y14.6363
G01 X10.6809 Y14.5233
G01 X10.6851 Y14.5187
G01 X10.6889 Y14.5154
G01 X10.6930 Y14.5125
G01 X10.6984 Y14.5095
G01 X10.7054 Y14.5068
G01 X10.7409 Y14.4962
G01 X10.7480 Y14.4948
G01 X10.7541 Y14.4944
G01 X10.8408 Y14.4946
G01 X10.8491 Y14.4962
G01 X10.8870 Y14.5076
G01 X10.8927 Y14.5100
G01 X10.8991 Y14.5139
G01 X10.9040 Y14.5178
G01 X10.9091 Y14.5233
G01 X11.1022 Y14.7748
G01 X11.2399 Y14.8805
G00 Z2.0000
G00 X11.6687 Y14.7524
G01 F60.00
G01 Z0.0000
G01 F120.00
G01 X11.6384 Y14.7114
G01 X11.6069 Y14.6587
G01 X11.5968 Y14.6377
G01 X11.5372 Y14.6019
G01 X11.4623 Y14.5464
G01 X11.3932 Y14.4838
G01 X11.3299 Y14.4137
G01 X11.2751 Y14.3398
G01 X11.2272 Y14.2598
G01 X11.1873 Y14.1755
G01 X11.1559 Y14.0878
G01 X11.1328 Y13.9949
G01 X11.1196 Y13.9051
G01 X11.1150 Y13.8132
G01 X11.1150 Y13.1108
G01 X11.1196 Y13.0189
G01 X11.1335 Y12.9255
G01 X11.1559 Y12.8362
G01 X11.1873 Y12.7485
G01 X11.2272 Y12.6642
G01 X11.2751 Y12.5842
G01 X11.3306 Y12.5093
G01 X11.3932 Y12.4402
G01 X11.4623 Y12.3776
G01 X11.5372 Y12.3221
G01 X11.6172 Y12.2742
G01 X11.7015 Y12.2343
G01 X11.7892 Y12.2029
G01 X11.8797 Y12.1803
G01 X11.9719 Y12.1666
G01 X12.0650 Y12.1620
G01 X12.1581 Y12.1666
G01 X12.2515 Y12.1805
G01 X12.3408 Y12.2029
G01 X12.4285 Y12.2343
G01 X12.5128 Y12.2742
G01 X12.5907 Y12.3208
G01 X12.6695 Y12.3792
G01 X12.7368 Y12.4402
G01 X12.7994 Y12.5093
G01 X12.8549 Y12.5842
G01 X12.9016 Y12.6620
G01 X12.9436 Y12.7507
G01 X12.9741 Y12.8362
G01 X12.9967 Y12.9267
G01 X13.0104 Y13.0189
G01 X13.0150 Y13.1108
G01 X13.0150 Y13.8120
G01 X13.0104 Y13.9051
G01 X12.9967 Y13.9973
G01 X12.9744 Y14.0866
G01 X12.9427 Y14.1755
G01 X12.9157 Y14.2327
G01 X12.9207 Y14.2437
G01 X12.9413 Y14.3015
G01 X12.9568 Y14.3634
G01 X12.9662 Y14.4266
G01 X12.9693 Y14.4903
G01 X12.9693 Y61.8313
G01 X14.1055 Y62.9675
G01 X14.1167 Y62.9624
G01 X14.2046 Y62.9313
G01 X14.2927 Y62.9093
G01 X14.3849 Y62.8956
G01 X14.4780 Y62.8910
G01 X14.5687 Y62.8954
G01 X14.6633 Y62.9093
G01 X14.7538 Y62.9319
G01 X14.8415 Y62.9633
G01 X14.9258 Y63.0032
G01 X15.0058 Y63.0511
G01 X15.0807 Y63.1066
G01 X15.1498 Y63.1692
G01 X15.2124 Y63.2383
G01 X15.2623 Y63.3055
G01 X15.9586 Y63.3055
G01 X16.0223 Y63.3086
G01 X16.0879 Y63.3185
G01 X16.1474 Y63.3335
G01 X16.2052 Y63.3541
G01 X16.2651 Y63.3823
G01 X16.3209 Y63.4158
G01 X16.3711 Y63.4531
G01 X16.4184 Y63.4960
G01 X18.1128 Y65.1904
G01 X18.1541 Y65.2358
G01 X18.1950 Y65.2910
G01 X18.2265 Y65.3437
G01 X18.2547 Y65.4036
G01 X18.2753 Y65.4614
G01 X18.2908 Y65.5233
G01 X18.3002 Y65.5865
G01 X18.3033 Y65.6490
G01 X18.3033 Y71.8820
G01 X18.3002 Y71.9457
G01 X18.2908 Y72.0089
G01 X18.2753 Y72.0708
G01 X18.2533 Y72.1320
G01 X18.2265 Y72.1885
G01 X18.1937 Y72.2433
G01 X18.1557 Y72.2945
G01 X18.1128 Y72.3418
G01 X14.2836 Y76.1710
G01 X14.2850 Y76.2012
G01 X14.2805 Y76.2919
G01 X14.2670 Y76.3841
G01 X14.2441 Y76.4758
G01 X14.2131 Y76.5624
G01 X14.1728 Y76.6478
G01 X14.1249 Y76.7278
G01 X14.0694 Y76.8027
G01 X14.0068 Y76.8718
G01 X13.9377 Y76.9344
G01 X13.8628 Y76.9899
G01 X13.7828 Y77.0378
G01 X13.6985 Y77.0777
G01 X13.6108 Y77.1091
G01 X13.5203 Y77.1317
G01 X13.4281 Y77.1454
G01 X13.3362 Y77.1500
G01 X13.2394 Y77.1451
G01 X13.1497 Y77.1317
G01 X13.0616 Y77.1097
G01 X12.9715 Y77.0777
G01 X12.8850 Y77.0366
G01 X12.8072 Y76.9899
G01 X12.7343 Y76.9359
G01 X12.6632 Y76.8718
G01 X12.5991 Y76.8007
G01 X12.5451 Y76.7278
G01 X12.4972 Y76.6478
G01 X12.4564 Y76.5613
G01 X12.4259 Y76.4758
G01 X12.4038 Y76.3877
G01 X12.3896 Y76.2931
G01 X12.3851 Y76.1975
G01 X12.3896 Y76.1069
G01 X12.4028 Y76.0171
G01 X12.4259 Y75.9242
G01 X12.4583 Y75.8342
G01 X12.4972 Y75.7522
G01 X12.5451 Y75.6722
G01 X12.6022 Y75.5955
G01 X12.6632 Y75.5282
G01 X12.7305 Y75.4672
G01 X12.8072 Y75.4101
G01 X12.8883 Y75.3616
G01 X12.9715 Y75.3223
G01 X13.0569 Y75.2917
G01 X13.1485 Y75.2685
G01 X13.2431 Y75.2545
G01 X13.3338 Y75.2500
G01 X13.3640 Y75.2514
G01 X17.0027 Y71.6126
G01 X17.0027 Y65.9196
G01 X15.6892 Y64.6061
G01 X15.0393 Y64.6061
G01 X15.0048 Y64.6316
G01 X14.9247 Y64.6794
G01 X14.8415 Y64.7187
G01 X14.7549 Y64.7497
G01 X14.6609 Y64.7732
G01 X14.5711 Y64.7864
G01 X14.4792 Y64.7910
G01 X14.3824 Y64.7861
G01 X14.2927 Y64.7727
G01 X14.2022 Y64.7501
G01 X14.1145 Y64.7187
G01 X14.0324 Y64.6799
G01 X13.9492 Y64.6302
G01 X13.8753 Y64.5754
G01 X13.8062 Y64.5128
G01 X13.7436 Y64.4437
G01 X13.6888 Y64.3698
G01 X13.6402 Y64.2888
G01 X13.6008 Y64.2057
G01 X13.5693 Y64.1179
G01 X13.5601 Y64.0819
G01 X13.5302 Y64.0774
G01 X13.4706 Y64.0624
G01 X13.4082 Y64.0401
G01 X13.3517 Y64.0133
G01 X13.2990 Y63.9818
G01 X13.2438 Y63.9409
G01 X13.1984 Y63.8996
G01 X11.8575 Y62.5588
G01 X11.8163 Y62.5132
G01 X11.7783 Y62.4620
G01 X11.7455 Y62.4073
G01 X11.7192 Y62.3518
G01 X11.6960 Y62.2871
G01 X11.6812 Y62.2276
G01 X11.6718 Y62.1645
G01 X11.6687 Y62.1007
G01 X11.6687 Y14.7524
G00 Z2.0000
G00 X13.8374 Y14.3699
G01 F60.00
G01 Z0.0000
G01 F120.00
G01 X13.8144 Y14.3388
G01 X13.7666 Y14.2587
G01 X13.7273 Y14.1755
G01 X13.6963 Y14.0889
G01 X13.6728 Y13.9949
G01 X13.6596 Y13.9051
G01 X13.6550 Y13.8132
G01 X13.6550 Y13.1120
G01 X13.6597 Y13.0177
G01 X13.6733 Y12.9267
G01 X13.6967 Y12.8339
G01 X13.7273 Y12.7485
G01 X13.7661 Y12.6664
G01 X13.8144 Y12.5852
G01 X13.8706 Y12.5093
G01 X13.9332 Y12.4402
G01 X14.0023 Y12.3776
G01 X14.0772 Y12.3221
G01 X14.1572 Y12.2742
G01 X14.2415 Y12.2343
G01 X14.3292 Y12.2029
G01 X14.4197 Y12.1803
G01 X14.5119 Y12.1666
G01 X14.6050 Y12.1620
G01 X14.6981 Y12.1666
G01 X14.7903 Y12.1803
G01 X14.8808 Y12.2029
G01 X14.9685 Y12.2343
G01 X15.0528 Y12.2742
G01 X15.1318 Y12.3214
G01 X15.2077 Y12.3776
G01 X15.2768 Y12.4402
G01 X15.3394 Y12.5093
G01 X15.3935 Y12.5822
G01 X15.4439 Y12.6664
G01 X15.4827 Y12.7485
G01 X15.5144 Y12.8374
G01 X15.5372 Y12.9291
G01 X15.5504 Y13.0189
G01 X15.5549 Y13.1095
G01 X15.5550 Y13.8120
G01 X15.5501 Y13.9076
G01 X15.5367 Y13.9973
G01 X15.5147 Y14.0854
G01 X15.4827 Y14.1755
G01 X15.4428 Y14.2598
G01 X15.3935 Y14.3418
G01 X15.3394 Y14.4147
G01 X15.2784 Y14.4820
G01 X15.2077 Y14.5464
G01 X15.1348 Y14.6005
G01 X15.1283 Y14.6047
G01 X15.1283 Y30.1697
G01 X15.1506 Y30.1901
G01 X15.2124 Y30.2583
G01 X15.2672 Y30.3322
G01 X15.2784 Y30.3506
G01 X15.2907 Y30.3539
G01 X15.3497 Y30.3750
G01 X15.4095 Y30.4035
G01 X15.4621 Y30.4351
G01 X15.5114 Y30.4716
G01 X15.5606 Y30.5160
G01 X15.6050 Y30.5652
G01 X15.6415 Y30.6145
G01 X15.6737 Y30.6682
G01 X15.7025 Y30.7292
G01 X15.7231 Y30.7870
G01 X15.7342 Y30.8310
G01 X22.8681 Y37.9649
G01 X22.9043 Y38.0049
G01 X22.9351 Y38.0463
G01 X22.9643 Y38.0946
G01 X22.9882 Y38.1457
G01 X23.0056 Y38.1943
G01 X23.0187 Y38.2467
G01 X23.0266 Y38.3001
G01 X23.0293 Y38.3540
G01 X23.0293 Y60.7321
G01 X34.0441 Y71.7469
G01 X34.0803 Y71.7869
G01 X34.1111 Y71.8283
G01 X34.1403 Y71.8766
G01 X34.1634 Y71.9254
G01 X34.1822 Y71.9786
G01 X34.1947 Y72.0287
G01 X34.2023 Y72.0796
G01 X34.2053 Y72.1360
G01 X34.2053 Y81.4219
G01 X34.2435 Y81.4569
G01 X34.2847 Y81.5025
G01 X34.3139 Y81.5417
G01 X36.0689 Y83.2967
G01 X40.3635 Y83.2967
G01 X40.3951 Y83.2779
G01 X40.4506 Y83.2517
G01 X40.5130 Y83.2294
G01 X40.5737 Y83.2142
G01 X40.6344 Y83.2051
G01 X40.6994 Y83.2017
G01 X43.0171 Y83.2017
G01 X43.0808 Y83.2048
G01 X43.1415 Y83.2138
G01 X43.2059 Y83.2297
G01 X43.2682 Y83.2522
G01 X43.3236 Y83.2785
G01 X43.3763 Y83.3100
G01 X43.4306 Y83.3501
G01 X43.4769 Y83.3922
G01 X44.2757 Y84.1909
G01 X44.3177 Y84.2374
G01 X44.3543 Y84.2866
G01 X44.3896 Y84.3455
G01 X44.4158 Y84.4010
G01 X44.4373 Y84.4611
G01 X44.4528 Y84.5230
G01 X44.4619 Y84.5837
G01 X44.4653 Y84.6499
G01 X44.4653 Y86.4870
G01 X44.4623 Y86.5495
G01 X44.4523 Y86.6163
G01 X44.4373 Y86.6758
G01 X44.4158 Y86.7359
G01 X44.3885 Y86.7935
G01 X44.3570 Y86.8462
G01 X44.3161 Y86.9014
G01 X44.2748 Y86.9468
G01 X27.6233 Y103.5984
G01 X27.6233 Y111.4126
G01 X29.6064 Y113.3957
G01 X41.3866 Y113.3957
G01 X43.2917 Y111.4906
G01 X43.2917 Y110.3216
G01 X43.2701 Y110.3112
G01 X43.1922 Y110.2646
G01 X43.1154 Y110.2076
G01 X43.0472 Y110.1458
G01 X42.9862 Y110.0785
G01 X42.9298 Y110.0028
G01 X42.8812 Y109.9218
G01 X42.8404 Y109.8353
G01 X42.8093 Y109.7474
G01 X42.7873 Y109.6593
G01 X42.7739 Y109.5696
G01 X42.7690 Y109.4740
G01 X42.7736 Y109.3809
G01 X42.7873 Y109.2887
G01 X42.8093 Y109.2006
G01 X42.8423 Y109.1082
G01 X42.8812 Y109.0262
G01 X42.9305 Y108.9442
G01 X42.9846 Y108.8713
G01 X43.0472 Y108.8022
G01 X43.1163 Y108.7396
G01 X43.1912 Y108.6841
G01 X43.2712 Y108.6362
G01 X43.3555 Y108.5963
G01 X43.4432 Y108.5649
G01 X43.5361 Y108.5418
G01 X43.6259 Y108.5286
G01 X43.7178 Y108.5240
G01 X44.4190 Y108.5240
G01 X44.5109 Y108.5285
G01 X44.6043 Y108.5423
G01 X44.6948 Y108.5649
G01 X44.7825 Y108.5963
G01 X44.8657 Y108.6356
G01 X44.9488 Y108.6855
G01 X45.0217 Y108.7396
G01 X45.0908 Y108.8022
G01 X45.1549 Y108.8733
G01 X45.2089 Y108.9462
G01 X45.2568 Y109.0262
G01 X45.2967 Y109.1105
G01 X45.3273 Y109.1959
G01 X45.3507 Y109.2887
G01 X45.3646 Y109.3833
G01 X45.3690 Y109.4740
G01 X45.3644 Y109.5671
G01 X45.3507 Y109.6593
G01 X45.3287 Y109.7474
G01 X45.2957 Y109.8398
G01 X45.2568 Y109.9218
G01 X45.2089 Y110.0018
G01 X45.1534 Y110.0767
G01 X45.0924 Y110.1440
G01 X45.0197 Y110.2099
G01 X44.9468 Y110.2639
G01 X44.8668 Y110.3118
G01 X44.7825 Y110.3517
G01 X44.6971 Y110.3823
G01 X44.6067 Y110.4052
G01 X44.5923 Y110.4076
G01 X44.5922 Y111.7625
G01 X44.5889 Y111.8262
G01 X44.5798 Y111.8869
G01 X44.5650 Y111.9464
G01 X44.5428 Y112.0089
G01 X44.5161 Y112.0655
G01 X44.4813 Y112.1233
G01 X44.4447 Y112.1725
G01 X44.4018 Y112.2198
G01 X42.1150 Y114.5067
G01 X42.0666 Y114.5502
G01 X42.0173 Y114.5867
G01 X41.9647 Y114.6183
G01 X41.9049 Y114.6468
G01 X41.8436 Y114.6686
G01 X41.7829 Y114.6838
G01 X41.7222 Y114.6929
G01 X41.6560 Y114.6963
G01 X29.3370 Y114.6963
G01 X29.2708 Y114.6929
G01 X29.2101 Y114.6838
G01 X29.1482 Y114.6683
G01 X29.0881 Y114.6468
G01 X29.0326 Y114.6206
G01 X28.9737 Y114.5853
G01 X28.9245 Y114.5487
G01 X28.8772 Y114.5058
G01 X26.5123 Y112.1410
G01 X26.4703 Y112.0945
G01 X26.4337 Y112.0453
G01 X26.3995 Y111.9885
G01 X26.3713 Y111.9286
G01 X26.3507 Y111.8708
G01 X26.3354 Y111.8101
G01 X26.3258 Y111.7457
G01 X26.3227 Y111.6820
G01 X26.3227 Y103.3278
G01 X26.3258 Y103.2653
G01 X26.3352 Y103.2021
G01 X26.3507 Y103.1402
G01 X26.3722 Y103.0801
G01 X26.3995 Y103.0225
G01 X26.4323 Y102.9677
G01 X26.4703 Y102.9165
G01 X26.5132 Y102.8692
G01 X43.1647 Y86.2176
G01 X43.1647 Y84.9193
G01 X42.7477 Y84.5023
G01 X40.9427 Y84.5023
G01 X40.9111 Y84.5211
G01 X40.8556 Y84.5473
G01 X40.7932 Y84.5696
G01 X40.7325 Y84.5848
G01 X40.6718 Y84.5939
G01 X40.6068 Y84.5973
G01 X37.3695 Y84.5973
G01 X37.7089 Y84.9368
G01 X37.7451 Y84.9769
G01 X37.7758 Y85.0183
G01 X37.7843 Y85.0321
G01 X37.8133 Y85.0337
G01 X37.9055 Y85.0475
G01 X37.9948 Y85.0699
G01 X38.0837 Y85.1018
G01 X38.1668 Y85.1412
G01 X38.2468 Y85.1891
G01 X38.3217 Y85.2446
G01 X38.3899 Y85.3064
G01 X38.4549 Y85.3783
G01 X38.5089 Y85.4512
G01 X38.5568 Y85.5312
G01 X38.5967 Y85.6155
G01 X38.6273 Y85.7009
G01 X38.6512 Y85.7961
G01 X38.6644 Y85.8859
G01 X38.6689 Y85.9815
G01 X38.6641 Y86.0746
G01 X38.6507 Y86.1643
G01 X38.6287 Y86.2524
G01 X38.5967 Y86.3425
G01 X38.5568 Y86.4268
G01 X38.5089 Y86.5068
G01 X38.4534 Y86.5817
G01 X38.3908 Y86.6508
G01 X38.3197 Y86.7149
G01 X38.2468 Y86.7689
G01 X38.1690 Y86.8156
G01 X38.0848 Y86.8557
G01 X37.9948 Y86.8881
G01 X37.9043 Y86.9107
G01 X37.8121 Y86.9244
G01 X37.7165 Y86.9289
G01 X37.6234 Y86.9241
G01 X37.5337 Y86.9107
G01 X37.4456 Y86.8887
G01 X37.3555 Y86.8567
G01 X37.2734 Y86.8179
G01 X37.1912 Y86.7689
G01 X37.1163 Y86.7134
G01 X37.0472 Y86.6508
G01 X36.9862 Y86.5835
G01 X36.9291 Y86.5068
G01 X36.8801 Y86.4246
G01 X36.8413 Y86.3425
G01 X36.8107 Y86.2571
G01 X36.7870 Y86.1631
G01 X36.7734 Y86.0697
G01 X36.7690 Y85.9790
G01 X36.7735 Y85.8871
G01 X36.7878 Y85.7913
G01 X36.8099 Y85.7032
G01 X36.8370 Y85.6274
G01 X36.8337 Y85.6219
G01 X36.8300 Y85.6142
G01 X35.7962 Y84.5804
G01 X35.7522 Y84.5693
G01 X35.6944 Y84.5487
G01 X35.6334 Y84.5199
G01 X35.5797 Y84.4877
G01 X35.5304 Y84.4512
G01 X35.4812 Y84.4068
G01 X35.4368 Y84.3576
G01 X35.4003 Y84.3083
G01 X35.3681 Y84.2546
G01 X35.3393 Y84.1936
G01 X35.3187 Y84.1358
G01 X35.3076 Y84.0918
G01 X33.9162 Y82.7004
G01 X33.4790 Y83.1377
G01 X33.4325 Y83.1797
G01 X33.3823 Y83.2170
G01 X33.3244 Y83.2516
G01 X33.2689 Y83.2778
G01 X33.2088 Y83.2993
G01 X33.1444 Y83.3152
G01 X33.0837 Y83.3242
G01 X33.0212 Y83.3273
G01 X13.7314 Y83.3273
G01 X11.3490 Y85.7097
G01 X12.6437 Y85.7097
G01 X12.6641 Y85.6874
G01 X12.7333 Y85.6249
G01 X12.8072 Y85.5701
G01 X12.8883 Y85.5216
G01 X12.9715 Y85.4823
G01 X13.0592 Y85.4509
G01 X13.1497 Y85.4283
G01 X13.2443 Y85.4144
G01 X13.3350 Y85.4100
G01 X13.4281 Y85.4146
G01 X13.5203 Y85.4283
G01 X13.6084 Y85.4503
G01 X13.7008 Y85.4833
G01 X13.7828 Y85.5222
G01 X13.8618 Y85.5694
G01 X13.9395 Y85.6272
G01 X14.0068 Y85.6882
G01 X14.0678 Y85.7555
G01 X14.1249 Y85.8322
G01 X14.1739 Y85.9144
G01 X14.2127 Y85.9965
G01 X14.2433 Y86.0819
G01 X14.2667 Y86.1747
G01 X14.2806 Y86.2693
G01 X14.2850 Y86.3600
G01 X14.2804 Y86.4531
G01 X14.2662 Y86.5477
G01 X14.2441 Y86.6358
G01 X14.2136 Y86.7213
G01 X14.1728 Y86.8078
G01 X14.1235 Y86.8898
G01 X14.0694 Y86.9627
G01 X14.0084 Y87.0300
G01 X13.9377 Y87.0944
G01 X13.8607 Y87.1512
G01 X13.7828 Y87.1978
G01 X13.7008 Y87.2367
G01 X13.6084 Y87.2697
G01 X13.5203 Y87.2917
G01 X13.4281 Y87.3054
G01 X13.3350 Y87.3100
G01 X13.2443 Y87.3056
G01 X13.1485 Y87.2915
G01 X13.0592 Y87.2691
G01 X12.9737 Y87.2386
G01 X12.8861 Y87.1972
G01 X12.8072 Y87.1499
G01 X12.7333 Y87.0951
G01 X12.6641 Y87.0326
G01 X12.6437 Y87.0103
G01 X8.3113 Y87.0103
G01 X8.2909 Y87.0326
G01 X8.2236 Y87.0936
G01 X8.1488 Y87.1492
G01 X8.0678 Y87.1978
G01 X7.9824 Y87.2381
G01 X7.8934 Y87.2697
G01 X7.8053 Y87.2917
G01 X7.7156 Y87.3051
G01 X7.6200 Y87.3100
G01 X7.5269 Y87.3054
G01 X7.4347 Y87.2917
G01 X7.3466 Y87.2697
G01 X7.2565 Y87.2377
G01 X7.1700 Y87.1966
G01 X7.0922 Y87.1499
G01 X7.0173 Y87.0944
G01 X6.9482 Y87.0318
G01 X6.8872 Y86.9645
G01 X6.8301 Y86.8878
G01 X6.7822 Y86.8078
G01 X6.7433 Y86.7258
G01 X6.7106 Y86.6346
G01 X6.6883 Y86.5453
G01 X6.6746 Y86.4531
G01 X6.6700 Y86.3600
G01 X6.6746 Y86.2669
G01 X6.6883 Y86.1747
G01 X6.7109 Y86.0842
G01 X6.7423 Y85.9965
G01 X6.7822 Y85.9122
G01 X6.8301 Y85.8322
G01 X6.8856 Y85.7573
G01 X6.9482 Y85.6882
G01 X7.0173 Y85.6256
G01 X7.0922 Y85.5701
G01 X7.1722 Y85.5222
G01 X7.2565 Y85.4823
G01 X7.3431 Y85.4513
G01 X7.4371 Y85.4278
G01 X7.5269 Y85.4146
G01 X7.6200 Y85.4100
G01 X7.7156 Y85.4149
G01 X7.8053 Y85.4283
G01 X7.8946 Y85.4506
G01 X7.9858 Y85.4833
G01 X8.0678 Y85.5222
G01 X8.1468 Y85.5694
G01 X8.2236 Y85.6264
G01 X8.2909 Y85.6874
G01 X8.3113 Y85.7097
G01 X9.5096 Y85.7097
G01 X13.0030 Y82.2163
G01 X13.0495 Y82.1743
G01 X13.0987 Y82.1377
G01 X13.1555 Y82.1035
G01 X13.2154 Y82.0753
G01 X13.2732 Y82.0547
G01 X13.3351 Y82.0392
G01 X13.3983 Y82.0298
G01 X13.4620 Y82.0267
G01 X32.7506 Y82.0267
G01 X33.1047 Y81.6726
G01 X33.1047 Y72.3639
G01 X22.0899 Y61.3491
G01 X22.0521 Y61.3071
G01 X22.0215 Y61.2657
G01 X21.9949 Y61.2215
G01 X21.9706 Y61.1706
G01 X21.9521 Y61.1186
G01 X21.9393 Y61.0673
G01 X21.9317 Y61.0164
G01 X21.9287 Y60.9600
G01 X21.9287 Y38.5819
G01 X15.0008 Y31.6540
G01 X14.9258 Y31.6988
G01 X14.8438 Y31.7377
G01 X14.7561 Y31.7693
G01 X14.6633 Y31.7927
G01 X14.5711 Y31.8064
G01 X14.4780 Y31.8110
G01 X14.3824 Y31.8061
G01 X14.2927 Y31.7927
G01 X14.2046 Y31.7707
G01 X14.1167 Y31.7396
G01 X14.0302 Y31.6988
G01 X13.9502 Y31.6509
G01 X13.8753 Y31.5954
G01 X13.8046 Y31.5310
G01 X13.7421 Y31.4617
G01 X13.6881 Y31.3888
G01 X13.6414 Y31.3110
G01 X13.6003 Y31.2245
G01 X13.5693 Y31.1379
G01 X13.5458 Y31.0439
G01 X13.5326 Y30.9541
G01 X13.5280 Y30.8610
G01 X13.5329 Y30.7654
G01 X13.5463 Y30.6757
G01 X13.5686 Y30.5864
G01 X13.6013 Y30.4952
G01 X13.6402 Y30.4132
G01 X13.6874 Y30.3342
G01 X13.7444 Y30.2574
G01 X13.8054 Y30.1901
G01 X13.8277 Y30.1697
G01 X13.8277 Y14.4780
G01 X13.8308 Y14.4143
G01 X13.8374 Y14.3699
G00 Z2.0000
G00 X9.5595 Y23.0975
G01 F60.00
G01 Z0.0000
G01 F120.00
G01 X9.5588 Y23.1060
G01 X9.5570 Y23.1132
G01 X9.5542 Y23.1200
G01 X9.5497 Y23.1273
G01 X9.5440 Y23.1337
G01 X9.5383 Y23.1384
G01 X9.5320 Y23.1422
G01 X9.5240 Y23.1453
G01 X9.3874 Y23.1726
G01 X9.3776 Y23.1726
G01 X9.3680 Y23.1706
G01 X9.3589 Y23.1669
G01 X9.3508 Y23.1614
G01 X9.3471 Y23.1581
G01 X9.3431 Y23.1535
G01 X9.3402 Y23.1495
G01 X9.3373 Y23.1442
G01 X9.3002 Y23.0546
G01 X9.1398 Y22.8145
G01 X8.9501 Y22.6249
G01 X8.9447 Y22.6182
G01 X8.9411 Y22.6118
G01 X8.9381 Y22.6037
G01 X8.9367 Y22.5965
G01 X8.9363 Y22.5904
G01 X8.9363 Y19.4371
G01 X8.8998 Y19.1597
G01 X8.8963 Y19.1514
G01 X8.8945 Y19.1455
G01 X8.8932 Y19.1383
G01 X8.8930 Y19.1321
G01 X8.8934 Y19.1273
G01 X8.8945 Y19.1212
G01 X8.8964 Y19.1154
G01 X8.8983 Y19.1109
G01 X8.9014 Y19.1056
G01 X8.9044 Y19.1017
G01 X8.9085 Y19.0972
G01 X8.9123 Y19.0940
G01 X9.0240 Y19.0192
G01 X9.0293 Y19.0163
G01 X9.0339 Y19.0144
G01 X9.0398 Y19.0127
G01 X9.0446 Y19.0119
G01 X9.0507 Y19.0115
G01 X9.0556 Y19.0117
G01 X9.0605 Y19.0125
G01 X9.0664 Y19.0140
G01 X9.0721 Y19.0163
G01 X9.0775 Y19.0193
G01 X9.0815 Y19.0221
G01 X9.0861 Y19.0261
G01 X9.5457 Y19.4858
G01 X9.5511 Y19.4925
G01 X9.5547 Y19.4989
G01 X9.5577 Y19.5070
G01 X9.5591 Y19.5142
G01 X9.5595 Y19.5203
G01 X9.5595 Y23.0975
G00 Z2.0000
G00 X8.5271 Y22.8229
G01 F60.00
G01 Z0.0000
G01 F120.00
G01 X8.5932 Y22.8627
G01 X8.6773 Y22.9250
G01 X8.7548 Y22.9952
G01 X8.8258 Y23.0737
G01 X8.8873 Y23.1568
G01 X8.9411 Y23.2465
G01 X8.9859 Y23.3411
G01 X9.0214 Y23.4407
G01 X9.0465 Y23.5410
G01 X9.0619 Y23.6445
G01 X9.0670 Y23.7490
G01 X9.0619 Y23.8535
G01 X9.0465 Y23.9570
G01 X9.0211 Y24.0584
G01 X8.9859 Y24.1569
G01 X8.9405 Y24.2526
G01 X8.8873 Y24.3412
G01 X8.8250 Y24.4253
G01 X8.7548 Y24.5028
G01 X8.6773 Y24.5730
G01 X8.5932 Y24.6353
G01 X8.5035 Y24.6891
G01 X8.4089 Y24.7339
G01 X8.3104 Y24.7691
G01 X8.2090 Y24.7945
G01 X8.1055 Y24.8099
G01 X8.0010 Y24.8150
G01 X7.8965 Y24.8099
G01 X7.7930 Y24.7945
G01 X7.6916 Y24.7691
G01 X7.5931 Y24.7339
G01 X7.4974 Y24.6885
G01 X7.4068 Y24.6339
G01 X7.3247 Y24.5730
G01 X7.2490 Y24.5045
G01 X7.1770 Y24.4253
G01 X7.1147 Y24.3412
G01 X7.0598 Y24.2493
G01 X7.0161 Y24.1569
G01 X6.9817 Y24.0608
G01 X6.9555 Y23.9570
G01 X6.9400 Y23.8510
G01 X6.9350 Y23.7490
G01 X6.9401 Y23.6445
G01 X6.9555 Y23.5410
G01 X6.9813 Y23.4384
G01 X7.0161 Y23.3411
G01 X7.0621 Y23.2444
G01 X7.1161 Y23.1548
G01 X7.1770 Y23.0727
G01 X7.2265 Y23.0180
G01 X7.2265 Y19.7032
G01 X2.5882 Y15.0648
G01 X2.5438 Y15.0156
G01 X2.5073 Y14.9663
G01 X2.4757 Y14.9137
G01 X2.4472 Y14.8539
G01 X2.4254 Y14.7926
G01 X2.4102 Y14.7319
G01 X2.4011 Y14.6712
G01 X2.3977 Y14.6050
G01 X2.3977 Y10.0330
G01 X2.4011 Y9.9668
G01 X2.4102 Y9.9061
G01 X2.4257 Y9.8442
G01 X2.4472 Y9.7841
G01 X2.4757 Y9.7243
G01 X2.5073 Y9.6717
G01 X2.5438 Y9.6224
G01 X2.5873 Y9.5740
G01 X4.2392 Y7.9222
G01 X4.2884 Y7.8778
G01 X4.3377 Y7.8413
G01 X4.3903 Y7.8097
G01 X4.4501 Y7.7812
G01 X4.5114 Y7.7594
G01 X4.5721 Y7.7442
G01 X4.6328 Y7.7351
G01 X4.6990 Y7.7317
G01 X43.6880 Y7.7317
G01 X43.7530 Y7.7350
G01 X43.8149 Y7.7442
G01 X43.8744 Y7.7590
G01 X43.9391 Y7.7822
G01 X43.9945 Y7.8085
G01 X44.0493 Y7.8413
G01 X44.1005 Y7.8793
G01 X44.1461 Y7.9205
G01 X45.2917 Y9.0660
G01 X45.3337 Y9.1125
G01 X45.3717 Y9.1637
G01 X45.4045 Y9.2185
G01 X45.4318 Y9.2761
G01 X45.4533 Y9.3362
G01 X45.4688 Y9.3981
G01 X45.4782 Y9.4613
G01 X45.4813 Y9.5238
G01 X45.4813 Y12.3193
G01 X45.4878 Y12.3235
G01 X45.5625 Y12.3792
G01 X45.6298 Y12.4402
G01 X45.6931 Y12.5103
G01 X45.7479 Y12.5842
G01 X45.7958 Y12.6642
G01 X45.8357 Y12.7485
G01 X45.8584 Y12.8117
G01 X46.5976 Y12.8117
G01 X46.6203 Y12.7485
G01 X46.6602 Y12.6642
G01 X46.7081 Y12.5842
G01 X46.7621 Y12.5113
G01 X46.8280 Y12.4386
G01 X46.8953 Y12.3776
G01 X46.9692 Y12.3228
G01 X47.0524 Y12.2731
G01 X47.1345 Y12.2343
G01 X47.2222 Y12.2029
G01 X47.3127 Y12.1803
G01 X47.4024 Y12.1669
G01 X47.5005 Y12.1621
G01 X47.5911 Y12.1666
G01 X47.6833 Y12.1803
G01 X47.7738 Y12.2029
G01 X47.8593 Y12.2334
G01 X47.9480 Y12.2754
G01 X48.0258 Y12.3221
G01 X48.1007 Y12.3776
G01 X48.1698 Y12.4402
G01 X48.2308 Y12.5075
G01 X48.2892 Y12.5863
G01 X48.3358 Y12.6642
G01 X48.3757 Y12.7485
G01 X48.4071 Y12.8362
G01 X48.4292 Y12.9243
G01 X48.4434 Y13.0189
G01 X48.4480 Y13.1108
G01 X48.4480 Y13.8132
G01 X48.4434 Y13.9051
G01 X48.4302 Y13.9949
G01 X48.4067 Y14.0889
G01 X48.3757 Y14.1755
G01 X48.3346 Y14.2620
G01 X48.2879 Y14.3398
G01 X48.2339 Y14.4127
G01 X48.1714 Y14.4820
G01 X48.1007 Y14.5464
G01 X48.0258 Y14.6019
G01 X47.9458 Y14.6498
G01 X47.8604 Y14.6901
G01 X47.7738 Y14.7211
G01 X47.6833 Y14.7437
G01 X47.5911 Y14.7574
G01 X47.4980 Y14.7620
G01 X47.4049 Y14.7574
G01 X47.3127 Y14.7437
G01 X47.2222 Y14.7211
G01 X47.1333 Y14.6892
G01 X47.0502 Y14.6498
G01 X46.9702 Y14.6019
G01 X46.8953 Y14.5464
G01 X46.8246 Y14.4820
G01 X46.7636 Y14.4147
G01 X46.7068 Y14.3377
G01 X46.6591 Y14.2576
G01 X46.6203 Y14.1755
G01 X46.5976 Y14.1123
G01 X45.8584 Y14.1123
G01 X45.8357 Y14.1755
G01 X45.7969 Y14.2576
G01 X45.7479 Y14.3398
G01 X45.6908 Y14.4165
G01 X45.6298 Y14.4838
G01 X45.5616 Y14.5456
G01 X45.4858 Y14.6019
G01 X45.4036 Y14.6509
G01 X45.3215 Y14.6897
G01 X45.2361 Y14.7203
G01 X45.1433 Y14.7437
G01 X45.0511 Y14.7574
G01 X44.9580 Y14.7620
G01 X44.8649 Y14.7574
G01 X44.7703 Y14.7432
G01 X44.6799 Y14.7203
G01 X44.5945 Y14.6897
G01 X44.5124 Y14.6509
G01 X44.4302 Y14.6019
G01 X44.3563 Y14.5471
G01 X44.2862 Y14.4838
G01 X44.2236 Y14.4147
G01 X44.1681 Y14.3398
G01 X44.1191 Y14.2576
G01 X44.0803 Y14.1755
G01 X44.0497 Y14.0901
G01 X44.0268 Y13.9997
G01 X44.0126 Y13.9051
G01 X44.0081 Y13.8145
G01 X44.0080 Y13.1120
G01 X44.0129 Y13.0164
G01 X44.0263 Y12.9267
G01 X44.0483 Y12.8386
G01 X44.0799 Y12.7496
G01 X44.1208 Y12.6631
G01 X44.1674 Y12.5852
G01 X44.1807 Y12.5671
G01 X44.1807 Y9.7944
G01 X43.4186 Y9.0323
G01 X4.9684 Y9.0323
G01 X3.6983 Y10.3024
G01 X3.6983 Y14.3356
G01 X8.3366 Y18.9740
G01 X8.3810 Y19.0232
G01 X8.4175 Y19.0725
G01 X8.4497 Y19.1262
G01 X8.4776 Y19.1849
G01 X8.4998 Y19.2474
G01 X8.5146 Y19.3069
G01 X8.5237 Y19.3676
G01 X8.5271 Y19.4326
G01 X8.5271 Y22.8229
G00 Z2.0000
G00 X15.2623 Y35.3655
G01 F60.00
G01 Z0.0000
G01 F120.00
G01 X15.9498 Y35.3655
G01 X16.0148 Y35.3688
G01 X16.0767 Y35.3780
G01 X16.1362 Y35.3928
G01 X16.1987 Y35.4150
G01 X16.2585 Y35.4435
G01 X16.3111 Y35.4751
G01 X16.3604 Y35.5116
G01 X16.4096 Y35.5560
G01 X18.1128 Y37.2592
G01 X18.1541 Y37.3046
G01 X18.1950 Y37.3598
G01 X18.2265 Y37.4125
G01 X18.2538 Y37.4701
G01 X18.2753 Y37.5302
G01 X18.2903 Y37.5897
G01 X18.3002 Y37.6553
G01 X18.3033 Y37.7190
G01 X18.3033 Y62.9766
G01 X30.3240 Y74.9974
G01 X30.3542 Y74.9960
G01 X30.4449 Y75.0005
G01 X30.5371 Y75.0140
G01 X30.6288 Y75.0369
G01 X30.7177 Y75.0688
G01 X30.8008 Y75.1082
G01 X30.8828 Y75.1575
G01 X30.9575 Y75.2132
G01 X31.0248 Y75.2742
G01 X31.0858 Y75.3415
G01 X31.1429 Y75.4182
G01 X31.1919 Y75.5004
G01 X31.2307 Y75.5825
G01 X31.2613 Y75.6679
G01 X31.2842 Y75.7583
G01 X31.2984 Y75.8529
G01 X31.3030 Y75.9460
G01 X31.2984 Y76.0391
G01 X31.2842 Y76.1337
G01 X31.2613 Y76.2241
G01 X31.2307 Y76.3095
G01 X31.1919 Y76.3916
G01 X31.1429 Y76.4738
G01 X31.0874 Y76.5487
G01 X31.0230 Y76.6194
G01 X30.9557 Y76.6804
G01 X30.8828 Y76.7345
G01 X30.8008 Y76.7838
G01 X30.7154 Y76.8241
G01 X30.6288 Y76.8551
G01 X30.5407 Y76.8772
G01 X30.4461 Y76.8914
G01 X30.3530 Y76.8960
G01 X30.2623 Y76.8916
G01 X30.1677 Y76.8777
G01 X30.0749 Y76.8543
G01 X29.9895 Y76.8237
G01 X29.9052 Y76.7838
G01 X29.8232 Y76.7345
G01 X29.7503 Y76.6804
G01 X29.6830 Y76.6194
G01 X29.6186 Y76.5487
G01 X29.5631 Y76.4738
G01 X29.5152 Y76.3938
G01 X29.4749 Y76.3084
G01 X29.4439 Y76.2218
G01 X29.4210 Y76.1301
G01 X29.4075 Y76.0379
G01 X29.4030 Y75.9472
G01 X29.4044 Y75.9170
G01 X25.6693 Y72.1820
G01 X25.6693 Y75.1275
G01 X25.6659 Y75.1925
G01 X25.6568 Y75.2532
G01 X25.6416 Y75.3139
G01 X25.6193 Y75.3763
G01 X25.5931 Y75.4318
G01 X25.5782 Y75.4569
G01 X25.6034 Y75.4993
G01 X25.6422 Y75.5813
G01 X25.6737 Y75.6691
G01 X25.6967 Y75.7607
G01 X25.7103 Y75.8517
G01 X25.7150 Y75.9460
G01 X25.7104 Y76.0391
G01 X25.6967 Y76.1313
G01 X25.6733 Y76.2241
G01 X25.6417 Y76.3118
G01 X25.6028 Y76.3938
G01 X25.5562 Y76.4717
G01 X25.4994 Y76.5487
G01 X25.4350 Y76.6194
G01 X25.3677 Y76.6804
G01 X25.2948 Y76.7345
G01 X25.2128 Y76.7838
G01 X25.1263 Y76.8246
G01 X25.0408 Y76.8551
G01 X24.9527 Y76.8772
G01 X24.8581 Y76.8914
G01 X24.7625 Y76.8959
G01 X24.6719 Y76.8914
G01 X24.5821 Y76.8782
G01 X24.4892 Y76.8551
G01 X24.4015 Y76.8237
G01 X24.3150 Y76.7826
G01 X24.2372 Y76.7359
G01 X24.1643 Y76.6819
G01 X24.0941 Y76.6186
G01 X24.0306 Y76.5487
G01 X23.9751 Y76.4738
G01 X23.9272 Y76.3938
G01 X23.8873 Y76.3095
G01 X23.8559 Y76.2218
G01 X23.8333 Y76.1313
G01 X23.8196 Y76.0391
G01 X23.8151 Y75.9435
G01 X23.8199 Y75.8504
G01 X23.8333 Y75.7607
G01 X23.8553 Y75.6726
G01 X23.8873 Y75.5825
G01 X23.9272 Y75.4982
G01 X23.9765 Y75.4162
G01 X24.0306 Y75.3433
G01 X24.0924 Y75.2751
G01 X24.1633 Y75.2109
G01 X24.2362 Y75.1568
G01 X24.2754 Y75.1332
G01 X24.2805 Y75.0991
G01 X24.2955 Y75.0396
G01 X24.3164 Y74.9806
G01 X24.3446 Y74.9207
G01 X24.3687 Y74.8803
G01 X24.3687 Y70.8814
G01 X17.1932 Y63.7058
G01 X17.1503 Y63.6585
G01 X17.1123 Y63.6073
G01 X17.0795 Y63.5525
G01 X17.0517 Y63.4937
G01 X17.0307 Y63.4348
G01 X17.0152 Y63.3729
G01 X17.0058 Y63.3097
G01 X17.0027 Y63.2460
G01 X17.0027 Y37.9884
G01 X15.6804 Y36.6661
G01 X15.0393 Y36.6661
G01 X15.0048 Y36.6916
G01 X14.9269 Y36.7382
G01 X14.8404 Y36.7791
G01 X14.7538 Y36.8101
G01 X14.6657 Y36.8322
G01 X14.5711 Y36.8464
G01 X14.4780 Y36.8510
G01 X14.3849 Y36.8464
G01 X14.2927 Y36.8327
G01 X14.2022 Y36.8101
G01 X14.1122 Y36.7777
G01 X14.0302 Y36.7388
G01 X13.9502 Y36.6909
G01 X13.8735 Y36.6338
G01 X13.8062 Y36.5728
G01 X13.7436 Y36.5037
G01 X13.6881 Y36.4288
G01 X13.6414 Y36.3510
G01 X13.6003 Y36.2645
G01 X13.5689 Y36.1768
G01 X13.5468 Y36.0887
G01 X13.5325 Y35.9929
G01 X13.5280 Y35.9010
G01 X13.5324 Y35.8103
G01 X13.5468 Y35.7133
G01 X13.5689 Y35.6252
G01 X13.6003 Y35.5375
G01 X13.6402 Y35.4532
G01 X13.6868 Y35.3753
G01 X13.7452 Y35.2965
G01 X13.8062 Y35.2292
G01 X13.8753 Y35.1666
G01 X13.9502 Y35.1111
G01 X14.0280 Y35.0644
G01 X14.1167 Y35.0224
G01 X14.2022 Y34.9919
G01 X14.2927 Y34.9693
G01 X14.3849 Y34.9556
G01 X14.4755 Y34.9511
G01 X14.5736 Y34.9559
G01 X14.6633 Y34.9693
G01 X14.7538 Y34.9919
G01 X14.8415 Y35.0233
G01 X14.9236 Y35.0621
G01 X15.0078 Y35.1125
G01 X15.0807 Y35.1666
G01 X15.1498 Y35.2292
G01 X15.2124 Y35.2983
G01 X15.2623 Y35.3655
G00 Z2.0000
G00 X17.8960 Y36.4637
G01 F60.00
G01 Z0.0000
G01 F120.00
G01 X18.3998 Y36.9675
G01 X18.5702 Y37.1894
G01 X18.6760 Y37.4448
G01 X18.7125 Y37.7223
G01 X18.7125 Y62.7864
G01 X18.7130 Y62.7937
G01 X18.7150 Y62.8021
G01 X18.7168 Y62.8067
G01 X18.7196 Y62.8121
G01 X18.7231 Y62.8172
G01 X18.7271 Y62.8218
G01 X30.4876 Y74.5822
G01 X30.4923 Y74.5862
G01 X30.4975 Y74.5895
G01 X30.5030 Y74.5922
G01 X30.5088 Y74.5942
G01 X30.5184 Y74.5959
G01 X30.5307 Y74.5960
G01 X30.8741 Y74.6880
G01 X31.1819 Y74.8657
G01 X31.4333 Y75.1171
G01 X31.6110 Y75.4249
G01 X31.7030 Y75.7683
G01 X31.7030 Y76.1237
G01 X31.6110 Y76.4671
G01 X31.4333 Y76.7749
G01 X31.1819 Y77.0263
G01 X30.8741 Y77.2040
G01 X30.5307 Y77.2960
G01 X30.1753 Y77.2960
G01 X29.8319 Y77.2040
G01 X29.5241 Y77.0263
G01 X29.2727 Y76.7749
G01 X29.0950 Y76.4671
G01 X29.0030 Y76.1237
G01 X29.0029 Y76.1114
G01 X29.0012 Y76.1018
G01 X28.9992 Y76.0960
G01 X28.9971 Y76.0915
G01 X28.9939 Y76.0863
G01 X28.9900 Y76.0815
G01 X26.2812 Y73.3725
G01 X26.2736 Y73.3663
G01 X26.2661 Y73.3622
G01 X26.2568 Y73.3591
G01 X26.2470 Y73.3579
G01 X26.2372 Y73.3586
G01 X26.2278 Y73.3613
G01 X26.1094 Y73.4103
G01 X26.1039 Y73.4130
G01 X26.0987 Y73.4163
G01 X26.0940 Y73.4203
G01 X26.0891 Y73.4257
G01 X26.0856 Y73.4308
G01 X26.0828 Y73.4362
G01 X26.0807 Y73.4420
G01 X26.0792 Y73.4480
G01 X26.0786 Y73.4540
G01 X26.0785 Y75.1230
G01 X26.0420 Y75.4004
G01 X26.0313 Y75.4266
G01 X26.0297 Y75.4337
G01 X26.0291 Y75.4422
G01 X26.0296 Y75.4483
G01 X26.0308 Y75.4542
G01 X26.1150 Y75.7683
G01 X26.1150 Y76.1237
G01 X26.0230 Y76.4671
G01 X25.8453 Y76.7749
G01 X25.5939 Y77.0263
G01 X25.2861 Y77.2040
G01 X24.9427 Y77.2960
G01 X24.5873 Y77.2960
G01 X24.2439 Y77.2040
G01 X23.9361 Y77.0263
G01 X23.6847 Y76.7749
G01 X23.5070 Y76.4671
G01 X23.4150 Y76.1237
G01 X23.4150 Y75.7683
G01 X23.5070 Y75.4249
G01 X23.6847 Y75.1171
G01 X23.9234 Y74.8783
G01 X23.9277 Y74.8724
G01 X23.9317 Y74.8647
G01 X23.9561 Y74.8057
G01 X23.9580 Y74.7999
G01 X23.9591 Y74.7938
G01 X23.9595 Y74.7877
G01 X23.9595 Y71.0716
G01 X23.9593 Y71.0667
G01 X23.9583 Y71.0606
G01 X23.9566 Y71.0548
G01 X23.9547 Y71.0502
G01 X23.9504 Y71.0428
G01 X23.9449 Y71.0362
G01 X18.9152 Y66.0065
G01 X18.9076 Y66.0003
G01 X18.8989 Y65.9957
G01 X18.8896 Y65.9929
G01 X18.8798 Y65.9919
G01 X18.8700 Y65.9929
G01 X18.8618 Y65.9953
G01 X18.7434 Y66.0443
G01 X18.7379 Y66.0470
G01 X18.7327 Y66.0503
G01 X18.7280 Y66.0543
G01 X18.7238 Y66.0588
G01 X18.7203 Y66.0638
G01 X18.7168 Y66.0702
G01 X18.7147 Y66.0760
G01 X18.7132 Y66.0820
G01 X18.7126 Y66.0880
G01 X18.7125 Y71.8787
G01 X18.6760 Y72.1561
G01 X18.5702 Y72.4115
G01 X18.3998 Y72.6335
G01 X14.6980 Y76.3355
G01 X14.6941 Y76.3403
G01 X14.6915 Y76.3445
G01 X14.6888 Y76.3500
G01 X14.6868 Y76.3558
G01 X14.6851 Y76.3654
G01 X14.6850 Y76.3777
G01 X14.5930 Y76.7211
G01 X14.4153 Y77.0289
G01 X14.1639 Y77.2803
G01 X13.8561 Y77.4580
G01 X13.5127 Y77.5500
G01 X13.1573 Y77.5500
G01 X12.8139 Y77.4580
G01 X12.5061 Y77.2803
G01 X12.2547 Y77.0289
G01 X12.0770 Y76.7211
G01 X11.9850 Y76.3777
G01 X11.9850 Y76.0223
G01 X12.0770 Y75.6789
G01 X12.2547 Y75.3711
G01 X12.5061 Y75.1197
G01 X12.8139 Y74.9420
G01 X13.1573 Y74.8500
G01 X13.1696 Y74.8499
G01 X13.1792 Y74.8482
G01 X13.1850 Y74.8462
G01 X13.1905 Y74.8435
G01 X13.1957 Y74.8402
G01 X13.1995 Y74.8370
G01 X16.5789 Y71.4578
G01 X16.5829 Y71.4532
G01 X16.5864 Y71.4481
G01 X16.5892 Y71.4427
G01 X16.5913 Y71.4369
G01 X16.5930 Y71.4297
G01 X16.5935 Y71.4224
G01 X16.5933 Y66.1048
G01 X16.5917 Y66.0964
G01 X16.5892 Y66.0894
G01 X16.5851 Y66.0819
G01 X16.5797 Y66.0752
G01 X16.0284 Y65.5238
G01 X16.0208 Y65.5177
G01 X16.0134 Y65.5135
G01 X16.0041 Y65.5105
G01 X15.9945 Y65.5092
G01 X15.9884 Y65.5094
G01 X15.9823 Y65.5103
G01 X15.9776 Y65.5116
G01 X15.9720 Y65.5138
G01 X15.8463 Y65.5761
G01 X15.8413 Y65.5797
G01 X15.8377 Y65.5829
G01 X15.8336 Y65.5874
G01 X15.8301 Y65.5924
G01 X15.8278 Y65.5967
G01 X15.8254 Y65.6023
G01 X15.8238 Y65.6082
G01 X15.8230 Y65.6130
G01 X15.8227 Y65.6179
G01 X15.8230 Y65.6240
G01 X15.8343 Y65.7093
G01 X15.8343 Y67.0527
G01 X15.8106 Y67.2322
G01 X15.7426 Y67.3964
G01 X15.6344 Y67.5374
G01 X15.4934 Y67.6456
G01 X15.3293 Y67.7136
G01 X15.1497 Y67.7372
G01 X13.8063 Y67.7372
G01 X13.6267 Y67.7136
G01 X13.4626 Y67.6456
G01 X13.3216 Y67.5374
G01 X13.2134 Y67.3964
G01 X13.1454 Y67.2323
G01 X13.1218 Y67.0527
G01 X13.1218 Y67.0329
G01 X13.1211 Y67.0256
G01 X13.1189 Y67.0173
G01 X13.1153 Y67.0095
G01 X13.1112 Y67.0033
G01 X13.1054 Y66.9971
G01 X13.0986 Y66.9919
G01 X13.0909 Y66.9879
G01 X12.8742 Y66.8981
G01 X12.6523 Y66.7278
G01 X11.9302 Y66.0057
G01 X11.9236 Y66.0002
G01 X11.9184 Y65.9970
G01 X11.9128 Y65.9944
G01 X11.9069 Y65.9926
G01 X11.9021 Y65.9916
G01 X11.8960 Y65.9911
G01 X11.8911 Y65.9912
G01 X11.8850 Y65.9921
G01 X11.8803 Y65.9933
G01 X11.7572 Y66.0440
G01 X11.7529 Y66.0462
G01 X11.7477 Y66.0495
G01 X11.7439 Y66.0527
G01 X11.7396 Y66.0570
G01 X11.7340 Y66.0651
G01 X11.7304 Y66.0729
G01 X11.7282 Y66.0812
G01 X11.7275 Y66.0897
G01 X11.7275 Y73.1487
G01 X11.6910 Y73.4260
G01 X11.5851 Y73.6815
G01 X11.4148 Y73.9035
G01 X8.9821 Y76.3364
G01 X8.9791 Y76.3403
G01 X8.9759 Y76.3455
G01 X8.9734 Y76.3511
G01 X8.9718 Y76.3558
G01 X8.9701 Y76.3654
G01 X8.9700 Y76.3777
G01 X8.8780 Y76.7211
G01 X8.7003 Y77.0289
G01 X8.4489 Y77.2803
G01 X8.1411 Y77.4580
G01 X7.7977 Y77.5500
G01 X7.4423 Y77.5500
G01 X7.0989 Y77.4580
G01 X6.7911 Y77.2803
G01 X6.5397 Y77.0289
G01 X6.3620 Y76.7211
G01 X6.2700 Y76.3777
G01 X6.2700 Y76.0223
G01 X6.3620 Y75.6789
G01 X6.5397 Y75.3711
G01 X6.7911 Y75.1197
G01 X7.0989 Y74.9420
G01 X7.4423 Y74.8500
G01 X7.4546 Y74.8499
G01 X7.4642 Y74.8482
G01 X7.4700 Y74.8462
G01 X7.4745 Y74.8441
G01 X7.4787 Y74.8416
G01 X7.4836 Y74.8379
G01 X9.5939 Y72.7278
G01 X9.5994 Y72.7212
G01 X9.6042 Y72.7127
G01 X9.6073 Y72.7034
G01 X9.6084 Y72.6949
G01 X9.6085 Y63.7644
G01 X9.6080 Y63.7571
G01 X9.6063 Y63.7499
G01 X9.5960 Y63.7243
G01 X9.5595 Y63.4469
G01 X9.5594 Y24.3968
G01 X9.5583 Y24.3895
G01 X9.5562 Y24.3825
G01 X9.5530 Y24.3759
G01 X9.5489 Y24.3697
G01 X9.5440 Y24.3643
G01 X9.5383 Y24.3596
G01 X9.5320 Y24.3558
G01 X9.5252 Y24.3530
G01 X9.5193 Y24.3515
G01 X9.3886 Y24.3256
G01 X9.3801 Y24.3253
G01 X9.3727 Y24.3262
G01 X9.3657 Y24.3281
G01 X9.3578 Y24.3317
G01 X9.3517 Y24.3358
G01 X9.3463 Y24.3407
G01 X9.3416 Y24.3464
G01 X9.3378 Y24.3527
G01 X9.3002 Y24.4434
G01 X9.1398 Y24.6835
G01 X8.9355 Y24.8877
G01 X8.6954 Y25.0482
G01 X8.4286 Y25.1586
G01 X8.1454 Y25.2150
G01 X7.8566 Y25.2150
G01 X7.5734 Y25.1586
G01 X7.3066 Y25.0482
G01 X7.0665 Y24.8877
G01 X6.8622 Y24.6835
G01 X6.7018 Y24.4434
G01 X6.5914 Y24.1766
G01 X6.5350 Y23.8934
G01 X6.5350 Y23.6046
G01 X6.5914 Y23.3214
G01 X6.7018 Y23.0546
G01 X6.8096 Y22.8934
G01 X6.8126 Y22.8880
G01 X6.8149 Y22.8823
G01 X6.8164 Y22.8764
G01 X6.8173 Y22.8703
G01 X6.8174 Y19.8934
G01 X6.8172 Y19.8885
G01 X6.8162 Y19.8824
G01 X6.8145 Y19.8766
G01 X6.8121 Y19.8709
G01 X6.8076 Y19.8636
G01 X6.8028 Y19.8580
G01 X2.3012 Y15.3565
G01 X2.1309 Y15.1345
G01 X2.0250 Y14.8790
G01 X1.9885 Y14.6017
G01 X1.9885 Y10.0363
G01 X2.0250 Y9.7589
G01 X2.1309 Y9.5034
G01 X2.3012 Y9.2815
G01 X3.9475 Y7.6352
G01 X4.1694 Y7.4649
G01 X4.4249 Y7.3590
G01 X4.7023 Y7.3225
G01 X43.6847 Y7.3225
G01 X43.9621 Y7.3590
G01 X44.2176 Y7.4649
G01 X44.4395 Y7.6352
G01 X45.5778 Y8.7735
G01 X45.7481 Y8.9955
G01 X45.8540 Y9.2509
G01 X45.8905 Y9.5283
G01 X45.8907 Y12.1061
G01 X45.8920 Y12.1134
G01 X45.8939 Y12.1193
G01 X45.8971 Y12.1260
G01 X45.9005 Y12.1312
G01 X45.9072 Y12.1385
G01 X45.9208 Y12.1491
G01 X46.1002 Y12.3829
G01 X46.1052 Y12.3885
G01 X46.1119 Y12.3939
G01 X46.1183 Y12.3976
G01 X46.1253 Y12.4003
G01 X46.1325 Y12.4019
G01 X46.1399 Y12.4025
G01 X46.3186 Y12.4024
G01 X46.3247 Y12.4018
G01 X46.3319 Y12.3999
G01 X46.3377 Y12.3976
G01 X46.3431 Y12.3946
G01 X46.3499 Y12.3893
G01 X46.3558 Y12.3829
G01 X46.5352 Y12.1492
G01 X46.8172 Y11.9328
G01 X47.1456 Y11.7967
G01 X47.4980 Y11.7503
G01 X47.8504 Y11.7967
G01 X48.1788 Y11.9328
G01 X48.4608 Y12.1492
G01 X48.6531 Y12.3998
G01 X48.6571 Y12.4044
G01 X48.6625 Y12.4092
G01 X48.6686 Y12.4131
G01 X48.6763 Y12.4166
G01 X48.7140 Y12.4279
G01 X48.7211 Y12.4292
G01 X48.7271 Y12.4296
G01 X48.8089 Y12.4296
G01 X48.8173 Y12.4289
G01 X48.8232 Y12.4275
G01 X48.8620 Y12.4157
G01 X48.8664 Y12.4137
G01 X48.8715 Y12.4106
G01 X48.8763 Y12.4069
G01 X48.8798 Y12.4035
G01 X49.0752 Y12.1492
G01 X49.3572 Y11.9328
G01 X49.6856 Y11.7967
G01 X50.0380 Y11.7503
G01 X50.3904 Y11.7967
G01 X50.7188 Y11.9328
G01 X51.0008 Y12.1492
G01 X51.2172 Y12.4312
G01 X51.3533 Y12.7596
G01 X51.4001 Y13.1153
G01 X51.4001 Y13.8087
G01 X51.3533 Y14.1644
G01 X51.2172 Y14.4928
G01 X51.1064 Y14.6373
G01 X51.1027 Y14.6436
G01 X51.1000 Y14.6503
G01 X51.0982 Y14.6574
G01 X51.0975 Y14.6646
G01 X51.0975 Y22.7157
G01 X51.0982 Y22.7230
G01 X51.1000 Y22.7302
G01 X51.1028 Y22.7370
G01 X51.1066 Y22.7433
G01 X51.1121 Y22.7499
G01 X51.1768 Y22.8145
G01 X51.3372 Y23.0546
G01 X51.4476 Y23.3214
G01 X51.5040 Y23.6046
G01 X51.5040 Y23.8934
G01 X51.4476 Y24.1766
G01 X51.3372 Y24.4434
G01 X51.1768 Y24.6835
G01 X50.9725 Y24.8877
G01 X50.9212 Y24.9220
G01 X50.9146 Y24.9276
G01 X50.9098 Y24.9331
G01 X50.9053 Y24.9404
G01 X50.9022 Y24.9484
G01 X50.9004 Y24.9568
G01 X50.9000 Y24.9629
G01 X50.9000 Y28.0832
G01 X50.9010 Y28.0918
G01 X50.9034 Y28.1000
G01 X50.9340 Y28.1739
G01 X50.9701 Y28.4480
G01 X50.9340 Y28.7221
G01 X50.8281 Y28.9775
G01 X50.6578 Y29.1995
G01 X48.6507 Y31.2066
G01 X48.6474 Y31.2103
G01 X48.6439 Y31.2153
G01 X48.6414 Y31.2195
G01 X48.6390 Y31.2252
G01 X48.6373 Y31.2310
G01 X48.6365 Y31.2359
G01 X48.6362 Y31.2457
G01 X48.6376 Y31.2541
G01 X48.6404 Y31.2623
G01 X48.6445 Y31.2698
G01 X48.6507 Y31.2774
G01 X52.8405 Y35.4670
G01 X52.8474 Y35.4722
G01 X52.8538 Y35.4757
G01 X52.8620 Y35.4785
G01 X52.8704 Y35.4799
G01 X53.0097 Y35.4800
G01 X53.3531 Y35.5720
G01 X53.6609 Y35.7497
G01 X53.9123 Y36.0011
G01 X54.0900 Y36.3089
G01 X54.1820 Y36.6523
G01 X54.1820 Y37.0077
G01 X54.0900 Y37.3511
G01 X53.9123 Y37.6589
G01 X53.6609 Y37.9103
G01 X53.3531 Y38.0880
G01 X53.0097 Y38.1800
G01 X52.6543 Y38.1800
G01 X52.3109 Y38.0880
G01 X52.0031 Y37.9103
G01 X51.7517 Y37.6589
G01 X51.5740 Y37.3511
G01 X51.5209 Y37.1529
G01 X51.5192 Y37.1482
G01 X51.5165 Y37.1425
G01 X51.5131 Y37.1373
G01 X51.5091 Y37.1325
G01 X46.5658 Y32.1891
G01 X46.5592 Y32.1836
G01 X46.5529 Y32.1798
G01 X46.5484 Y32.1779
G01 X46.5425 Y32.1760
G01 X46.5365 Y32.1749
G01 X46.5304 Y32.1745
G01 X41.3346 Y32.1745
G01 X41.0979 Y32.1433
G01 X41.0906 Y32.1429
G01 X41.0845 Y32.1434
G01 X41.0785 Y32.1446
G01 X40.8307 Y32.2110
G01 X40.4753 Y32.2110
G01 X40.1319 Y32.1190
G01 X39.8241 Y31.9413
G01 X39.5727 Y31.6899
G01 X39.3950 Y31.3821
G01 X39.3030 Y31.0387
G01 X39.3030 Y30.6833
G01 X39.3950 Y30.3399
G01 X39.5727 Y30.0321
G01 X39.8241 Y29.7807
G01 X40.1319 Y29.6030
G01 X40.4753 Y29.5110
G01 X40.8307 Y29.5110
G01 X41.1741 Y29.6030
G01 X41.4819 Y29.7807
G01 X41.7335 Y30.0323
G01 X41.7368 Y30.0369
G01 X41.7409 Y30.0414
G01 X41.7477 Y30.0469
G01 X41.7552 Y30.0511
G01 X41.7634 Y30.0540
G01 X41.7720 Y30.0554
G01 X46.7844 Y30.0555
G01 X46.7929 Y30.0548
G01 X46.8001 Y30.0530
G01 X46.8069 Y30.0502
G01 X46.8142 Y30.0457
G01 X46.8198 Y30.0409
G01 X48.7665 Y28.0943
G01 X48.7720 Y28.0877
G01 X48.7758 Y28.0814
G01 X48.7786 Y28.0746
G01 X48.7804 Y28.0674
G01 X48.7811 Y28.0589
G01 X48.7810 Y24.5192
G01 X48.7804 Y24.5131
G01 X48.7789 Y24.5072
G01 X48.7768 Y24.5014
G01 X48.7746 Y24.4970
G01 X48.7388 Y24.4434
G01 X48.6284 Y24.1766
G01 X48.5720 Y23.8934
G01 X48.5720 Y23.6046
G01 X48.6284 Y23.3214
G01 X48.7388 Y23.0546
G01 X48.8992 Y22.8145
G01 X48.9672 Y22.7462
G01 X48.9720 Y22.7391
G01 X48.9751 Y22.7325
G01 X48.9773 Y22.7255
G01 X48.9784 Y22.7170
G01 X48.9785 Y14.6658
G01 X48.9780 Y14.6586
G01 X48.9764 Y14.6515
G01 X48.9733 Y14.6436
G01 X48.9689 Y14.6363
G01 X48.8829 Y14.5243
G01 X48.8788 Y14.5195
G01 X48.8741 Y14.5154
G01 X48.8690 Y14.5119
G01 X48.8646 Y14.5095
G01 X48.8576 Y14.5068
G01 X48.8221 Y14.4962
G01 X48.8150 Y14.4948
G01 X48.8089 Y14.4944
G01 X48.7222 Y14.4946
G01 X48.7139 Y14.4962
G01 X48.6760 Y14.5076
G01 X48.6692 Y14.5106
G01 X48.6639 Y14.5139
G01 X48.6581 Y14.5187
G01 X48.6539 Y14.5233
G01 X48.4608 Y14.7748
G01 X48.1788 Y14.9912
G01 X47.8504 Y15.1273
G01 X47.4980 Y15.1737
G01 X47.1456 Y15.1273
G01 X46.8172 Y14.9912
G01 X46.5352 Y14.7748
G01 X46.3542 Y14.5391
G01 X46.3481 Y14.5330
G01 X46.3399 Y14.5275
G01 X46.3307 Y14.5237
G01 X46.3223 Y14.5219
G01 X46.3161 Y14.5215
G01 X46.1374 Y14.5216
G01 X46.1313 Y14.5222
G01 X46.1241 Y14.5241
G01 X46.1172 Y14.5269
G01 X46.1119 Y14.5301
G01 X46.1052 Y14.5355
G01 X46.1002 Y14.5411
G01 X45.9208 Y14.7748
G01 X45.6388 Y14.9912
G01 X45.3104 Y15.1273
G01 X44.9580 Y15.1737
G01 X44.6056 Y15.1273
G01 X44.2772 Y14.9912
G01 X43.9952 Y14.7748
G01 X43.7788 Y14.4928
G01 X43.6427 Y14.1644
G01 X43.5959 Y13.8087
G01 X43.5959 Y13.1153
G01 X43.6427 Y12.7596
G01 X43.7677 Y12.4579
G01 X43.7703 Y12.4498
G01 X43.7714 Y12.4413
G01 X43.7715 Y9.9846
G01 X43.7710 Y9.9773
G01 X43.7690 Y9.9689
G01 X43.7662 Y9.9621
G01 X43.7624 Y9.9558
G01 X43.7569 Y9.9492
G01 X43.2638 Y9.4561
G01 X43.2592 Y9.4521
G01 X43.2530 Y9.4480
G01 X43.2475 Y9.4453
G01 X43.2405 Y9.4430
G01 X43.2345 Y9.4419
G01 X43.2284 Y9.4415
G01 X5.1574 Y9.4415
G01 X5.1476 Y9.4427
G01 X5.1383 Y9.4458
G01 X5.1298 Y9.4506
G01 X5.1232 Y9.4561
G01 X4.1221 Y10.4572
G01 X4.1166 Y10.4638
G01 X4.1123 Y10.4712
G01 X4.1093 Y10.4793
G01 X4.1077 Y10.4877
G01 X4.1075 Y14.1454
G01 X4.1079 Y14.1515
G01 X4.1090 Y14.1575
G01 X4.1109 Y14.1634
G01 X4.1134 Y14.1690
G01 X4.1173 Y14.1752
G01 X4.1221 Y14.1808
G01 X8.3158 Y18.3745
G01 X8.3214 Y18.3793
G01 X8.3276 Y18.3832
G01 X8.3355 Y18.3866
G01 X8.3427 Y18.3884
G01 X8.3512 Y18.3891
G01 X8.3597 Y18.3884
G01 X8.3680 Y18.3862
G01 X8.3758 Y18.3826
G01 X8.4876 Y18.3081
G01 X8.4915 Y18.3051
G01 X8.4958 Y18.3008
G01 X8.4997 Y18.2960
G01 X8.5029 Y18.2908
G01 X8.5050 Y18.2863
G01 X8.5070 Y18.2805
G01 X8.5083 Y18.2746
G01 X8.5088 Y18.2684
G01 X8.5084 Y18.2611
G01 X8.5073 Y18.2551
G01 X8.5055 Y18.2492
G01 X8.5020 Y18.2409
G01 X8.4655 Y17.9634
G01 X8.4655 Y14.6646
G01 X8.4648 Y14.6574
G01 X8.4630 Y14.6503
G01 X8.4603 Y14.6436
G01 X8.4566 Y14.6373
G01 X8.3458 Y14.4928
G01 X8.2097 Y14.1644
G01 X8.1629 Y13.8087
G01 X8.1629 Y13.1153
G01 X8.2097 Y12.7596
G01 X8.3458 Y12.4312
G01 X8.5622 Y12.1492
G01 X8.8442 Y11.9328
G01 X9.1726 Y11.7967
G01 X9.5250 Y11.7503
G01 X9.8774 Y11.7967
G01 X10.2058 Y11.9328
G01 X10.4878 Y12.1492
G01 X10.6801 Y12.3998
G01 X10.6849 Y12.4052
G01 X10.6895 Y12.4092
G01 X10.6956 Y12.4131
G01 X10.7033 Y12.4166
G01 X10.7410 Y12.4279
G01 X10.7481 Y12.4292
G01 X10.7541 Y12.4296
G01 X10.8359 Y12.4296
G01 X10.8419 Y12.4292
G01 X10.8502 Y12.4275
G01 X10.8890 Y12.4157
G01 X10.8944 Y12.4131
G01 X10.8985 Y12.4106
G01 X10.9033 Y12.4069
G01 X10.9068 Y12.4035
G01 X11.1022 Y12.1492
G01 X11.3842 Y11.9328
G01 X11.7126 Y11.7967
G01 X12.0650 Y11.7503
G01 X12.4174 Y11.7967
G01 X12.7458 Y11.9328
G01 X13.0278 Y12.1492
G01 X13.2201 Y12.3998
G01 X13.2241 Y12.4044
G01 X13.2285 Y12.4084
G01 X13.2356 Y12.4131
G01 X13.2433 Y12.4166
G01 X13.2798 Y12.4275
G01 X13.2869 Y12.4291
G01 X13.2941 Y12.4296
G01 X13.3795 Y12.4295
G01 X13.3890 Y12.4279
G01 X13.4279 Y12.4162
G01 X13.4334 Y12.4137
G01 X13.4385 Y12.4106
G01 X13.4433 Y12.4069
G01 X13.4468 Y12.4035
G01 X13.6422 Y12.1492
G01 X13.9242 Y11.9328
G01 X14.2526 Y11.7967
G01 X14.6050 Y11.7503
G01 X14.9574 Y11.7967
G01 X15.2858 Y11.9328
G01 X15.5678 Y12.1492
G01 X15.7842 Y12.4312
G01 X15.9203 Y12.7596
G01 X15.9671 Y13.1153
G01 X15.9671 Y13.8087
G01 X15.9203 Y14.1644
G01 X15.7842 Y14.4928
G01 X15.5678 Y14.7749
G01 X15.5542 Y14.7855
G01 X15.5475 Y14.7928
G01 X15.5435 Y14.7991
G01 X15.5401 Y14.8070
G01 X15.5382 Y14.8142
G01 X15.5375 Y14.8216
G01 X15.5375 Y29.9868
G01 X15.5380 Y29.9941
G01 X15.5397 Y30.0013
G01 X15.5428 Y30.0093
G01 X15.5466 Y30.0156
G01 X15.5521 Y30.0221
G01 X15.5577 Y30.0270
G01 X15.5618 Y30.0297
G01 X15.5672 Y30.0325
G01 X15.6303 Y30.0587
G01 X15.8496 Y30.2270
G01 X16.0180 Y30.4463
G01 X16.0790 Y30.5936
G01 X16.0831 Y30.6011
G01 X16.0893 Y30.6087
G01 X23.1545 Y37.6738
G01 X23.3088 Y37.8749
G01 X23.4046 Y38.1060
G01 X23.4376 Y38.3573
G01 X23.4376 Y60.5422
G01 X23.4386 Y60.5520
G01 X23.4414 Y60.5613
G01 X23.4460 Y60.5700
G01 X23.4522 Y60.5776
G01 X34.3305 Y71.4558
G01 X34.4848 Y71.6569
G01 X34.5806 Y71.8880
G01 X34.6136 Y72.1393
G01 X34.6136 Y81.2432
G01 X34.6146 Y81.2530
G01 X34.6170 Y81.2612
G01 X34.6214 Y81.2699
G01 X34.6266 Y81.2768
G01 X36.2225 Y82.8729
G01 X36.2271 Y82.8769
G01 X36.2322 Y82.8804
G01 X36.2376 Y82.8832
G01 X36.2434 Y82.8853
G01 X36.2506 Y82.8870
G01 X36.2579 Y82.8875
G01 X40.2765 Y82.8875
G01 X40.2851 Y82.8865
G01 X40.2933 Y82.8841
G01 X40.4265 Y82.8290
G01 X40.7039 Y82.7925
G01 X43.0138 Y82.7925
G01 X43.2911 Y82.8290
G01 X43.5466 Y82.9349
G01 X43.7686 Y83.1052
G01 X44.5618 Y83.8984
G01 X44.7322 Y84.1204
G01 X44.8380 Y84.3758
G01 X44.8745 Y84.6532
G01 X44.8745 Y86.4837
G01 X44.8380 Y86.7611
G01 X44.7322 Y87.0165
G01 X44.5618 Y87.2385
G01 X28.0471 Y103.7532
G01 X28.0423 Y103.7588
G01 X28.0384 Y103.7650
G01 X28.0359 Y103.7706
G01 X28.0340 Y103.7765
G01 X28.0329 Y103.7825
G01 X28.0325 Y103.7886
G01 X28.0325 Y111.2224
G01 X28.0335 Y111.2322
G01 X28.0354 Y111.2392
G01 X28.0384 Y111.2460
G01 X28.0423 Y111.2522
G01 X28.0471 Y111.2578
G01 X29.7612 Y112.9719
G01 X29.7649 Y112.9752
G01 X29.7699 Y112.9787
G01 X29.7752 Y112.9817
G01 X29.7798 Y112.9836
G01 X29.7881 Y112.9858
G01 X29.7966 Y112.9865
G01 X41.1964 Y112.9865
G01 X41.2049 Y112.9858
G01 X41.2132 Y112.9836
G01 X41.2210 Y112.9800
G01 X41.2281 Y112.9752
G01 X42.8679 Y111.3358
G01 X42.8734 Y111.3292
G01 X42.8772 Y111.3229
G01 X42.8803 Y111.3149
G01 X42.8821 Y111.3065
G01 X42.8825 Y111.3004
G01 X42.8825 Y110.5584
G01 X42.8821 Y110.5522
G01 X42.8807 Y110.5449
G01 X42.8781 Y110.5380
G01 X42.8746 Y110.5314
G01 X42.8701 Y110.5255
G01 X42.8649 Y110.5203
G01 X42.7562 Y110.4368
G01 X42.5398 Y110.1548
G01 X42.4037 Y109.8264
G01 X42.3573 Y109.4740
G01 X42.4037 Y109.1216
G01 X42.5398 Y108.7932
G01 X42.7562 Y108.5112
G01 X43.0105 Y108.3156
G01 X43.0140 Y108.3120
G01 X43.0178 Y108.3071
G01 X43.0210 Y108.3017
G01 X43.0230 Y108.2971
G01 X43.0348 Y108.2581
G01 X43.0361 Y108.2522
G01 X43.0366 Y108.2461
G01 X43.0366 Y108.1631
G01 X43.0361 Y108.1558
G01 X43.0345 Y108.1487
G01 X43.0234 Y108.1120
G01 X43.0198 Y108.1041
G01 X43.0156 Y108.0979
G01 X43.0114 Y108.0932
G01 X43.0067 Y108.0891
G01 X42.7562 Y107.8968
G01 X42.5398 Y107.6148
G01 X42.4037 Y107.2864
G01 X42.3573 Y106.9340
G01 X42.4037 Y106.5816
G01 X42.5398 Y106.2532
G01 X42.7562 Y105.9712
G01 X43.0105 Y105.7756
G01 X43.0140 Y105.7720
G01 X43.0178 Y105.7671
G01 X43.0210 Y105.7617
G01 X43.0230 Y105.7571
G01 X43.0348 Y105.7181
G01 X43.0361 Y105.7122
G01 X43.0366 Y105.7061
G01 X43.0366 Y105.6231
G01 X43.0361 Y105.6158
G01 X43.0345 Y105.6087
G01 X43.0234 Y105.5720
G01 X43.0198 Y105.5641
G01 X43.0156 Y105.5579
G01 X43.0114 Y105.5532
G01 X43.0067 Y105.5491
G01 X42.7562 Y105.3568
G01 X42.5398 Y105.0748
G01 X42.4037 Y104.7464
G01 X42.3573 Y104.3940
G01 X42.4037 Y104.0416
G01 X42.5398 Y103.7132
G01 X42.7562 Y103.4312
G01 X43.0105 Y103.2356
G01 X43.0140 Y103.2320
G01 X43.0178 Y103.2271
G01 X43.0210 Y103.2217
G01 X43.0230 Y103.2171
G01 X43.0348 Y103.1781
G01 X43.0359 Y103.1734
G01 X43.0365 Y103.1673
G01 X43.0366 Y103.0831
G01 X43.0361 Y103.0758
G01 X43.0345 Y103.0687
G01 X43.0234 Y103.0320
G01 X43.0198 Y103.0241
G01 X43.0156 Y103.0179
G01 X43.0114 Y103.0132
G01 X43.0067 Y103.0091
G01 X42.7562 Y102.8168
G01 X42.5398 Y102.5348
G01 X42.4037 Y102.2064
G01 X42.3573 Y101.8540
G01 X42.4037 Y101.5016
G01 X42.5398 Y101.1732
G01 X42.7562 Y100.8912
G01 X43.0382 Y100.6748
G01 X43.3666 Y100.5387
G01 X43.7223 Y100.4919
G01 X44.4157 Y100.4919
G01 X44.7714 Y100.5387
G01 X45.0102 Y100.6376
G01 X45.0172 Y100.6399
G01 X45.0244 Y100.6412
G01 X45.9215 Y100.6414
G01 X45.9288 Y100.6409
G01 X45.9360 Y100.6392
G01 X45.9429 Y100.6366
G01 X45.9503 Y100.6323
G01 X45.9569 Y100.6268
G01 X52.1099 Y94.4738
G01 X52.1154 Y94.4672
G01 X52.1192 Y94.4609
G01 X52.1223 Y94.4529
G01 X52.1241 Y94.4445
G01 X52.1245 Y94.4384
G01 X52.1245 Y89.1341
G01 X52.1240 Y89.1280
G01 X52.1227 Y89.1220
G01 X52.1202 Y89.1150
G01 X52.1174 Y89.1096
G01 X52.1139 Y89.1045
G01 X52.1099 Y89.0999
G01 X52.1043 Y89.0951
G01 X52.0991 Y89.0918
G01 X52.0936 Y89.0891
G01 X51.9752 Y89.0401
G01 X51.9658 Y89.0374
G01 X51.9560 Y89.0367
G01 X51.9462 Y89.0379
G01 X51.9369 Y89.0410
G01 X51.9294 Y89.0451
G01 X51.9218 Y89.0513
G01 X38.9800 Y101.9935
G01 X38.9752 Y102.0006
G01 X38.9716 Y102.0084
G01 X38.9694 Y102.0167
G01 X38.9687 Y102.0252
G01 X38.9687 Y105.4705
G01 X38.9322 Y105.7479
G01 X38.8263 Y106.0034
G01 X38.6560 Y106.2254
G01 X35.0415 Y109.8398
G01 X34.8196 Y110.0101
G01 X34.5641 Y110.1160
G01 X34.2867 Y110.1525
G01 X33.3501 Y110.1525
G01 X33.3429 Y110.1530
G01 X33.3369 Y110.1543
G01 X33.3312 Y110.1562
G01 X33.3257 Y110.1588
G01 X33.3206 Y110.1621
G01 X33.1114 Y110.3227
G01 X32.7830 Y110.4587
G01 X32.4272 Y110.5055
G01 X31.7338 Y110.5055
G01 X31.3781 Y110.4587
G01 X31.0497 Y110.3227
G01 X30.7677 Y110.1063
G01 X30.5513 Y109.8243
G01 X30.4153 Y109.4959
G01 X30.3689 Y109.1435
G01 X30.4153 Y108.7910
G01 X30.5513 Y108.4626
G01 X30.7677 Y108.1807
G01 X31.0221 Y107.9851
G01 X31.0256 Y107.9815
G01 X31.0294 Y107.9766
G01 X31.0320 Y107.9723
G01 X31.0346 Y107.9666
G01 X31.0464 Y107.9275
G01 X31.0477 Y107.9215
G01 X31.0481 Y107.9167
G01 X31.0482 Y107.8326
G01 X31.0477 Y107.8253
G01 X31.0461 Y107.8182
G01 X31.0350 Y107.7815
G01 X31.0320 Y107.7747
G01 X31.0272 Y107.7674
G01 X31.0230 Y107.7627
G01 X31.0183 Y107.7586
G01 X30.7677 Y107.5663
G01 X30.5513 Y107.2843
G01 X30.4153 Y106.9559
G01 X30.3689 Y106.6035
G01 X30.4153 Y106.2510
G01 X30.5513 Y105.9226
G01 X30.7677 Y105.6407
G01 X31.0497 Y105.4243
G01 X31.3782 Y105.2882
G01 X31.7338 Y105.2414
G01 X32.4272 Y105.2414
G01 X32.7829 Y105.2882
G01 X33.0217 Y105.3871
G01 X33.0298 Y105.3897
G01 X33.0371 Y105.3908
G01 X34.0600 Y105.3909
G01 X34.0673 Y105.3904
G01 X34.0745 Y105.3887
G01 X34.0803 Y105.3866
G01 X34.0857 Y105.3838
G01 X34.0908 Y105.3803
G01 X34.0954 Y105.3763
G01 X35.1217 Y104.3499
G01 X35.1277 Y104.3421
G01 X35.1317 Y104.3345
G01 X35.1345 Y104.3252
G01 X35.1355 Y104.3154
G01 X35.1355 Y100.8790
G01 X35.1720 Y100.6016
G01 X35.2779 Y100.3461
G01 X35.4482 Y100.1241
G01 X48.7099 Y86.8625
G01 X48.7154 Y86.8559
G01 X48.7192 Y86.8496
G01 X48.7223 Y86.8416
G01 X48.7241 Y86.8332
G01 X48.7245 Y86.8271
G01 X48.7245 Y79.8959
G01 X48.7241 Y79.8897
G01 X48.7233 Y79.8849
G01 X48.7201 Y79.8755
G01 X48.7173 Y79.8700
G01 X48.7145 Y79.8659
G01 X48.7079 Y79.8587
G01 X48.7030 Y79.8548
G01 X48.6977 Y79.8516
G01 X48.5805 Y79.7938
G01 X48.5735 Y79.7914
G01 X48.5650 Y79.7899
G01 X48.5563 Y79.7899
G01 X48.5490 Y79.7911
G01 X48.5397 Y79.7943
G01 X48.5312 Y79.7993
G01 X48.3748 Y79.9192
G01 X48.0464 Y80.0553
G01 X47.6907 Y80.1021
G01 X46.7973 Y80.1021
G01 X46.4416 Y80.0553
G01 X46.1132 Y79.9192
G01 X45.8274 Y79.6999
G01 X45.8223 Y79.6966
G01 X45.8179 Y79.6945
G01 X45.8122 Y79.6924
G01 X45.8075 Y79.6912
G01 X45.7979 Y79.6903
G01 X44.5981 Y79.6903
G01 X44.3207 Y79.6538
G01 X44.0653 Y79.5480
G01 X43.8433 Y79.3777
G01 X41.5186 Y77.0533
G01 X41.5126 Y77.0491
G01 X41.5060 Y77.0458
G01 X41.4979 Y77.0432
G01 X41.4906 Y77.0421
G01 X41.3513 Y77.0420
G01 X41.0079 Y76.9500
G01 X40.7001 Y76.7723
G01 X40.4487 Y76.5209
G01 X40.2710 Y76.2131
G01 X40.1790 Y75.8697
G01 X40.1790 Y75.5143
G01 X40.2637 Y75.1981
G01 X40.2646 Y75.1933
G01 X40.2651 Y75.1871
G01 X40.2648 Y75.1810
G01 X40.2638 Y75.1749
G01 X40.2606 Y75.1656
G01 X40.2563 Y75.1581
G01 X40.2508 Y75.1514
G01 X40.2432 Y75.1451
G01 X40.1262 Y75.0773
G01 X40.1218 Y75.0750
G01 X40.1160 Y75.0729
G01 X40.1101 Y75.0714
G01 X40.1027 Y75.0706
G01 X40.0965 Y75.0708
G01 X40.0892 Y75.0721
G01 X40.0833 Y75.0739
G01 X40.0766 Y75.0771
G01 X40.0715 Y75.0804
G01 X40.0667 Y75.0844
G01 X39.0447 Y76.1067
G01 X39.0416 Y76.1106
G01 X39.0384 Y76.1159
G01 X39.0346 Y76.1252
G01 X38.9770 Y76.3401
G01 X38.7993 Y76.6479
G01 X38.5479 Y76.8993
G01 X38.2401 Y77.0770
G01 X37.8967 Y77.1690
G01 X37.5413 Y77.1690
G01 X37.1979 Y77.0770
G01 X36.8901 Y76.8993
G01 X36.6387 Y76.6479
G01 X36.4610 Y76.3401
G01 X36.3690 Y75.9967
G01 X36.3690 Y75.6413
G01 X36.4610 Y75.2979
G01 X36.6387 Y74.9901
G01 X36.8901 Y74.7387
G01 X37.1979 Y74.5610
G01 X37.5413 Y74.4690
G01 X37.6685 Y74.4689
G01 X37.6758 Y74.4678
G01 X37.6828 Y74.4656
G01 X37.6894 Y74.4625
G01 X37.6965 Y74.4576
G01 X39.5659 Y72.5886
G01 X39.5714 Y72.5820
G01 X39.5757 Y72.5746
G01 X39.5790 Y72.5653
G01 X39.5804 Y72.5569
G01 X39.5804 Y67.6240
G01 X39.5793 Y67.6154
G01 X39.5771 Y67.6083
G01 X39.5739 Y67.6017
G01 X39.5690 Y67.5945
G01 X39.5619 Y67.5876
G01 X39.4966 Y67.5374
G01 X39.3884 Y67.3964
G01 X39.3204 Y67.2323
G01 X39.2968 Y67.0527
G01 X39.2968 Y65.7093
G01 X39.3204 Y65.5297
G01 X39.3884 Y65.3656
G01 X39.4966 Y65.2246
G01 X39.6376 Y65.1164
G01 X39.7136 Y65.0849
G01 X39.7189 Y65.0820
G01 X39.7229 Y65.0791
G01 X39.7267 Y65.0759
G01 X39.7308 Y65.0714
G01 X39.7344 Y65.0665
G01 X39.7374 Y65.0611
G01 X39.7397 Y65.0554
G01 X39.7410 Y65.0507
G01 X39.7710 Y64.8997
G01 X39.7718 Y64.8948
G01 X39.7720 Y64.8887
G01 X39.7708 Y64.8789
G01 X39.7682 Y64.8708
G01 X39.7642 Y64.8632
G01 X39.7590 Y64.8563
G01 X39.5727 Y64.6699
G01 X39.3950 Y64.3621
G01 X39.3030 Y64.0187
G01 X39.3030 Y63.6633
G01 X39.3950 Y63.3199
G01 X39.5727 Y63.0121
G01 X39.8241 Y62.7607
G01 X39.9687 Y62.6772
G01 X39.9756 Y62.6721
G01 X39.9815 Y62.6660
G01 X39.9857 Y62.6600
G01 X39.9890 Y62.6535
G01 X39.9912 Y62.6466
G01 X39.9926 Y62.6381
G01 X39.9927 Y62.5063
G01 X39.9922 Y62.5002
G01 X39.9912 Y62.4954
G01 X39.9894 Y62.4896
G01 X39.9874 Y62.4852
G01 X39.9851 Y62.4809
G01 X39.9815 Y62.4760
G01 X39.9774 Y62.4715
G01 X39.9728 Y62.4676
G01 X39.9677 Y62.4642
G01 X39.8241 Y62.3813
G01 X39.5727 Y62.1299
G01 X39.3950 Y61.8221
G01 X39.3030 Y61.4787
G01 X39.3030 Y61.1233
G01 X39.3950 Y60.7799
G01 X39.5727 Y60.4721
G01 X39.8241 Y60.2207
G01 X39.9687 Y60.1372
G01 X39.9756 Y60.1321
G01 X39.9815 Y60.1260
G01 X39.9857 Y60.1200
G01 X39.9890 Y60.1135
G01 X39.9912 Y60.1066
G01 X39.9926 Y60.0981
G01 X39.9927 Y59.9663
G01 X39.9922 Y59.9602
G01 X39.9912 Y59.9554
G01 X39.9894 Y59.9496
G01 X39.9874 Y59.9452
G01 X39.9851 Y59.9409
G01 X39.9815 Y59.9360
G01 X39.9774 Y59.9315
G01 X39.9728 Y59.9276
G01 X39.9677 Y59.9242
G01 X39.8241 Y59.8413
G01 X39.5727 Y59.5899
G01 X39.3950 Y59.2821
G01 X39.3030 Y58.9387
G01 X39.3030 Y58.5833
G01 X39.3950 Y58.2399
G01 X39.5727 Y57.9321
G01 X39.8241 Y57.6807
G01 X39.9687 Y57.5972
G01 X39.9756 Y57.5921
G01 X39.9815 Y57.5860
G01 X39.9857 Y57.5800
G01 X39.9890 Y57.5735
G01 X39.9912 Y57.5666
G01 X39.9926 Y57.5581
G01 X39.9927 Y57.4263
G01 X39.9922 Y57.4202
G01 X39.9912 Y57.4154
G01 X39.9894 Y57.4096
G01 X39.9874 Y57.4052
G01 X39.9851 Y57.4009
G01 X39.9815 Y57.3960
G01 X39.9774 Y57.3915
G01 X39.9728 Y57.3876
G01 X39.9677 Y57.3842
G01 X39.8241 Y57.3013
G01 X39.5727 Y57.0499
G01 X39.3950 Y56.7421
G01 X39.3030 Y56.3987
G01 X39.3030 Y56.0433
G01 X39.3950 Y55.6999
G01 X39.5727 Y55.3921
G01 X39.8241 Y55.1407
G01 X39.9687 Y55.0572
G01 X39.9756 Y55.0521
G01 X39.9815 Y55.0460
G01 X39.9857 Y55.0400
G01 X39.9890 Y55.0335
G01 X39.9912 Y55.0266
G01 X39.9926 Y55.0181
G01 X39.9927 Y54.8863
G01 X39.9922 Y54.8802
G01 X39.9912 Y54.8754
G01 X39.9894 Y54.8696
G01 X39.9874 Y54.8652
G01 X39.9851 Y54.8609
G01 X39.9815 Y54.8560
G01 X39.9774 Y54.8515
G01 X39.9728 Y54.8476
G01 X39.9677 Y54.8442
G01 X39.8241 Y54.7613
G01 X39.5727 Y54.5099
G01 X39.3950 Y54.2021
G01 X39.3030 Y53.8587
G01 X39.3030 Y53.5033
G01 X39.3950 Y53.1599
G01 X39.5727 Y52.8521
G01 X39.8241 Y52.6007
G01 X39.9687 Y52.5172
G01 X39.9756 Y52.5121
G01 X39.9815 Y52.5060
G01 X39.9857 Y52.5000
G01 X39.9890 Y52.4935
G01 X39.9912 Y52.4866
G01 X39.9926 Y52.4781
G01 X39.9927 Y52.3463
G01 X39.9922 Y52.3402
G01 X39.9912 Y52.3354
G01 X39.9894 Y52.3296
G01 X39.9874 Y52.3252
G01 X39.9851 Y52.3209
G01 X39.9815 Y52.3160
G01 X39.9774 Y52.3115
G01 X39.9728 Y52.3076
G01 X39.9677 Y52.3042
G01 X39.8241 Y52.2213
G01 X39.5727 Y51.9699
G01 X39.3950 Y51.6621
G01 X39.3030 Y51.3187
G01 X39.3030 Y50.9633
G01 X39.3950 Y50.6199
G01 X39.5727 Y50.3121
G01 X39.8241 Y50.0607
G01 X39.9687 Y49.9772
G01 X39.9756 Y49.9721
G01 X39.9807 Y49.9669
G01 X39.9857 Y49.9600
G01 X39.9890 Y49.9535
G01 X39.9912 Y49.9466
G01 X39.9926 Y49.9381
G01 X39.9927 Y49.8075
G01 X39.9923 Y49.8014
G01 X39.9912 Y49.7954
G01 X39.9894 Y49.7896
G01 X39.9874 Y49.7852
G01 X39.9851 Y49.7809
G01 X39.9815 Y49.7760
G01 X39.9774 Y49.7715
G01 X39.9728 Y49.7676
G01 X39.9677 Y49.7642
G01 X39.8241 Y49.6813
G01 X39.5727 Y49.4299
G01 X39.3950 Y49.1221
G01 X39.3030 Y48.7787
G01 X39.3030 Y48.4233
G01 X39.3950 Y48.0799
G01 X39.5727 Y47.7721
G01 X39.8241 Y47.5207
G01 X39.9687 Y47.4372
G01 X39.9747 Y47.4329
G01 X39.9807 Y47.4269
G01 X39.9851 Y47.4211
G01 X39.9890 Y47.4135
G01 X39.9912 Y47.4066
G01 X39.9926 Y47.3981
G01 X39.9927 Y47.2675
G01 X39.9923 Y47.2614
G01 X39.9912 Y47.2554
G01 X39.9894 Y47.2496
G01 X39.9874 Y47.2452
G01 X39.9851 Y47.2409
G01 X39.9815 Y47.2360
G01 X39.9774 Y47.2315
G01 X39.9728 Y47.2276
G01 X39.9677 Y47.2242
G01 X39.8241 Y47.1413
G01 X39.5727 Y46.8899
G01 X39.3950 Y46.5821
G01 X39.3030 Y46.2387
G01 X39.3030 Y45.8833
G01 X39.3950 Y45.5399
G01 X39.5727 Y45.2321
G01 X39.8241 Y44.9807
G01 X39.9687 Y44.8972
G01 X39.9747 Y44.8929
G01 X39.9807 Y44.8869
G01 X39.9851 Y44.8811
G01 X39.9890 Y44.8735
G01 X39.9912 Y44.8666
G01 X39.9926 Y44.8581
G01 X39.9927 Y44.7275
G01 X39.9923 Y44.7214
G01 X39.9912 Y44.7154
G01 X39.9894 Y44.7096
G01 X39.9874 Y44.7052
G01 X39.9851 Y44.7009
G01 X39.9815 Y44.6960
G01 X39.9774 Y44.6915
G01 X39.9728 Y44.6876
G01 X39.9677 Y44.6842
G01 X39.8241 Y44.6013
G01 X39.5727 Y44.3499
G01 X39.3950 Y44.0421
G01 X39.3030 Y43.6987
G01 X39.3030 Y43.3433
G01 X39.3950 Y42.9999
G01 X39.5727 Y42.6921
G01 X39.8241 Y42.4407
G01 X39.9687 Y42.3572
G01 X39.9747 Y42.3529
G01 X39.9807 Y42.3469
G01 X39.9851 Y42.3411
G01 X39.9890 Y42.3335
G01 X39.9912 Y42.3266
G01 X39.9926 Y42.3181
G01 X39.9927 Y42.1875
G01 X39.9923 Y42.1814
G01 X39.9912 Y42.1754
G01 X39.9894 Y42.1696
G01 X39.9874 Y42.1652
G01 X39.9851 Y42.1609
G01 X39.9815 Y42.1560
G01 X39.9774 Y42.1515
G01 X39.9728 Y42.1476
G01 X39.9677 Y42.1442
G01 X39.8241 Y42.0613
G01 X39.5727 Y41.8099
G01 X39.3950 Y41.5021
G01 X39.3030 Y41.1587
G01 X39.3030 Y40.8033
G01 X39.3950 Y40.4599
G01 X39.5727 Y40.1521
G01 X39.8241 Y39.9007
G01 X39.9687 Y39.8172
G01 X39.9747 Y39.8129
G01 X39.9807 Y39.8069
G01 X39.9851 Y39.8011
G01 X39.9890 Y39.7935
G01 X39.9912 Y39.7866
G01 X39.9926 Y39.7781
G01 X39.9927 Y39.6475
G01 X39.9923 Y39.6414
G01 X39.9912 Y39.6354
G01 X39.9894 Y39.6296
G01 X39.9874 Y39.6252
G01 X39.9851 Y39.6209
G01 X39.9815 Y39.6160
G01 X39.9774 Y39.6115
G01 X39.9728 Y39.6076
G01 X39.9677 Y39.6042
G01 X39.8241 Y39.5213
G01 X39.5727 Y39.2699
G01 X39.3950 Y38.9621
G01 X39.3030 Y38.6187
G01 X39.3030 Y38.2633
G01 X39.3950 Y37.9199
G01 X39.5727 Y37.6121
G01 X39.8241 Y37.3607
G01 X39.9687 Y37.2772
G01 X39.9747 Y37.2729
G01 X39.9807 Y37.2669
G01 X39.9851 Y37.2611
G01 X39.9890 Y37.2535
G01 X39.9912 Y37.2466
G01 X39.9926 Y37.2381
G01 X39.9927 Y37.1075
G01 X39.9923 Y37.1014
G01 X39.9912 Y37.0954
G01 X39.9894 Y37.0896
G01 X39.9874 Y37.0852
G01 X39.9851 Y37.0809
G01 X39.9815 Y37.0760
G01 X39.9774 Y37.0715
G01 X39.9728 Y37.0676
G01 X39.9677 Y37.0642
G01 X39.8241 Y36.9813
G01 X39.5727 Y36.7299
G01 X39.3950 Y36.4221
G01 X39.3030 Y36.0787
G01 X39.3030 Y35.7233
G01 X39.3950 Y35.3799
G01 X39.5727 Y35.0721
G01 X39.8241 Y34.8207
G01 X40.1319 Y34.6430
G01 X40.4753 Y34.5510
G01 X40.8307 Y34.5510
G01 X41.1741 Y34.6430
G01 X41.4819 Y34.8207
G01 X41.7333 Y35.0721
G01 X41.9110 Y35.3799
G01 X41.9362 Y35.4738
G01 X41.9385 Y35.4796
G01 X41.9414 Y35.4850
G01 X41.9450 Y35.4900
G01 X41.9483 Y35.4937
G01 X41.9549 Y35.4993
G01 X41.9624 Y35.5037
G01 X42.0110 Y35.5239
G01 X42.2330 Y35.6942
G01 X50.9438 Y44.4051
G01 X51.1142 Y44.6270
G01 X51.2200 Y44.8824
G01 X51.2565 Y45.1599
G01 X51.2565 Y46.8021
G01 X51.2567 Y46.8070
G01 X51.2577 Y46.8130
G01 X51.2590 Y46.8177
G01 X51.2613 Y46.8234
G01 X51.2642 Y46.8288
G01 X51.2678 Y46.8337
G01 X51.2719 Y46.8382
G01 X51.2756 Y46.8414
G01 X51.2817 Y46.8455
G01 X51.2884 Y46.8487
G01 X51.2942 Y46.8506
G01 X51.3014 Y46.8518
G01 X51.4330 Y46.8557
G01 X51.4391 Y46.8552
G01 X51.4438 Y46.8543
G01 X51.4496 Y46.8525
G01 X51.4552 Y46.8500
G01 X51.4604 Y46.8469
G01 X51.4642 Y46.8439
G01 X51.4686 Y46.8397
G01 X51.4718 Y46.8360
G01 X51.4769 Y46.8277
G01 X51.4803 Y46.8186
G01 X51.5740 Y46.4689
G01 X51.7517 Y46.1611
G01 X52.0031 Y45.9097
G01 X52.3109 Y45.7320
G01 X52.6543 Y45.6400
G01 X53.0097 Y45.6400
G01 X53.3531 Y45.7320
G01 X53.6609 Y45.9097
G01 X53.9123 Y46.1611
G01 X54.0900 Y46.4689
G01 X54.1820 Y46.8123
G01 X54.1820 Y47.1677
G01 X54.0900 Y47.5111
G01 X53.9123 Y47.8189
G01 X53.9036 Y47.8277
G01 X53.8980 Y47.8358
G01 X53.8953 Y47.8413
G01 X53.8933 Y47.8471
G01 X53.8920 Y47.8531
G01 X53.8915 Y47.8592
G01 X53.8915 Y54.5017
G01 X53.8920 Y54.5090
G01 X53.8933 Y54.5150
G01 X53.8953 Y54.5208
G01 X53.8980 Y54.5263
G01 X53.9036 Y54.5344
G01 X53.9123 Y54.5432
G01 X54.0900 Y54.8510
G01 X54.1820 Y55.1944
G01 X54.1820 Y55.5498
G01 X54.0900 Y55.8932
G01 X53.9123 Y56.2010
G01 X53.6609 Y56.4524
G01 X53.3531 Y56.6301
G01 X53.0097 Y56.7221
G01 X52.6543 Y56.7221
G01 X52.3109 Y56.6301
G01 X52.0031 Y56.4524
G01 X51.7517 Y56.2010
G01 X51.5740 Y55.8932
G01 X51.4803 Y55.5435
G01 X51.4769 Y55.5344
G01 X51.4745 Y55.5301
G01 X51.4710 Y55.5251
G01 X51.4642 Y55.5182
G01 X51.4563 Y55.5127
G01 X51.4519 Y55.5105
G01 X51.4462 Y55.5085
G01 X51.4366 Y55.5066
G01 X51.4306 Y55.5064
G01 X51.3026 Y55.5102
G01 X51.2954 Y55.5113
G01 X51.2884 Y55.5134
G01 X51.2828 Y55.5160
G01 X51.2766 Y55.5199
G01 X51.2711 Y55.5247
G01 X51.2663 Y55.5303
G01 X51.2624 Y55.5365
G01 X51.2598 Y55.5421
G01 X51.2575 Y55.5503
G01 X51.2565 Y55.5600
G01 X51.2566 Y62.9836
G01 X51.2580 Y62.9920
G01 X51.2613 Y63.0013
G01 X51.2656 Y63.0087
G01 X51.2711 Y63.0153
G01 X57.3308 Y69.0749
G01 X57.5011 Y69.2969
G01 X57.6070 Y69.5524
G01 X57.6435 Y69.8297
G01 X57.6435 Y96.8110
G01 X57.6070 Y97.0884
G01 X57.5011 Y97.3439
G01 X57.3308 Y97.5658
G01 X47.3307 Y107.5660
G01 X47.1087 Y107.7363
G01 X46.8532 Y107.8422
G01 X46.5758 Y107.8787
G01 X45.4204 Y107.8787
G01 X45.4130 Y107.8793
G01 X45.4069 Y107.8806
G01 X45.4011 Y107.8826
G01 X45.3955 Y107.8853
G01 X45.3903 Y107.8888
G01 X45.3856 Y107.8928
G01 X45.3819 Y107.8968
G01 X45.1312 Y108.0891
G01 X45.1241 Y108.0957
G01 X45.1185 Y108.1035
G01 X45.1144 Y108.1123
G01 X45.1031 Y108.1500
G01 X45.1019 Y108.1559
G01 X45.1014 Y108.1619
G01 X45.1014 Y108.2449
G01 X45.1018 Y108.2509
G01 X45.1031 Y108.2580
G01 X45.1140 Y108.2946
G01 X45.1168 Y108.3013
G01 X45.1204 Y108.3075
G01 X45.1258 Y108.3141
G01 X45.1312 Y108.3189
G01 X45.3818 Y108.5112
G01 X45.5982 Y108.7932
G01 X45.7343 Y109.1216
G01 X45.7807 Y109.4740
G01 X45.7343 Y109.8264
G01 X45.5982 Y110.1548
G01 X45.3818 Y110.4368
G01 X45.0998 Y110.6532
G01 X45.0312 Y110.6817
G01 X45.0268 Y110.6839
G01 X45.0217 Y110.6873
G01 X45.0161 Y110.6921
G01 X45.0113 Y110.6976
G01 X45.0074 Y110.7038
G01 X45.0040 Y110.7117
G01 X45.0020 Y110.7201
G01 X45.0015 Y110.7274
G01 X45.0015 Y111.7567
G01 X44.9650 Y112.0342
G01 X44.8592 Y112.2896
G01 X44.6888 Y112.5115
G01 X42.4075 Y114.7928
G01 X42.1855 Y114.9632
G01 X41.9301 Y115.0690
G01 X41.6527 Y115.1055
G01 X29.3403 Y115.1055
G01 X29.0629 Y115.0690
G01 X28.8075 Y114.9632
G01 X28.5855 Y114.7928
G01 X26.2262 Y112.4335
G01 X26.0559 Y112.2115
G01 X25.9500 Y111.9561
G01 X25.9135 Y111.6787
G01 X25.9135 Y106.6803
G01 X25.9130 Y106.6742
G01 X25.9117 Y106.6682
G01 X25.9097 Y106.6624
G01 X25.9070 Y106.6569
G01 X25.9037 Y106.6517
G01 X25.8997 Y106.6470
G01 X25.8952 Y106.6429
G01 X25.8903 Y106.6393
G01 X25.8826 Y106.6353
G01 X25.7653 Y106.5867
G01 X25.7584 Y106.5844
G01 X25.7523 Y106.5833
G01 X25.7462 Y106.5829
G01 X25.7389 Y106.5834
G01 X25.7329 Y106.5847
G01 X25.7271 Y106.5867
G01 X25.7216 Y106.5894
G01 X25.7154 Y106.5935
G01 X25.7108 Y106.5975
G01 X22.7930 Y109.5154
G01 X22.5710 Y109.6857
G01 X22.3156 Y109.7915
G01 X22.0382 Y109.8280
G01 X20.7719 Y109.8280
G01 X20.7670 Y109.8282
G01 X20.7609 Y109.8292
G01 X20.7539 Y109.8314
G01 X20.7472 Y109.8345
G01 X20.7411 Y109.8386
G01 X20.7357 Y109.8435
G01 X20.7303 Y109.8502
G01 X20.6968 Y109.9005
G01 X20.4925 Y110.1047
G01 X20.2524 Y110.2652
G01 X19.9856 Y110.3756
G01 X19.7024 Y110.4320
G01 X19.4136 Y110.4320
G01 X19.1304 Y110.3756
G01 X18.8636 Y110.2652
G01 X18.6235 Y110.1047
G01 X18.4192 Y109.9005
G01 X18.2588 Y109.6604
G01 X18.1484 Y109.3936
G01 X18.0920 Y109.1104
G01 X18.0920 Y108.8216
G01 X18.1484 Y108.5384
G01 X18.2588 Y108.2716
G01 X18.4192 Y108.0315
G01 X18.6235 Y107.8273
G01 X18.8636 Y107.6668
G01 X19.1304 Y107.5564
G01 X19.4136 Y107.5000
G01 X19.7024 Y107.5000
G01 X19.9856 Y107.5564
G01 X20.2524 Y107.6668
G01 X20.3060 Y107.7025
G01 X20.3104 Y107.7047
G01 X20.3162 Y107.7068
G01 X20.3258 Y107.7088
G01 X21.5819 Y107.7090
G01 X21.5868 Y107.7088
G01 X21.5929 Y107.7078
G01 X21.5987 Y107.7061
G01 X21.6033 Y107.7042
G01 X21.6107 Y107.6999
G01 X21.6173 Y107.6944
G01 X24.2005 Y105.1110
G01 X24.2057 Y105.1041
G01 X24.2101 Y105.0954
G01 X24.2125 Y105.0872
G01 X24.2135 Y105.0774
G01 X24.2135 Y102.1113
G01 X24.2500 Y101.8339
G01 X24.3558 Y101.5785
G01 X24.5262 Y101.3565
G01 X38.5842 Y87.2985
G01 X38.5882 Y87.2939
G01 X38.5917 Y87.2889
G01 X38.5950 Y87.2823
G01 X38.5973 Y87.2754
G01 X38.5985 Y87.2682
G01 X38.5988 Y87.2609
G01 X38.5979 Y87.2536
G01 X38.5964 Y87.2477
G01 X38.5936 Y87.2409
G01 X38.5899 Y87.2346
G01 X38.5105 Y87.1311
G01 X38.5065 Y87.1265
G01 X38.5019 Y87.1224
G01 X38.4980 Y87.1195
G01 X38.4893 Y87.1151
G01 X38.4799 Y87.1123
G01 X38.4739 Y87.1116
G01 X38.4690 Y87.1115
G01 X38.4642 Y87.1119
G01 X38.4582 Y87.1131
G01 X38.4524 Y87.1150
G01 X38.4469 Y87.1176
G01 X38.2401 Y87.2370
G01 X37.8967 Y87.3290
G01 X37.5413 Y87.3290
G01 X37.1979 Y87.2370
G01 X36.8901 Y87.0593
G01 X36.6387 Y86.8079
G01 X36.4610 Y86.5001
G01 X36.3690 Y86.1567
G01 X36.3690 Y85.8013
G01 X36.3771 Y85.7713
G01 X36.3779 Y85.7664
G01 X36.3782 Y85.7604
G01 X36.3774 Y85.7519
G01 X36.3752 Y85.7436
G01 X36.3723 Y85.7370
G01 X36.3676 Y85.7298
G01 X36.3636 Y85.7252
G01 X35.5712 Y84.9330
G01 X35.5652 Y84.9287
G01 X35.5588 Y84.9252
G01 X35.4115 Y84.8642
G01 X35.1922 Y84.6958
G01 X35.0238 Y84.4765
G01 X34.9628 Y84.3292
G01 X34.9593 Y84.3228
G01 X34.9541 Y84.3159
G01 X33.9522 Y83.3138
G01 X33.9476 Y83.3098
G01 X33.9404 Y83.3051
G01 X33.9336 Y83.3021
G01 X33.9266 Y83.3002
G01 X33.9180 Y83.2992
G01 X33.9095 Y83.2997
G01 X33.9023 Y83.3014
G01 X33.8943 Y83.3045
G01 X33.8880 Y83.3083
G01 X33.8814 Y83.3138
G01 X33.7715 Y83.4238
G01 X33.5495 Y83.5941
G01 X33.2941 Y83.7000
G01 X33.0167 Y83.7365
G01 X13.9216 Y83.7365
G01 X13.9155 Y83.7369
G01 X13.9071 Y83.7387
G01 X13.9002 Y83.7413
G01 X13.8928 Y83.7456
G01 X13.8862 Y83.7511
G01 X12.7449 Y84.8924
G01 X12.7387 Y84.9001
G01 X12.7341 Y84.9088
G01 X12.7312 Y84.9182
G01 X12.7303 Y84.9268
G01 X12.7306 Y84.9330
G01 X12.7316 Y84.9391
G01 X12.7333 Y84.9450
G01 X12.7358 Y84.9506
G01 X12.8040 Y85.0687
G01 X12.8076 Y85.0737
G01 X12.8110 Y85.0773
G01 X12.8187 Y85.0835
G01 X12.8274 Y85.0880
G01 X12.8321 Y85.0896
G01 X12.8381 Y85.0910
G01 X12.8480 Y85.0916
G01 X12.8577 Y85.0902
G01 X13.1573 Y85.0100
G01 X13.5127 Y85.0100
G01 X13.8561 Y85.1020
G01 X14.1639 Y85.2797
G01 X14.4153 Y85.5311
G01 X14.5930 Y85.8389
G01 X14.6850 Y86.1823
G01 X14.6850 Y86.5377
G01 X14.5930 Y86.8811
G01 X14.4153 Y87.1889
G01 X14.1639 Y87.4403
G01 X13.8561 Y87.6180
G01 X13.5127 Y87.7100
G01 X13.1573 Y87.7100
G01 X12.8139 Y87.6180
G01 X12.5061 Y87.4403
G01 X12.4973 Y87.4316
G01 X12.4892 Y87.4260
G01 X12.4837 Y87.4233
G01 X12.4779 Y87.4213
G01 X12.4719 Y87.4200
G01 X12.4671 Y87.4196
G01 X8.4892 Y87.4195
G01 X8.4831 Y87.4200
G01 X8.4771 Y87.4213
G01 X8.4713 Y87.4233
G01 X8.4658 Y87.4260
G01 X8.4577 Y87.4316
G01 X8.4489 Y87.4403
G01 X8.1411 Y87.6180
G01 X7.7977 Y87.7100
G01 X7.4423 Y87.7100
G01 X7.0989 Y87.6180
G01 X6.7911 Y87.4403
G01 X6.5397 Y87.1889
G01 X6.3620 Y86.8811
G01 X6.2700 Y86.5377
G01 X6.2700 Y86.1823
G01 X6.3620 Y85.8389
G01 X6.5397 Y85.5311
G01 X6.7911 Y85.2797
G01 X7.0989 Y85.1020
G01 X7.4423 Y85.0100
G01 X7.7977 Y85.0100
G01 X8.1411 Y85.1020
G01 X8.4489 Y85.2797
G01 X8.4577 Y85.2884
G01 X8.4658 Y85.2940
G01 X8.4736 Y85.2976
G01 X8.4819 Y85.2998
G01 X8.4904 Y85.3005
G01 X9.3194 Y85.3005
G01 X9.3255 Y85.3001
G01 X9.3327 Y85.2987
G01 X9.3385 Y85.2967
G01 X9.3440 Y85.2940
G01 X9.3502 Y85.2899
G01 X9.3548 Y85.2859
G01 X12.7105 Y81.9302
G01 X12.9325 Y81.7598
G01 X13.1879 Y81.6540
G01 X13.4653 Y81.6175
G01 X32.5604 Y81.6175
G01 X32.5701 Y81.6165
G01 X32.5784 Y81.6142
G01 X32.5861 Y81.6104
G01 X32.5940 Y81.6046
G01 X32.6834 Y81.5152
G01 X32.6880 Y81.5094
G01 X32.6911 Y81.5041
G01 X32.6935 Y81.4985
G01 X32.6952 Y81.4926
G01 X32.6960 Y81.4877
G01 X32.6964 Y81.4816
G01 X32.6964 Y72.5538
G01 X32.6960 Y72.5477
G01 X32.6949 Y72.5417
G01 X32.6930 Y72.5358
G01 X32.6905 Y72.5302
G01 X32.6866 Y72.5240
G01 X32.6818 Y72.5184
G01 X21.8035 Y61.6402
G01 X21.6492 Y61.4391
G01 X21.5534 Y61.2080
G01 X21.5204 Y60.9567
G01 X21.5204 Y38.7718
G01 X21.5197 Y38.7633
G01 X21.5170 Y38.7538
G01 X21.5126 Y38.7451
G01 X21.5098 Y38.7410
G01 X21.5058 Y38.7364
G01 X14.9285 Y32.1596
G01 X14.9246 Y32.1567
G01 X14.9194 Y32.1536
G01 X14.9149 Y32.1516
G01 X14.9092 Y32.1498
G01 X14.9032 Y32.1486
G01 X14.8983 Y32.1482
G01 X14.8922 Y32.1484
G01 X14.8874 Y32.1491
G01 X14.6557 Y32.2110
G01 X14.3003 Y32.2110
G01 X13.9569 Y32.1190
G01 X13.6491 Y31.9413
G01 X13.5794 Y31.8717
G01 X13.5756 Y31.8685
G01 X13.5704 Y31.8652
G01 X13.5615 Y31.8612
G01 X13.5543 Y31.8594
G01 X13.5458 Y31.8587
G01 X13.5372 Y31.8594
G01 X13.5290 Y31.8616
G01 X13.4082 Y31.9116
G01 X13.4007 Y31.9157
G01 X13.3931 Y31.9219
G01 X13.3869 Y31.9295
G01 X13.3823 Y31.9382
G01 X13.3795 Y31.9475
G01 X13.3785 Y31.9573
G01 X13.3785 Y34.8047
G01 X13.3795 Y34.8145
G01 X13.3823 Y34.8238
G01 X13.3869 Y34.8325
G01 X13.3931 Y34.8401
G01 X13.3997 Y34.8456
G01 X13.4082 Y34.8504
G01 X13.5278 Y34.8999
G01 X13.5348 Y34.9021
G01 X13.5421 Y34.9032
G01 X13.5495 Y34.9032
G01 X13.5568 Y34.9021
G01 X13.5626 Y34.9004
G01 X13.5683 Y34.8980
G01 X13.5736 Y34.8949
G01 X13.5785 Y34.8912
G01 X13.6491 Y34.8207
G01 X13.9569 Y34.6430
G01 X14.3003 Y34.5510
G01 X14.6557 Y34.5510
G01 X14.9991 Y34.6430
G01 X15.3069 Y34.8207
G01 X15.4287 Y34.9425
G01 X15.4334 Y34.9465
G01 X15.4386 Y34.9498
G01 X15.4441 Y34.9525
G01 X15.4499 Y34.9545
G01 X15.4571 Y34.9559
G01 X15.4632 Y34.9563
G01 X15.9465 Y34.9563
G01 X16.2239 Y34.9928
G01 X16.4794 Y35.0987
G01 X16.7013 Y35.2690
G01 X17.8960 Y36.4637
G00 Z2.0000
G00 X16.5789 Y38.1433
G01 F60.00
G01 Z0.0000
G01 F120.00
G01 X16.5851 Y38.1508
G01 X16.5897 Y38.1595
G01 X16.5925 Y38.1688
G01 X16.5935 Y38.1786
G01 X16.5935 Y62.8700
G01 X16.5933 Y62.8749
G01 X16.5923 Y62.8810
G01 X16.5910 Y62.8857
G01 X16.5887 Y62.8914
G01 X16.5857 Y62.8968
G01 X16.5821 Y62.9017
G01 X16.5788 Y62.9054
G01 X16.5742 Y62.9094
G01 X16.4422 Y62.9977
G01 X16.4368 Y63.0005
G01 X16.4298 Y63.0030
G01 X16.4238 Y63.0043
G01 X16.4165 Y63.0048
G01 X16.4079 Y63.0041
G01 X16.3985 Y63.0014
G01 X16.2327 Y62.9328
G01 X15.9553 Y62.8963
G01 X15.4632 Y62.8963
G01 X15.4559 Y62.8958
G01 X15.4499 Y62.8945
G01 X15.4441 Y62.8925
G01 X15.4386 Y62.8898
G01 X15.4334 Y62.8865
G01 X15.4287 Y62.8825
G01 X15.3069 Y62.7607
G01 X15.1633 Y62.6778
G01 X15.1563 Y62.6729
G01 X15.1519 Y62.6688
G01 X15.1487 Y62.6651
G01 X15.1436 Y62.6568
G01 X15.1416 Y62.6524
G01 X15.1398 Y62.6466
G01 X15.1384 Y62.6369
G01 X15.1384 Y62.5039
G01 X15.1395 Y62.4966
G01 X15.1416 Y62.4896
G01 X15.1453 Y62.4820
G01 X15.1495 Y62.4760
G01 X15.1554 Y62.4699
G01 X15.1623 Y62.4648
G01 X15.3069 Y62.3813
G01 X15.5583 Y62.1299
G01 X15.7360 Y61.8221
G01 X15.8280 Y61.4787
G01 X15.8280 Y61.1233
G01 X15.7360 Y60.7799
G01 X15.5583 Y60.4721
G01 X15.3069 Y60.2207
G01 X15.1633 Y60.1378
G01 X15.1582 Y60.1344
G01 X15.1536 Y60.1305
G01 X15.1503 Y60.1269
G01 X15.1466 Y60.1221
G01 X15.1436 Y60.1168
G01 X15.1416 Y60.1124
G01 X15.1398 Y60.1066
G01 X15.1387 Y60.1006
G01 X15.1383 Y60.0957
G01 X15.1384 Y59.9639
G01 X15.1395 Y59.9566
G01 X15.1416 Y59.9496
G01 X15.1453 Y59.9420
G01 X15.1495 Y59.9360
G01 X15.1554 Y59.9299
G01 X15.1623 Y59.9248
G01 X15.3069 Y59.8413
G01 X15.5583 Y59.5899
G01 X15.7360 Y59.2821
G01 X15.8280 Y58.9387
G01 X15.8280 Y58.5833
G01 X15.7360 Y58.2399
G01 X15.5583 Y57.9321
G01 X15.3069 Y57.6807
G01 X15.1633 Y57.5978
G01 X15.1582 Y57.5944
G01 X15.1536 Y57.5905
G01 X15.1503 Y57.5869
G01 X15.1466 Y57.5821
G01 X15.1436 Y57.5768
G01 X15.1416 Y57.5724
G01 X15.1398 Y57.5666
G01 X15.1387 Y57.5606
G01 X15.1383 Y57.5557
G01 X15.1384 Y57.4239
G01 X15.1395 Y57.4166
G01 X15.1416 Y57.4096
G01 X15.1453 Y57.4020
G01 X15.1495 Y57.3960
G01 X15.1554 Y57.3899
G01 X15.1623 Y57.3848
G01 X15.3069 Y57.3013
G01 X15.5583 Y57.0499
G01 X15.7360 Y56.7421
G01 X15.8280 Y56.3987
G01 X15.8280 Y56.0433
G01 X15.7360 Y55.6999
G01 X15.5583 Y55.3921
G01 X15.3069 Y55.1407
G01 X15.1633 Y55.0578
G01 X15.1582 Y55.0544
G01 X15.1545 Y55.0513
G01 X15.1503 Y55.0469
G01 X15.1473 Y55.0431
G01 X15.1441 Y55.0379
G01 X15.1416 Y55.0324
G01 X15.1398 Y55.0266
G01 X15.1387 Y55.0206
G01 X15.1383 Y55.0157
G01 X15.1384 Y54.8839
G01 X15.1395 Y54.8766
G01 X15.1416 Y54.8696
G01 X15.1453 Y54.8620
G01 X15.1495 Y54.8560
G01 X15.1554 Y54.8499
G01 X15.1623 Y54.8448
G01 X15.3069 Y54.7613
G01 X15.5583 Y54.5099
G01 X15.7360 Y54.2021
G01 X15.8280 Y53.8587
G01 X15.8280 Y53.5033
G01 X15.7360 Y53.1599
G01 X15.5583 Y52.8521
G01 X15.3069 Y52.6007
G01 X15.1633 Y52.5178
G01 X15.1582 Y52.5144
G01 X15.1545 Y52.5113
G01 X15.1503 Y52.5069
G01 X15.1473 Y52.5031
G01 X15.1441 Y52.4979
G01 X15.1416 Y52.4924
G01 X15.1401 Y52.4877
G01 X15.1390 Y52.4830
G01 X15.1384 Y52.4769
G01 X15.1384 Y52.3439
G01 X15.1395 Y52.3366
G01 X15.1416 Y52.3296
G01 X15.1453 Y52.3220
G01 X15.1495 Y52.3160
G01 X15.1554 Y52.3099
G01 X15.1623 Y52.3048
G01 X15.3069 Y52.2213
G01 X15.5583 Y51.9699
G01 X15.7360 Y51.6621
G01 X15.8280 Y51.3187
G01 X15.8280 Y50.9633
G01 X15.7360 Y50.6199
G01 X15.5583 Y50.3121
G01 X15.3069 Y50.0607
G01 X15.1633 Y49.9778
G01 X15.1582 Y49.9744
G01 X15.1536 Y49.9705
G01 X15.1503 Y49.9669
G01 X15.1473 Y49.9631
G01 X15.1441 Y49.9579
G01 X15.1416 Y49.9524
G01 X15.1401 Y49.9477
G01 X15.1390 Y49.9430
G01 X15.1384 Y49.9369
G01 X15.1384 Y49.8039
G01 X15.1395 Y49.7966
G01 X15.1416 Y49.7896
G01 X15.1453 Y49.7820
G01 X15.1495 Y49.7760
G01 X15.1554 Y49.7699
G01 X15.1623 Y49.7648
G01 X15.3069 Y49.6813
G01 X15.5583 Y49.4299
G01 X15.7360 Y49.1221
G01 X15.8280 Y48.7787
G01 X15.8280 Y48.4233
G01 X15.7360 Y48.0799
G01 X15.5583 Y47.7721
G01 X15.3069 Y47.5207
G01 X15.1633 Y47.4378
G01 X15.1582 Y47.4344
G01 X15.1536 Y47.4305
G01 X15.1503 Y47.4269
G01 X15.1473 Y47.4231
G01 X15.1441 Y47.4179
G01 X15.1416 Y47.4124
G01 X15.1401 Y47.4077
G01 X15.1390 Y47.4030
G01 X15.1384 Y47.3969
G01 X15.1384 Y47.2639
G01 X15.1395 Y47.2566
G01 X15.1416 Y47.2496
G01 X15.1453 Y47.2420
G01 X15.1495 Y47.2360
G01 X15.1554 Y47.2299
G01 X15.1623 Y47.2248
G01 X15.3069 Y47.1413
G01 X15.5583 Y46.8899
G01 X15.7360 Y46.5821
G01 X15.8280 Y46.2387
G01 X15.8280 Y45.8833
G01 X15.7360 Y45.5399
G01 X15.5583 Y45.2321
G01 X15.3069 Y44.9807
G01 X15.1592 Y44.8952
G01 X15.1554 Y44.8921
G01 X15.1511 Y44.8879
G01 X15.1473 Y44.8831
G01 X15.1447 Y44.8790
G01 X15.1425 Y44.8746
G01 X15.1404 Y44.8689
G01 X15.1392 Y44.8642
G01 X15.1384 Y44.8581
G01 X15.1384 Y44.7239
G01 X15.1395 Y44.7166
G01 X15.1416 Y44.7096
G01 X15.1453 Y44.7020
G01 X15.1495 Y44.6960
G01 X15.1554 Y44.6899
G01 X15.1623 Y44.6848
G01 X15.3069 Y44.6013
G01 X15.5583 Y44.3499
G01 X15.7360 Y44.0421
G01 X15.8280 Y43.6987
G01 X15.8280 Y43.3433
G01 X15.7360 Y42.9999
G01 X15.5583 Y42.6921
G01 X15.3069 Y42.4407
G01 X15.1592 Y42.3552
G01 X15.1554 Y42.3521
G01 X15.1511 Y42.3479
G01 X15.1453 Y42.3400
G01 X15.1430 Y42.3357
G01 X15.1408 Y42.3301
G01 X15.1392 Y42.3242
G01 X15.1385 Y42.3194
G01 X15.1384 Y42.1839
G01 X15.1395 Y42.1766
G01 X15.1416 Y42.1696
G01 X15.1453 Y42.1620
G01 X15.1495 Y42.1560
G01 X15.1554 Y42.1499
G01 X15.1623 Y42.1448
G01 X15.3069 Y42.0613
G01 X15.5583 Y41.8099
G01 X15.7360 Y41.5021
G01 X15.8280 Y41.1587
G01 X15.8280 Y40.8033
G01 X15.7360 Y40.4599
G01 X15.5583 Y40.1521
G01 X15.3069 Y39.9007
G01 X15.1592 Y39.8152
G01 X15.1554 Y39.8121
G01 X15.1511 Y39.8079
G01 X15.1453 Y39.8000
G01 X15.1412 Y39.7912
G01 X15.1388 Y39.7818
G01 X15.1383 Y39.7745
G01 X15.1384 Y39.6439
G01 X15.1395 Y39.6366
G01 X15.1416 Y39.6296
G01 X15.1453 Y39.6220
G01 X15.1495 Y39.6160
G01 X15.1554 Y39.6099
G01 X15.1623 Y39.6048
G01 X15.3069 Y39.5213
G01 X15.5583 Y39.2699
G01 X15.7360 Y38.9621
G01 X15.8280 Y38.6187
G01 X15.8280 Y38.2633
G01 X15.7360 Y37.9199
G01 X15.5583 Y37.6121
G01 X15.3069 Y37.3607
G01 X15.1920 Y37.2943
G01 X15.1870 Y37.2907
G01 X15.1834 Y37.2873
G01 X15.1794 Y37.2826
G01 X15.1766 Y37.2786
G01 X15.1727 Y37.2709
G01 X15.1699 Y37.2614
G01 X15.1691 Y37.2516
G01 X15.1700 Y37.2430
G01 X15.2051 Y37.1112
G01 X15.2083 Y37.1031
G01 X15.2135 Y37.0948
G01 X15.2176 Y37.0901
G01 X15.2212 Y37.0868
G01 X15.2252 Y37.0838
G01 X15.2305 Y37.0807
G01 X15.2350 Y37.0787
G01 X15.2409 Y37.0768
G01 X15.2469 Y37.0757
G01 X15.2519 Y37.0753
G01 X15.4928 Y37.0754
G01 X15.5013 Y37.0765
G01 X15.5083 Y37.0787
G01 X15.5149 Y37.0818
G01 X15.5211 Y37.0859
G01 X15.5257 Y37.0899
G01 X16.5789 Y38.1433
G00 Z2.0000
G00 X15.4231 Y38.3454
G01 F60.00
G01 Z0.0000
G01 F120.00
G01 X15.4280 Y38.4410
G01 X15.4234 Y38.5341
G01 X15.4097 Y38.6263
G01 X15.3871 Y38.7168
G01 X15.3557 Y38.8045
G01 X15.3158 Y38.8888
G01 X15.2679 Y38.9688
G01 X15.2124 Y39.0437
G01 X15.1498 Y39.1128
G01 X15.0807 Y39.1754
G01 X15.0058 Y39.2309
G01 X14.9258 Y39.2788
G01 X14.8415 Y39.3187
G01 X14.7538 Y39.3501
G01 X14.6633 Y39.3727
G01 X14.5711 Y39.3864
G01 X14.4780 Y39.3910
G01 X14.3849 Y39.3864
G01 X14.2927 Y39.3727
G01 X14.2022 Y39.3501
G01 X14.1145 Y39.3187
G01 X14.0302 Y39.2788
G01 X13.9502 Y39.2309
G01 X13.8753 Y39.1754
G01 X13.8062 Y39.1128
G01 X13.7436 Y39.0437
G01 X13.6881 Y38.9688
G01 X13.6402 Y38.8888
G01 X13.6003 Y38.8045
G01 X13.5689 Y38.7168
G01 X13.5463 Y38.6263
G01 X13.5326 Y38.5341
G01 X13.5280 Y38.4410
G01 X13.5326 Y38.3479
G01 X13.5463 Y38.2557
G01 X13.5689 Y38.1652
G01 X13.6003 Y38.0775
G01 X13.6402 Y37.9932
G01 X13.6881 Y37.9132
G01 X13.7436 Y37.8383
G01 X13.8062 Y37.7692
G01 X13.8753 Y37.7066
G01 X13.9502 Y37.6511
G01 X14.0302 Y37.6032
G01 X14.1145 Y37.5633
G01 X14.2022 Y37.5319
G01 X14.2927 Y37.5093
G01 X14.3849 Y37.4956
G01 X14.4780 Y37.4910
G01 X14.5711 Y37.4956
G01 X14.6633 Y37.5093
G01 X14.7538 Y37.5319
G01 X14.8415 Y37.5633
G01 X14.9258 Y37.6032
G01 X15.0058 Y37.6511
G01 X15.0807 Y37.7066
G01 X15.1498 Y37.7692
G01 X15.2124 Y37.8383
G01 X15.2679 Y37.9132
G01 X15.3158 Y37.9932
G01 X15.3557 Y38.0775
G01 X15.3871 Y38.1652
G01 X15.4097 Y38.2557
G01 X15.4231 Y38.3454
G00 Z2.0000
G00 X15.4231 Y40.8854
G01 F60.00
G01 Z0.0000
G01 F120.00
G01 X15.4280 Y40.9810
G01 X15.4234 Y41.0741
G01 X15.4097 Y41.1663
G01 X15.3871 Y41.2568
G01 X15.3557 Y41.3445
G01 X15.3158 Y41.4288
G01 X15.2679 Y41.5088
G01 X15.2124 Y41.5837
G01 X15.1498 Y41.6528
G01 X15.0807 Y41.7154
G01 X15.0058 Y41.7709
G01 X14.9258 Y41.8188
G01 X14.8415 Y41.8587
G01 X14.7538 Y41.8901
G01 X14.6633 Y41.9127
G01 X14.5711 Y41.9264
G01 X14.4780 Y41.9310
G01 X14.3849 Y41.9264
G01 X14.2927 Y41.9127
G01 X14.2022 Y41.8901
G01 X14.1145 Y41.8587
G01 X14.0302 Y41.8188
G01 X13.9502 Y41.7709
G01 X13.8753 Y41.7154
G01 X13.8062 Y41.6528
G01 X13.7436 Y41.5837
G01 X13.6881 Y41.5088
G01 X13.6402 Y41.4288
G01 X13.6003 Y41.3445
G01 X13.5689 Y41.2568
G01 X13.5463 Y41.1663
G01 X13.5326 Y41.0741
G01 X13.5280 Y40.9810
G01 X13.5326 Y40.8879
G01 X13.5463 Y40.7957
G01 X13.5689 Y40.7052
G01 X13.6003 Y40.6175
G01 X13.6402 Y40.5332
G01 X13.6881 Y40.4532
G01 X13.7436 Y40.3783
G01 X13.8062 Y40.3092
G01 X13.8753 Y40.2466
G01 X13.9502 Y40.1911
G01 X14.0302 Y40.1432
G01 X14.1145 Y40.1033
G01 X14.2022 Y40.0719
G01 X14.2927 Y40.0493
G01 X14.3849 Y40.0356
G01 X14.4780 Y40.0310
G01 X14.5711 Y40.0356
G01 X14.6633 Y40.0493
G01 X14.7538 Y40.0719
G01 X14.8415 Y40.1033
G01 X14.9258 Y40.1432
G01 X15.0058 Y40.1911
G01 X15.0807 Y40.2466
G01 X15.1498 Y40.3092
G01 X15.2124 Y40.3783
G01 X15.2679 Y40.4532
G01 X15.3158 Y40.5332
G01 X15.3557 Y40.6175
G01 X15.3871 Y40.7052
G01 X15.4097 Y40.7957
G01 X15.4231 Y40.8854
G00 Z2.0000
G00 X15.4231 Y43.4254
G01 F60.00
G01 Z0.0000
G01 F120.00
G01 X15.4280 Y43.5210
G01 X15.4234 Y43.6141
G01 X15.4097 Y43.7063
G01 X15.3871 Y43.7968
G01 X15.3557 Y43.8845
G01 X15.3158 Y43.9688
G01 X15.2679 Y44.0488
G01 X15.2124 Y44.1237
G01 X15.1498 Y44.1928
G01 X15.0807 Y44.2554
G01 X15.0058 Y44.3109
G01 X14.9258 Y44.3588
G01 X14.8415 Y44.3987
G01 X14.7538 Y44.4301
G01 X14.6633 Y44.4527
G01 X14.5711 Y44.4664
G01 X14.4780 Y44.4710
G01 X14.3849 Y44.4664
G01 X14.2927 Y44.4527
G01 X14.2022 Y44.4301
G01 X14.1145 Y44.3987
G01 X14.0302 Y44.3588
G01 X13.9502 Y44.3109
G01 X13.8753 Y44.2554
G01 X13.8062 Y44.1928
G01 X13.7436 Y44.1237
G01 X13.6881 Y44.0488
G01 X13.6402 Y43.9688
G01 X13.6003 Y43.8845
G01 X13.5689 Y43.7968
G01 X13.5463 Y43.7063
G01 X13.5326 Y43.6141
G01 X13.5280 Y43.5210
G01 X13.5326 Y43.4279
G01 X13.5463 Y43.3357
G01 X13.5689 Y43.2452
G01 X13.6003 Y43.1575
G01 X13.6402 Y43.0732
G01 X13.6881 Y42.9932
G01 X13.7436 Y42.9183
G01 X13.8062 Y42.8492
G01 X13.8753 Y42.7866
G01 X13.9502 Y42.7311
G01 X14.0302 Y42.6832
G01 X14.1145 Y42.6433
G01 X14.2022 Y42.6119
G01 X14.2927 Y42.5893
G01 X14.3849 Y42.5756
G01 X14.4780 Y42.5710
G01 X14.5711 Y42.5756
G01 X14.6633 Y42.5893
G01 X14.7538 Y42.6119
G01 X14.8415 Y42.6433
G01 X14.9258 Y42.6832
G01 X15.0058 Y42.7311
G01 X15.0807 Y42.7866
G01 X15.1498 Y42.8492
G01 X15.2124 Y42.9183
G01 X15.2679 Y42.9932
G01 X15.3158 Y43.0732
G01 X15.3557 Y43.1575
G01 X15.3871 Y43.2452
G01 X15.4097 Y43.3357
G01 X15.4231 Y43.4254
G00 Z2.0000
G00 X15.4231 Y45.9654
G01 F60.00
G01 Z0.0000
G01 F120.00
G01 X15.4280 Y46.0610
G01 X15.4234 Y46.1541
G01 X15.4097 Y46.2463
G01 X15.3871 Y46.3368
G01 X15.3557 Y46.4245
G01 X15.3158 Y46.5088
G01 X15.2679 Y46.5888
G01 X15.2124 Y46.6637
G01 X15.1498 Y46.7328
G01 X15.0807 Y46.7954
G01 X15.0058 Y46.8509
G01 X14.9258 Y46.8988
G01 X14.8415 Y46.9387
G01 X14.7538 Y46.9701
G01 X14.6633 Y46.9927
G01 X14.5711 Y47.0064
G01 X14.4780 Y47.0110
G01 X14.3849 Y47.0064
G01 X14.2927 Y46.9927
G01 X14.2022 Y46.9701
G01 X14.1145 Y46.9387
G01 X14.0302 Y46.8988
G01 X13.9502 Y46.8509
G01 X13.8753 Y46.7954
G01 X13.8062 Y46.7328
G01 X13.7436 Y46.6637
G01 X13.6881 Y46.5888
G01 X13.6402 Y46.5088
G01 X13.6003 Y46.4245
G01 X13.5689 Y46.3368
G01 X13.5463 Y46.2463
G01 X13.5326 Y46.1541
G01 X13.5280 Y46.0610
G01 X13.5326 Y45.9679
G01 X13.5463 Y45.8757
G01 X13.5689 Y45.7852
G01 X13.6003 Y45.6975
G01 X13.6402 Y45.6132
G01 X13.6881 Y45.5332
G01 X13.7436 Y45.4583
G01 X13.8062 Y45.3892
G01 X13.8753 Y45.3266
G01 X13.9502 Y45.2711
G01 X14.0302 Y45.2232
G01 X14.1145 Y45.1833
G01 X14.2022 Y45.1519
G01 X14.2927 Y45.1293
G01 X14.3849 Y45.1156
G01 X14.4780 Y45.1110
G01 X14.5711 Y45.1156
G01 X14.6633 Y45.1293
G01 X14.7538 Y45.1519
G01 X14.8415 Y45.1833
G01 X14.9258 Y45.2232
G01 X15.0058 Y45.2711
G01 X15.0807 Y45.3266
G01 X15.1498 Y45.3892
G01 X15.2124 Y45.4583
G01 X15.2679 Y45.5332
G01 X15.3158 Y45.6132
G01 X15.3557 Y45.6975
G01 X15.3871 Y45.7852
G01 X15.4097 Y45.8757
G01 X15.4231 Y45.9654
G00 Z2.0000
G00 X15.4231 Y48.5054
G01 F60.00
G01 Z0.0000
G01 F120.00
G01 X15.4280 Y48.6010
G01 X15.4234 Y48.6941
G01 X15.4097 Y48.7863
G01 X15.3871 Y48.8768
G01 X15.3557 Y48.9645
G01 X15.3158 Y49.0488
G01 X15.2679 Y49.1288
G01 X15.2124 Y49.2037
G01 X15.1498 Y49.2728
G01 X15.0807 Y49.3354
G01 X15.0058 Y49.3909
G01 X14.9258 Y49.4388
G01 X14.8415 Y49.4787
G01 X14.7538 Y49.5101
G01 X14.6633 Y49.5327
G01 X14.5711 Y49.5464
G01 X14.4780 Y49.5510
G01 X14.3849 Y49.5464
G01 X14.2927 Y49.5327
G01 X14.2022 Y49.5101
G01 X14.1145 Y49.4787
G01 X14.0302 Y49.4388
G01 X13.9502 Y49.3909
G01 X13.8753 Y49.3354
G01 X13.8062 Y49.2728
G01 X13.7436 Y49.2037
G01 X13.6881 Y49.1288
G01 X13.6402 Y49.0488
G01 X13.6003 Y48.9645
G01 X13.5689 Y48.8768
G01 X13.5463 Y48.7863
G01 X13.5326 Y48.6941
G01 X13.5280 Y48.6010
G01 X13.5326 Y48.5079
G01 X13.5463 Y48.4157
G01 X13.5689 Y48.3252
G01 X13.6003 Y48.2375
G01 X13.6402 Y48.1532
G01 X13.6881 Y48.0732
G01 X13.7436 Y47.9983
G01 X13.8062 Y47.9292
G01 X13.8753 Y47.8666
G01 X13.9502 Y47.8111
G01 X14.0302 Y47.7632
G01 X14.1145 Y47.7233
G01 X14.2022 Y47.6919
G01 X14.2927 Y47.6693
G01 X14.3849 Y47.6556
G01 X14.4780 Y47.6510
G01 X14.5711 Y47.6556
G01 X14.6633 Y47.6693
G01 X14.7538 Y47.6919
G01 X14.8415 Y47.7233
G01 X14.9258 Y47.7632
G01 X15.0058 Y47.8111
G01 X15.0807 Y47.8666
G01 X15.1498 Y47.9292
G01 X15.2124 Y47.9983
G01 X15.2679 Y48.0732
G01 X15.3158 Y48.1532
G01 X15.3557 Y48.2375
G01 X15.3871 Y48.3252
G01 X15.4097 Y48.4157
G01 X15.4231 Y48.5054
G00 Z2.0000
G00 X15.4231 Y51.0454
G01 F60.00
G01 Z0.0000
G01 F120.00
G01 X15.4280 Y51.1410
G01 X15.4234 Y51.2341
G01 X15.4097 Y51.3263
G01 X15.3871 Y51.4168
G01 X15.3557 Y51.5045
G01 X15.3158 Y51.5888
G01 X15.2679 Y51.6688
G01 X15.2124 Y51.7437
G01 X15.1498 Y51.8128
G01 X15.0807 Y51.8754
G01 X15.0058 Y51.9309
G01 X14.9258 Y51.9788
G01 X14.8415 Y52.0187
G01 X14.7538 Y52.0501
G01 X14.6633 Y52.0727
G01 X14.5711 Y52.0864
G01 X14.4780 Y52.0910
G01 X14.3849 Y52.0864
G01 X14.2927 Y52.0727
G01 X14.2022 Y52.0501
G01 X14.1145 Y52.0187
G01 X14.0302 Y51.9788
G01 X13.9502 Y51.9309
G01 X13.8753 Y51.8754
G01 X13.8062 Y51.8128
G01 X13.7436 Y51.7437
G01 X13.6881 Y51.6688
G01 X13.6402 Y51.5888
G01 X13.6003 Y51.5045
G01 X13.5689 Y51.4168
G01 X13.5463 Y51.3263
G01 X13.5326 Y51.2341
G01 X13.5280 Y51.1410
G01 X13.5326 Y51.0479
G01 X13.5463 Y50.9557
G01 X13.5689 Y50.8652
G01 X13.6003 Y50.7775
G01 X13.6402 Y50.6932
G01 X13.6881 Y50.6132
G01 X13.7436 Y50.5383
G01 X13.8062 Y50.4692
G01 X13.8753 Y50.4066
G01 X13.9502 Y50.3511
G01 X14.0302 Y50.3032
G01 X14.1145 Y50.2633
G01 X14.2022 Y50.2319
G01 X14.2927 Y50.2093
G01 X14.3849 Y50.1956
G01 X14.4780 Y50.1910
G01 X14.5711 Y50.1956
G01 X14.6633 Y50.2093
G01 X14.7538 Y50.2319
G01 X14.8415 Y50.2633
G01 X14.9258 Y50.3032
G01 X15.0058 Y50.3511
G01 X15.0807 Y50.4066
G01 X15.1498 Y50.4692
G01 X15.2124 Y50.5383
G01 X15.2679 Y50.6132
G01 X15.3158 Y50.6932
G01 X15.3557 Y50.7775
G01 X15.3871 Y50.8652
G01 X15.4097 Y50.9557
G01 X15.4231 Y51.0454
G00 Z2.0000
G00 X15.4231 Y53.5854
G01 F60.00
G01 Z0.0000
G01 F120.00
G01 X15.4280 Y53.6810
G01 X15.4234 Y53.7741
G01 X15.4097 Y53.8663
G01 X15.3871 Y53.9568
G01 X15.3557 Y54.0445
G01 X15.3158 Y54.1288
G01 X15.2679 Y54.2088
G01 X15.2124 Y54.2837
G01 X15.1498 Y54.3528
G01 X15.0807 Y54.4154
G01 X15.0058 Y54.4709
G01 X14.9258 Y54.5188
G01 X14.8415 Y54.5587
G01 X14.7538 Y54.5901
G01 X14.6633 Y54.6127
G01 X14.5711 Y54.6264
G01 X14.4780 Y54.6310
G01 X14.3849 Y54.6264
G01 X14.2927 Y54.6127
G01 X14.2022 Y54.5901
G01 X14.1145 Y54.5587
G01 X14.0302 Y54.5188
G01 X13.9502 Y54.4709
G01 X13.8753 Y54.4154
G01 X13.8062 Y54.3528
G01 X13.7436 Y54.2837
G01 X13.6881 Y54.2088
G01 X13.6402 Y54.1288
G01 X13.6003 Y54.0445
G01 X13.5689 Y53.9568
G01 X13.5463 Y53.8663
G01 X13.5326 Y53.7741
G01 X13.5280 Y53.6810
G01 X13.5326 Y53.5879
G01 X13.5463 Y53.4957
G01 X13.5689 Y53.4052
G01 X13.6003 Y53.3175
G01 X13.6402 Y53.2332
G01 X13.6881 Y53.1532
G01 X13.7436 Y53.0783
G01 X13.8062 Y53.0092
G01 X13.8753 Y52.9466
G01 X13.9502 Y52.8911
G01 X14.0302 Y52.8432
G01 X14.1145 Y52.8033
G01 X14.2022 Y52.7719
G01 X14.2927 Y52.7493
G01 X14.3849 Y52.7356
G01 X14.4780 Y52.7310
G01 X14.5711 Y52.7356
G01 X14.6633 Y52.7493
G01 X14.7538 Y52.7719
G01 X14.8415 Y52.8033
G01 X14.9258 Y52.8432
G01 X15.0058 Y52.8911
G01 X15.0807 Y52.9466
G01 X15.1498 Y53.0092
G01 X15.2124 Y53.0783
G01 X15.2679 Y53.1532
G01 X15.3158 Y53.2332
G01 X15.3557 Y53.3175
G01 X15.3871 Y53.4052
G01 X15.4097 Y53.4957
G01 X15.4231 Y53.5854
G00 Z2.0000
G00 X15.4231 Y56.1254
G01 F60.00
G01 Z0.0000
G01 F120.00
G01 X15.4280 Y56.2210
G01 X15.4234 Y56.3141
G01 X15.4097 Y56.4063
G01 X15.3871 Y56.4968
G01 X15.3557 Y56.5845
G01 X15.3158 Y56.6688
G01 X15.2679 Y56.7488
G01 X15.2124 Y56.8237
G01 X15.1498 Y56.8928
G01 X15.0807 Y56.9554
G01 X15.0058 Y57.0109
G01 X14.9258 Y57.0588
G01 X14.8415 Y57.0987
G01 X14.7538 Y57.1301
G01 X14.6633 Y57.1527
G01 X14.5711 Y57.1664
G01 X14.4780 Y57.1710
G01 X14.3849 Y57.1664
G01 X14.2927 Y57.1527
G01 X14.2022 Y57.1301
G01 X14.1145 Y57.0987
G01 X14.0302 Y57.0588
G01 X13.9502 Y57.0109
G01 X13.8753 Y56.9554
G01 X13.8062 Y56.8928
G01 X13.7436 Y56.8237
G01 X13.6881 Y56.7488
G01 X13.6402 Y56.6688
G01 X13.6003 Y56.5845
G01 X13.5689 Y56.4968
G01 X13.5463 Y56.4063
G01 X13.5326 Y56.3141
G01 X13.5280 Y56.2210
G01 X13.5326 Y56.1279
G01 X13.5463 Y56.0357
G01 X13.5689 Y55.9452
G01 X13.6003 Y55.8575
G01 X13.6402 Y55.7732
G01 X13.6881 Y55.6932
G01 X13.7436 Y55.6183
G01 X13.8062 Y55.5492
G01 X13.8753 Y55.4866
G01 X13.9502 Y55.4311
G01 X14.0302 Y55.3832
G01 X14.1145 Y55.3433
G01 X14.2022 Y55.3119
G01 X14.2927 Y55.2893
G01 X14.3849 Y55.2756
G01 X14.4780 Y55.2710
G01 X14.5711 Y55.2756
G01 X14.6633 Y55.2893
G01 X14.7538 Y55.3119
G01 X14.8415 Y55.3433
G01 X14.9258 Y55.3832
G01 X15.0058 Y55.4311
G01 X15.0807 Y55.4866
G01 X15.1498 Y55.5492
G01 X15.2124 Y55.6183
G01 X15.2679 Y55.6932
G01 X15.3158 Y55.7732
G01 X15.3557 Y55.8575
G01 X15.3871 Y55.9452
G01 X15.4097 Y56.0357
G01 X15.4231 Y56.1254
G00 Z2.0000
G00 X15.4231 Y58.6654
G01 F60.00
G01 Z0.0000
G01 F120.00
G01 X15.4280 Y58.7610
G01 X15.4234 Y58.8541
G01 X15.4097 Y58.9463
G01 X15.3871 Y59.0368
G01 X15.3557 Y59.1245
G01 X15.3158 Y59.2088
G01 X15.2679 Y59.2888
G01 X15.2124 Y59.3637
G01 X15.1498 Y59.4328
G01 X15.0807 Y59.4954
G01 X15.0058 Y59.5509
G01 X14.9258 Y59.5988
G01 X14.8415 Y59.6387
G01 X14.7538 Y59.6701
G01 X14.6633 Y59.6927
G01 X14.5711 Y59.7064
G01 X14.4780 Y59.7110
G01 X14.3849 Y59.7064
G01 X14.2927 Y59.6927
G01 X14.2022 Y59.6701
G01 X14.1145 Y59.6387
G01 X14.0302 Y59.5988
G01 X13.9502 Y59.5509
G01 X13.8753 Y59.4954
G01 X13.8062 Y59.4328
G01 X13.7436 Y59.3637
G01 X13.6881 Y59.2888
G01 X13.6402 Y59.2088
G01 X13.6003 Y59.1245
G01 X13.5689 Y59.0368
G01 X13.5463 Y58.9463
G01 X13.5326 Y58.8541
G01 X13.5280 Y58.7610
G01 X13.5326 Y58.6679
G01 X13.5463 Y58.5757
G01 X13.5689 Y58.4852
G01 X13.6003 Y58.3975
G01 X13.6402 Y58.3132
G01 X13.6881 Y58.2332
G01 X13.7436 Y58.1583
G01 X13.8062 Y58.0892
G01 X13.8753 Y58.0266
G01 X13.9502 Y57.9711
G01 X14.0302 Y57.9232
G01 X14.1145 Y57.8833
G01 X14.2022 Y57.8519
G01 X14.2927 Y57.8293
G01 X14.3849 Y57.8156
G01 X14.4780 Y57.8110
G01 X14.5711 Y57.8156
G01 X14.6633 Y57.8293
G01 X14.7538 Y57.8519
G01 X14.8415 Y57.8833
G01 X14.9258 Y57.9232
G01 X15.0058 Y57.9711
G01 X15.0807 Y58.0266
G01 X15.1498 Y58.0892
G01 X15.2124 Y58.1583
G01 X15.2679 Y58.2332
G01 X15.3158 Y58.3132
G01 X15.3557 Y58.3975
G01 X15.3871 Y58.4852
G01 X15.4097 Y58.5757
G01 X15.4231 Y58.6654
G00 Z2.0000
G00 X15.4231 Y61.2054
G01 F60.00
G01 Z0.0000
G01 F120.00
G01 X15.4280 Y61.3010
G01 X15.4234 Y61.3941
G01 X15.4097 Y61.4863
G01 X15.3871 Y61.5768
G01 X15.3557 Y61.6645
G01 X15.3158 Y61.7488
G01 X15.2679 Y61.8288
G01 X15.2124 Y61.9037
G01 X15.1498 Y61.9728
G01 X15.0807 Y62.0354
G01 X15.0058 Y62.0909
G01 X14.9258 Y62.1388
G01 X14.8415 Y62.1787
G01 X14.7538 Y62.2101
G01 X14.6633 Y62.2327
G01 X14.5711 Y62.2464
G01 X14.4780 Y62.2510
G01 X14.3849 Y62.2464
G01 X14.2927 Y62.2327
G01 X14.2022 Y62.2101
G01 X14.1145 Y62.1787
G01 X14.0302 Y62.1388
G01 X13.9502 Y62.0909
G01 X13.8753 Y62.0354
G01 X13.8062 Y61.9728
G01 X13.7436 Y61.9037
G01 X13.6881 Y61.8288
G01 X13.6402 Y61.7488
G01 X13.6003 Y61.6645
G01 X13.5689 Y61.5768
G01 X13.5463 Y61.4863
G01 X13.5326 Y61.3941
G01 X13.5280 Y61.3010
G01 X13.5326 Y61.2079
G01 X13.5463 Y61.1157
G01 X13.5689 Y61.0252
G01 X13.6003 Y60.9375
G01 X13.6402 Y60.8532
G01 X13.6881 Y60.7732
G01 X13.7436 Y60.6983
G01 X13.8062 Y60.6292
G01 X13.8753 Y60.5666
G01 X13.9502 Y60.5111
G01 X14.0302 Y60.4632
G01 X14.1145 Y60.4233
G01 X14.2022 Y60.3919
G01 X14.2927 Y60.3693
G01 X14.3849 Y60.3556
G01 X14.4780 Y60.3510
G01 X14.5711 Y60.3556
G01 X14.6633 Y60.3693
G01 X14.7538 Y60.3919
G01 X14.8415 Y60.4233
G01 X14.9258 Y60.4632
G01 X15.0058 Y60.5111
G01 X15.0807 Y60.5666
G01 X15.1498 Y60.6292
G01 X15.2124 Y60.6983
G01 X15.2679 Y60.7732
G01 X15.3158 Y60.8532
G01 X15.3557 Y60.9375
G01 X15.3871 Y61.0252
G01 X15.4097 Y61.1157
G01 X15.4231 Y61.2054
G00 Z2.0000
G00 X10.0177 Y63.6978
G01 F60.00
G01 Z0.0000
G01 F120.00
G01 X9.9967 Y63.6390
G01 X9.9812 Y63.5771
G01 X9.9718 Y63.5139
G01 X9.9687 Y63.4502
G01 X9.9687 Y19.3301
G01 X9.0652 Y18.4265
G01 X9.0239 Y18.3811
G01 X8.9843 Y18.3280
G01 X8.9515 Y18.2732
G01 X8.9242 Y18.2156
G01 X8.9020 Y18.1531
G01 X8.8872 Y18.0936
G01 X8.8781 Y18.0329
G01 X8.8747 Y17.9667
G01 X8.8747 Y14.5033
G01 X8.8524 Y14.4829
G01 X8.7914 Y14.4156
G01 X8.7358 Y14.3408
G01 X8.6872 Y14.2598
G01 X8.6478 Y14.1767
G01 X8.6159 Y14.0878
G01 X8.5933 Y13.9973
G01 X8.5796 Y13.9051
G01 X8.5750 Y13.8120
G01 X8.5750 Y13.1120
G01 X8.5796 Y13.0189
G01 X8.5933 Y12.9267
G01 X8.6159 Y12.8362
G01 X8.6473 Y12.7485
G01 X8.6878 Y12.6631
G01 X8.7351 Y12.5842
G01 X8.7891 Y12.5113
G01 X8.8532 Y12.4402
G01 X8.9243 Y12.3761
G01 X8.9972 Y12.3221
G01 X9.0750 Y12.2754
G01 X9.1615 Y12.2343
G01 X9.2516 Y12.2023
G01 X9.3397 Y12.1803
G01 X9.4294 Y12.1669
G01 X9.5250 Y12.1620
G01 X9.6181 Y12.1666
G01 X9.7103 Y12.1803
G01 X9.8008 Y12.2029
G01 X9.8863 Y12.2334
G01 X9.9750 Y12.2754
G01 X10.0528 Y12.3221
G01 X10.1295 Y12.3792
G01 X10.1968 Y12.4402
G01 X10.2594 Y12.5093
G01 X10.3149 Y12.5842
G01 X10.3628 Y12.6642
G01 X10.4027 Y12.7485
G01 X10.4341 Y12.8362
G01 X10.4567 Y12.9267
G01 X10.4703 Y13.0177
G01 X10.4750 Y13.1120
G01 X10.4750 Y13.8132
G01 X10.4704 Y13.9051
G01 X10.4567 Y13.9973
G01 X10.4341 Y14.0878
G01 X10.4036 Y14.1733
G01 X10.3622 Y14.2609
G01 X10.3149 Y14.3398
G01 X10.2601 Y14.4137
G01 X10.1976 Y14.4829
G01 X10.1753 Y14.5033
G01 X10.1753 Y17.6973
G01 X11.0788 Y18.6009
G01 X11.1217 Y18.6482
G01 X11.1597 Y18.6994
G01 X11.1913 Y18.7520
G01 X11.2207 Y18.8141
G01 X11.2413 Y18.8719
G01 X11.2568 Y18.9338
G01 X11.2662 Y18.9970
G01 X11.2693 Y19.0595
G01 X11.2693 Y62.9500
G01 X11.2843 Y62.9592
G01 X11.3336 Y62.9957
G01 X11.3818 Y63.0394
G01 X13.6732 Y65.3307
G01 X14.0780 Y65.3307
G01 X14.1430 Y65.3340
G01 X14.2049 Y65.3432
G01 X14.2691 Y65.3595
G01 X14.3291 Y65.3812
G01 X14.3845 Y65.4075
G01 X14.4239 Y65.4310
G01 X15.1530 Y65.4310
G01 X15.1800 Y65.4323
G01 X15.2066 Y65.4363
G01 X15.2305 Y65.4422
G01 X15.2605 Y65.4529
G01 X15.2826 Y65.4635
G01 X15.3058 Y65.4773
G01 X15.3275 Y65.4934
G01 X15.3475 Y65.5115
G01 X15.3656 Y65.5315
G01 X15.3817 Y65.5532
G01 X15.3955 Y65.5764
G01 X15.4061 Y65.5985
G01 X15.4168 Y65.6285
G01 X15.4227 Y65.6524
G01 X15.4269 Y65.6815
G01 X15.4280 Y65.7060
G01 X15.4280 Y67.0572
G01 X15.4267 Y67.0830
G01 X15.4227 Y67.1096
G01 X15.4162 Y67.1358
G01 X15.4080 Y67.1589
G01 X15.3955 Y67.1856
G01 X15.3830 Y67.2067
G01 X15.3640 Y67.2323
G01 X15.3475 Y67.2505
G01 X15.3275 Y67.2686
G01 X15.3058 Y67.2847
G01 X15.2826 Y67.2985
G01 X15.2582 Y67.3101
G01 X15.2328 Y67.3192
G01 X15.2066 Y67.3257
G01 X15.1824 Y67.3294
G01 X15.1530 Y67.3310
G01 X13.8018 Y67.3310
G01 X13.7736 Y67.3294
G01 X13.7494 Y67.3257
G01 X13.7255 Y67.3198
G01 X13.6978 Y67.3101
G01 X13.6734 Y67.2985
G01 X13.6502 Y67.2847
G01 X13.6285 Y67.2686
G01 X13.6085 Y67.2505
G01 X13.5889 Y67.2285
G01 X13.5730 Y67.2067
G01 X13.5605 Y67.1856
G01 X13.5499 Y67.1635
G01 X13.5398 Y67.1358
G01 X13.5335 Y67.1109
G01 X13.5293 Y67.0830
G01 X13.5280 Y67.0560
G01 X13.5280 Y66.6313
G01 X13.4026 Y66.6313
G01 X13.3401 Y66.6282
G01 X13.2769 Y66.6188
G01 X13.2162 Y66.6036
G01 X13.1549 Y66.5818
G01 X13.0973 Y66.5545
G01 X13.0425 Y66.5217
G01 X12.9913 Y66.4837
G01 X12.9440 Y66.4408
G01 X11.3183 Y64.8152
G01 X11.3183 Y73.1520
G01 X11.3149 Y73.2182
G01 X11.3058 Y73.2789
G01 X11.2903 Y73.3408
G01 X11.2688 Y73.4009
G01 X11.2403 Y73.4607
G01 X11.2087 Y73.5133
G01 X11.1722 Y73.5626
G01 X11.1287 Y73.6110
G01 X8.5686 Y76.1710
G01 X8.5700 Y76.2012
G01 X8.5655 Y76.2919
G01 X8.5520 Y76.3841
G01 X8.5291 Y76.4758
G01 X8.4981 Y76.5624
G01 X8.4578 Y76.6478
G01 X8.4099 Y76.7278
G01 X8.3544 Y76.8027
G01 X8.2918 Y76.8718
G01 X8.2207 Y76.9359
G01 X8.1478 Y76.9899
G01 X8.0700 Y77.0366
G01 X7.9835 Y77.0777
G01 X7.8958 Y77.1091
G01 X7.8029 Y77.1322
G01 X7.7131 Y77.1454
G01 X7.6225 Y77.1499
G01 X7.5269 Y77.1454
G01 X7.4347 Y77.1317
G01 X7.3419 Y77.1083
G01 X7.2565 Y77.0777
G01 X7.1744 Y77.0389
G01 X7.0922 Y76.9899
G01 X7.0173 Y76.9344
G01 X6.9466 Y76.8700
G01 X6.8856 Y76.8027
G01 X6.8315 Y76.7298
G01 X6.7822 Y76.6478
G01 X6.7423 Y76.5635
G01 X6.7109 Y76.4758
G01 X6.6878 Y76.3829
G01 X6.6746 Y76.2931
G01 X6.6701 Y76.2025
G01 X6.6746 Y76.1069
G01 X6.6883 Y76.0147
G01 X6.7117 Y75.9219
G01 X6.7433 Y75.8342
G01 X6.7822 Y75.7522
G01 X6.8288 Y75.6743
G01 X6.8856 Y75.5973
G01 X6.9500 Y75.5266
G01 X7.0173 Y75.4656
G01 X7.0902 Y75.4115
G01 X7.1733 Y75.3616
G01 X7.2565 Y75.3223
G01 X7.3419 Y75.2917
G01 X7.4335 Y75.2685
G01 X7.5281 Y75.2545
G01 X7.6188 Y75.2500
G01 X7.6490 Y75.2514
G01 X10.0177 Y72.8826
G01 X10.0177 Y63.6978
G00 Z2.0000
G00 X25.7101 Y86.0104
G01 F60.00
G01 Z0.0000
G01 F120.00
G01 X25.7150 Y86.1060
G01 X25.7106 Y86.1967
G01 X25.6962 Y86.2937
G01 X25.6741 Y86.3818
G01 X25.6427 Y86.4695
G01 X25.6028 Y86.5538
G01 X25.5549 Y86.6338
G01 X25.4994 Y86.7087
G01 X25.4368 Y86.7778
G01 X25.3677 Y86.8404
G01 X25.2948 Y86.8945
G01 X25.2106 Y86.9449
G01 X25.1285 Y86.9837
G01 X25.0384 Y87.0157
G01 X24.9503 Y87.0377
G01 X24.8606 Y87.0511
G01 X24.7675 Y87.0559
G01 X24.6719 Y87.0514
G01 X24.5785 Y87.0375
G01 X24.4869 Y87.0143
G01 X24.4015 Y86.9837
G01 X24.3183 Y86.9444
G01 X24.2362 Y86.8952
G01 X24.1633 Y86.8411
G01 X24.1396 Y86.8198
G01 X22.5579 Y86.8198
G01 X15.6900 Y93.6877
G01 X15.6900 Y94.8892
G01 X15.6895 Y94.8953
G01 X15.6885 Y94.9001
G01 X15.6866 Y94.9060
G01 X15.6847 Y94.9105
G01 X15.6816 Y94.9158
G01 X15.6787 Y94.9197
G01 X15.6745 Y94.9242
G01 X15.6698 Y94.9282
G01 X15.6636 Y94.9321
G01 X15.6557 Y94.9355
G01 X15.6473 Y94.9375
G01 X15.6400 Y94.9380
G01 X14.4159 Y94.9380
G01 X14.3765 Y94.9615
G01 X14.3211 Y94.9878
G01 X14.2576 Y95.0106
G01 X14.1969 Y95.0258
G01 X14.1362 Y95.0349
G01 X14.0700 Y95.0383
G01 X14.0038 Y95.0349
G01 X13.9431 Y95.0258
G01 X13.8824 Y95.0106
G01 X13.8189 Y94.9878
G01 X13.7635 Y94.9615
G01 X13.7241 Y94.9380
G01 X13.5651 Y94.9378
G01 X13.5590 Y94.9368
G01 X13.5543 Y94.9355
G01 X13.5454 Y94.9315
G01 X13.5402 Y94.9282
G01 X13.5364 Y94.9250
G01 X13.5298 Y94.9178
G01 X13.5259 Y94.9116
G01 X13.5229 Y94.9048
G01 X13.5210 Y94.8978
G01 X13.5201 Y94.8905
G01 X13.5200 Y94.7339
G01 X13.4965 Y94.6945
G01 X13.4702 Y94.6391
G01 X13.4474 Y94.5756
G01 X13.4322 Y94.5149
G01 X13.4231 Y94.4542
G01 X13.4197 Y94.3880
G01 X13.4231 Y94.3218
G01 X13.4322 Y94.2611
G01 X13.4474 Y94.2004
G01 X13.4702 Y94.1369
G01 X13.4965 Y94.0815
G01 X13.5200 Y94.0421
G01 X13.5200 Y92.8180
G01 X13.5207 Y92.8095
G01 X13.5234 Y92.8000
