(G-CODE GENERATED BY FLATCAM v8.994 - www.flatcam.org - Version Date: 2020/11/7)

(Name: Controle_Motor.GBL_0.1000_iso_cnc)
(Type: G-code from Geometry)
(Units: MM)

(Created on Saturday, 31 July 2021 at 13:31)

(This preprocessor is the default preprocessor used by FlatCAM.)
(It is made to work with MACH3 compatible motion controllers.)

(TOOL DIAMETER: 0.1 mm)
(Feedrate_XY: 120.0 mm/min)
(Feedrate_Z: 60.0 mm/min)
(Feedrate rapids 1500.0 mm/min)

(Z_Cut: 0.0 mm)
(Z_Move: 2.0 mm)
(Z Start: None mm)
(Z End: 20.0 mm)
(X,Y End: None mm)
(Steps per circle: 64)
(Preprocessor Geometry: default)

(X range:   -0.3470 ...   60.4180  mm)
(Y range:   -0.2200 ...  120.4888  mm)

(Spindle Speed: 1000.0 RPM)
G21
G90
G94

G01 F120.00

M5
G00 Z15.0000
G00 X0.0000 Y0.0000
T1
M6    
(MSG, Change to Tool Dia = 0.1000)
M0
G00 Z15.0000

M03 S1000.0
G01 F120.00
G00 X5.0982 Y3.5286
G01 F60.00
G01 Z0.0000
G01 F120.00
G01 X5.1060 Y3.6830
G01 X5.0985 Y3.8349
G01 X5.0762 Y3.9854
G01 X5.0393 Y4.1329
G01 X4.9880 Y4.2762
G01 X4.9230 Y4.4137
G01 X4.8448 Y4.5441
G01 X4.7542 Y4.6663
G01 X4.6520 Y4.7790
G01 X4.5393 Y4.8812
G01 X4.4171 Y4.9718
G01 X4.2867 Y5.0500
G01 X4.1492 Y5.1150
G01 X4.0059 Y5.1663
G01 X3.8584 Y5.2032
G01 X3.7079 Y5.2255
G01 X3.5560 Y5.2330
G01 X3.4041 Y5.2255
G01 X3.2536 Y5.2032
G01 X3.1061 Y5.1663
G01 X2.9628 Y5.1150
G01 X2.8253 Y5.0500
G01 X2.6949 Y4.9718
G01 X2.5727 Y4.8812
G01 X2.4600 Y4.7790
G01 X2.3578 Y4.6663
G01 X2.2672 Y4.5441
G01 X2.1890 Y4.4137
G01 X2.1240 Y4.2762
G01 X2.0727 Y4.1329
G01 X2.0358 Y3.9854
G01 X2.0135 Y3.8349
G01 X2.0060 Y3.6830
G01 X2.0135 Y3.5311
G01 X2.0358 Y3.3806
G01 X2.0727 Y3.2331
G01 X2.1240 Y3.0898
G01 X2.1890 Y2.9523
G01 X2.2672 Y2.8219
G01 X2.3578 Y2.6997
G01 X2.4600 Y2.5870
G01 X2.5727 Y2.4848
G01 X2.6949 Y2.3942
G01 X2.8253 Y2.3160
G01 X2.9628 Y2.2510
G01 X3.1061 Y2.1997
G01 X3.2536 Y2.1628
G01 X3.4041 Y2.1405
G01 X3.5560 Y2.1330
G01 X3.7079 Y2.1405
G01 X3.8584 Y2.1628
G01 X4.0059 Y2.1997
G01 X4.1492 Y2.2510
G01 X4.2867 Y2.3160
G01 X4.4171 Y2.3942
G01 X4.5393 Y2.4848
G01 X4.6520 Y2.5870
G01 X4.7542 Y2.6997
G01 X4.8448 Y2.8219
G01 X4.9230 Y2.9523
G01 X4.9880 Y3.0898
G01 X5.0393 Y3.2331
G01 X5.0762 Y3.3806
G01 X5.0982 Y3.5286
G00 Z2.0000
G00 X5.1823 Y3.5162
G01 F60.00
G01 Z0.0000
G01 F120.00
G01 X5.1836 Y3.5294
G01 X5.1910 Y3.6830
G01 X5.1831 Y3.8433
G01 X5.1596 Y4.0020
G01 X5.1206 Y4.1576
G01 X5.0665 Y4.3087
G01 X4.9979 Y4.4537
G01 X4.9155 Y4.5914
G01 X4.8199 Y4.7202
G01 X4.7121 Y4.8391
G01 X4.5932 Y4.9469
G01 X4.4644 Y5.0425
G01 X4.3267 Y5.1249
G01 X4.1817 Y5.1935
G01 X4.0306 Y5.2476
G01 X3.8750 Y5.2866
G01 X3.7163 Y5.3101
G01 X3.5560 Y5.3180
G01 X3.3957 Y5.3101
G01 X3.2370 Y5.2866
G01 X3.0814 Y5.2476
G01 X2.9303 Y5.1935
G01 X2.7853 Y5.1249
G01 X2.6476 Y5.0425
G01 X2.5188 Y4.9469
G01 X2.3999 Y4.8391
G01 X2.2921 Y4.7202
G01 X2.1965 Y4.5914
G01 X2.1141 Y4.4537
G01 X2.0455 Y4.3087
G01 X1.9914 Y4.1576
G01 X1.9524 Y4.0020
G01 X1.9289 Y3.8433
G01 X1.9210 Y3.6830
G01 X1.9289 Y3.5227
G01 X1.9524 Y3.3640
G01 X1.9914 Y3.2084
G01 X2.0455 Y3.0573
G01 X2.1141 Y2.9123
G01 X2.1965 Y2.7746
G01 X2.2921 Y2.6458
G01 X2.3999 Y2.5269
G01 X2.5188 Y2.4191
G01 X2.6476 Y2.3235
G01 X2.7853 Y2.2411
G01 X2.9303 Y2.1725
G01 X3.0814 Y2.1184
G01 X3.2370 Y2.0794
G01 X3.3957 Y2.0559
G01 X3.5560 Y2.0480
G01 X3.7163 Y2.0559
G01 X3.8750 Y2.0794
G01 X4.0306 Y2.1184
G01 X4.1817 Y2.1725
G01 X4.3267 Y2.2411
G01 X4.4644 Y2.3235
G01 X4.5932 Y2.4191
G01 X4.7121 Y2.5269
G01 X4.8199 Y2.6458
G01 X4.9155 Y2.7746
G01 X4.9979 Y2.9123
G01 X5.0665 Y3.0573
G01 X5.1206 Y3.2084
G01 X5.1596 Y3.3640
G01 X5.1823 Y3.5162
G00 Z2.0000
G00 X5.2664 Y3.5037
G01 F60.00
G01 Z0.0000
G01 F120.00
G01 X5.2677 Y3.5144
G01 X5.2685 Y3.5252
G01 X5.2760 Y3.6830
G01 X5.2757 Y3.6938
G01 X5.2677 Y3.8516
G01 X5.2448 Y4.0079
G01 X5.2430 Y4.0186
G01 X5.2406 Y4.0291
G01 X5.2019 Y4.1823
G01 X5.1986 Y4.1925
G01 X5.1451 Y4.3412
G01 X5.0778 Y4.4842
G01 X5.0729 Y4.4938
G01 X5.0676 Y4.5032
G01 X4.9861 Y4.6386
G01 X4.9799 Y4.6474
G01 X4.8856 Y4.7742
G01 X4.7797 Y4.8914
G01 X4.7722 Y4.8992
G01 X4.7644 Y4.9067
G01 X4.6472 Y5.0126
G01 X4.5204 Y5.1069
G01 X4.5116 Y5.1131
G01 X4.3762 Y5.1946
G01 X4.3668 Y5.1999
G01 X4.3572 Y5.2048
G01 X4.2142 Y5.2721
G01 X4.2041 Y5.2760
G01 X4.0553 Y5.3289
G01 X3.9021 Y5.3676
G01 X3.8916 Y5.3700
G01 X3.8809 Y5.3718
G01 X3.7246 Y5.3947
G01 X3.5668 Y5.4027
G01 X3.5560 Y5.4030
G01 X3.5452 Y5.4027
G01 X3.3874 Y5.3947
G01 X3.2311 Y5.3718
G01 X3.2204 Y5.3700
G01 X3.2099 Y5.3676
G01 X3.0567 Y5.3289
G01 X3.0465 Y5.3256
G01 X2.8978 Y5.2721
G01 X2.7548 Y5.2048
G01 X2.7452 Y5.1999
G01 X2.7358 Y5.1946
G01 X2.6004 Y5.1131
G01 X2.5916 Y5.1069
G01 X2.4648 Y5.0126
G01 X2.3476 Y4.9067
G01 X2.3398 Y4.8992
G01 X2.3323 Y4.8914
G01 X2.2264 Y4.7742
G01 X2.1321 Y4.6474
G01 X2.1259 Y4.6386
G01 X2.0444 Y4.5032
G01 X2.0391 Y4.4938
G01 X2.0342 Y4.4842
G01 X1.9669 Y4.3412
G01 X1.9630 Y4.3311
G01 X1.9101 Y4.1823
G01 X1.8714 Y4.0291
G01 X1.8690 Y4.0186
G01 X1.8672 Y4.0079
G01 X1.8443 Y3.8516
G01 X1.8363 Y3.6938
G01 X1.8360 Y3.6830
G01 X1.8363 Y3.6722
G01 X1.8443 Y3.5144
G01 X1.8672 Y3.3581
G01 X1.8690 Y3.3474
G01 X1.8714 Y3.3369
G01 X1.9101 Y3.1837
G01 X1.9134 Y3.1735
G01 X1.9669 Y3.0248
G01 X2.0342 Y2.8818
G01 X2.0391 Y2.8722
G01 X2.0444 Y2.8628
G01 X2.1259 Y2.7274
G01 X2.1321 Y2.7186
G01 X2.2264 Y2.5918
G01 X2.3323 Y2.4746
G01 X2.3398 Y2.4668
G01 X2.3476 Y2.4593
G01 X2.4648 Y2.3534
G01 X2.5916 Y2.2591
G01 X2.6004 Y2.2529
G01 X2.7358 Y2.1714
G01 X2.7452 Y2.1661
G01 X2.7548 Y2.1612
G01 X2.8978 Y2.0939
G01 X2.9079 Y2.0900
G01 X3.0567 Y2.0371
G01 X3.2099 Y1.9984
G01 X3.2204 Y1.9960
G01 X3.2311 Y1.9942
G01 X3.3874 Y1.9713
G01 X3.5452 Y1.9633
G01 X3.5560 Y1.9630
G01 X3.5668 Y1.9633
G01 X3.7246 Y1.9713
G01 X3.8809 Y1.9942
G01 X3.8916 Y1.9960
G01 X3.9021 Y1.9984
G01 X4.0553 Y2.0371
G01 X4.0655 Y2.0404
G01 X4.2142 Y2.0939
G01 X4.3572 Y2.1612
G01 X4.3668 Y2.1661
G01 X4.3762 Y2.1714
G01 X4.5116 Y2.2529
G01 X4.5204 Y2.2591
G01 X4.6472 Y2.3534
G01 X4.7644 Y2.4593
G01 X4.7722 Y2.4668
G01 X4.7797 Y2.4746
G01 X4.8856 Y2.5918
G01 X4.9799 Y2.7186
G01 X4.9861 Y2.7274
G01 X5.0676 Y2.8628
G01 X5.0729 Y2.8722
G01 X5.0778 Y2.8818
G01 X5.1451 Y3.0248
G01 X5.1490 Y3.0349
G01 X5.2019 Y3.1837
G01 X5.2406 Y3.3369
G01 X5.2430 Y3.3474
G01 X5.2664 Y3.5037
G00 Z2.0000
G00 X3.3807 Y5.4630
G01 F60.00
G01 Z0.0000
G01 F120.00
G01 X3.0368 Y5.3946
G01 X2.7129 Y5.2604
G01 X2.4213 Y5.0656
G01 X2.1734 Y4.8176
G01 X1.9786 Y4.5262
G01 X1.8444 Y4.2022
G01 X1.7760 Y3.8583
G01 X1.7760 Y3.5077
G01 X1.8444 Y3.1638
G01 X1.9786 Y2.8399
G01 X2.1734 Y2.5483
G01 X2.4213 Y2.3004
G01 X2.7129 Y2.1056
G01 X3.0368 Y1.9714
G01 X3.3807 Y1.9030
G01 X3.7313 Y1.9030
G01 X4.0752 Y1.9714
G01 X4.3992 Y2.1056
G01 X4.6906 Y2.3004
G01 X4.9386 Y2.5483
G01 X5.1334 Y2.8399
G01 X5.2676 Y3.1638
G01 X5.3360 Y3.5077
G01 X5.3360 Y3.8583
G01 X5.2676 Y4.2022
G01 X5.1334 Y4.5262
G01 X4.9386 Y4.8176
G01 X4.6906 Y5.0656
G01 X4.3992 Y5.2604
G01 X4.0752 Y5.3946
G01 X3.7313 Y5.4630
G01 X3.3807 Y5.4630
G00 Z2.0000
G00 X3.3723 Y5.5480
G01 F60.00
G01 Z0.0000
G01 F120.00
G01 X3.0120 Y5.4763
G01 X2.6726 Y5.3358
G01 X2.3672 Y5.1316
G01 X2.1074 Y4.8718
G01 X1.9032 Y4.5665
G01 X1.7627 Y4.2270
G01 X1.6910 Y3.8667
G01 X1.6910 Y3.4993
G01 X1.7627 Y3.1390
G01 X1.9032 Y2.7996
G01 X2.1074 Y2.4942
G01 X2.3672 Y2.2344
G01 X2.6726 Y2.0302
G01 X3.0120 Y1.8897
G01 X3.3723 Y1.8180
G01 X3.7397 Y1.8180
G01 X4.1000 Y1.8897
G01 X4.4395 Y2.0302
G01 X4.7448 Y2.2344
G01 X5.0046 Y2.4942
G01 X5.2088 Y2.7996
G01 X5.3493 Y3.1390
G01 X5.4210 Y3.4993
G01 X5.4210 Y3.8667
G01 X5.3493 Y4.2270
G01 X5.2088 Y4.5665
G01 X5.0046 Y4.8718
G01 X4.7448 Y5.1316
G01 X4.4395 Y5.3358
G01 X4.1000 Y5.4763
G01 X3.7397 Y5.5480
G01 X3.3723 Y5.5480
G00 Z2.0000
G00 X3.3639 Y5.6330
G01 F60.00
G01 Z0.0000
G01 F120.00
G01 X2.9872 Y5.5580
G01 X2.6324 Y5.4111
G01 X2.3130 Y5.1977
G01 X2.0413 Y4.9260
G01 X1.8279 Y4.6067
G01 X1.6810 Y4.2518
G01 X1.6060 Y3.8751
G01 X1.6060 Y3.4909
G01 X1.6810 Y3.1142
G01 X1.8279 Y2.7594
G01 X2.0413 Y2.4400
G01 X2.3130 Y2.1683
G01 X2.6324 Y1.9549
G01 X2.9872 Y1.8080
G01 X3.3639 Y1.7330
G01 X3.7481 Y1.7330
G01 X4.1248 Y1.8080
G01 X4.4797 Y1.9549
G01 X4.7990 Y2.1683
G01 X5.0707 Y2.4400
G01 X5.2841 Y2.7594
G01 X5.4310 Y3.1142
G01 X5.5060 Y3.4909
G01 X5.5060 Y3.8751
G01 X5.4310 Y4.2518
G01 X5.2841 Y4.6067
G01 X5.0707 Y4.9260
G01 X4.7990 Y5.1977
G01 X4.4797 Y5.4111
G01 X4.1248 Y5.5580
G01 X3.7481 Y5.6330
G01 X3.3639 Y5.6330
G00 Z2.0000
G00 X11.3434 Y14.7456
G01 F60.00
G01 Z0.0000
G01 F120.00
G01 X11.3519 Y14.7525
G01 X11.3600 Y14.7597
G01 X11.3715 Y14.7714
G01 X11.3787 Y14.7796
G01 X11.3887 Y14.7925
G01 X11.3948 Y14.8015
G01 X11.4004 Y14.8109
G01 X11.4056 Y14.8204
G01 X11.4103 Y14.8303
G01 X11.4164 Y14.8454
G01 X11.4199 Y14.8558
G01 X11.4228 Y14.8663
G01 X11.4262 Y14.8822
G01 X11.4278 Y14.8930
G01 X11.4289 Y14.9039
G01 X11.4294 Y14.9148
G01 X11.4295 Y17.9162
G01 X11.4289 Y17.9324
G01 X11.4271 Y17.9485
G01 X11.4253 Y17.9591
G01 X11.4229 Y17.9697
G01 X11.4200 Y17.9801
G01 X11.4148 Y17.9954
G01 X11.4106 Y18.0053
G01 X11.4060 Y18.0151
G01 X11.4009 Y18.0246
G01 X11.3954 Y18.0339
G01 X11.3894 Y18.0429
G01 X11.3796 Y18.0558
G01 X11.3725 Y18.0639
G01 X11.3651 Y18.0718
G01 X11.3573 Y18.0792
G01 X11.3449 Y18.0896
G01 X11.3362 Y18.0961
G01 X11.3272 Y18.1021
G01 X11.3180 Y18.1076
G01 X11.3084 Y18.1127
G01 X11.2987 Y18.1173
G01 X11.1764 Y18.1680
G01 X11.1612 Y18.1737
G01 X11.1509 Y18.1768
G01 X11.1404 Y18.1795
G01 X11.1298 Y18.1816
G01 X11.1191 Y18.1831
G01 X11.1084 Y18.1842
G01 X11.0976 Y18.1847
G01 X11.0868 Y18.1847
G01 X11.0760 Y18.1842
G01 X11.0599 Y18.1824
G01 X11.0493 Y18.1806
G01 X11.0388 Y18.1782
G01 X11.0232 Y18.1737
G01 X11.0130 Y18.1701
G01 X11.0031 Y18.1659
G01 X10.9885 Y18.1588
G01 X10.9791 Y18.1535
G01 X10.9700 Y18.1477
G01 X10.9611 Y18.1415
G01 X10.9526 Y18.1349
G01 X10.9405 Y18.1241
G01 X10.4789 Y17.6627
G01 X10.4715 Y17.6548
G01 X10.4611 Y17.6425
G01 X10.4516 Y17.6293
G01 X10.4458 Y17.6202
G01 X10.4380 Y17.6060
G01 X10.4312 Y17.5913
G01 X10.4256 Y17.5761
G01 X10.4211 Y17.5606
G01 X10.4177 Y17.5447
G01 X10.4162 Y17.5340
G01 X10.4151 Y17.5233
G01 X10.4145 Y17.5071
G01 X10.4145 Y14.6658
G01 X10.4151 Y14.6498
G01 X10.4161 Y14.6392
G01 X10.4186 Y14.6234
G01 X10.4209 Y14.6130
G01 X10.4238 Y14.6027
G01 X10.4289 Y14.5875
G01 X10.4329 Y14.5776
G01 X10.4374 Y14.5680
G01 X10.4424 Y14.5585
G01 X10.4507 Y14.5449
G01 X10.4600 Y14.5318
G01 X10.5453 Y14.4207
G01 X10.5522 Y14.4122
G01 X10.5633 Y14.4000
G01 X10.5713 Y14.3924
G01 X10.5838 Y14.3818
G01 X10.5926 Y14.3752
G01 X10.6017 Y14.3691
G01 X10.6160 Y14.3607
G01 X10.6258 Y14.3558
G01 X10.6409 Y14.3493
G01 X10.6565 Y14.3440
G01 X10.6960 Y14.3322
G01 X10.7063 Y14.3296
G01 X10.7168 Y14.3276
G01 X10.7274 Y14.3260
G01 X10.7381 Y14.3250
G01 X10.7541 Y14.3244
G01 X10.8412 Y14.3245
G01 X10.8519 Y14.3250
G01 X10.8626 Y14.3260
G01 X10.8784 Y14.3285
G01 X10.8940 Y14.3322
G01 X10.9387 Y14.3456
G01 X10.9542 Y14.3514
G01 X10.9692 Y14.3582
G01 X10.9836 Y14.3662
G01 X10.9929 Y14.3721
G01 X11.0018 Y14.3784
G01 X11.0147 Y14.3888
G01 X11.0267 Y14.4001
G01 X11.0342 Y14.4081
G01 X11.0413 Y14.4164
G01 X11.2234 Y14.6536
G01 X11.3434 Y14.7456
G00 Z2.0000
G00 X11.2917 Y14.8131
G01 F60.00
G01 Z0.0000
G01 F120.00
G01 X11.3043 Y14.8241
G01 X11.3133 Y14.8339
G01 X11.3213 Y14.8446
G01 X11.3298 Y14.8590
G01 X11.3353 Y14.8712
G01 X11.3404 Y14.8871
G01 X11.3430 Y14.9002
G01 X11.3445 Y14.9169
G01 X11.3445 Y17.9162
G01 X11.3441 Y17.9261
G01 X11.3425 Y17.9393
G01 X11.3387 Y17.9554
G01 X11.3329 Y17.9709
G01 X11.3270 Y17.9827
G01 X11.3179 Y17.9966
G01 X11.3073 Y18.0093
G01 X11.2977 Y18.0184
G01 X11.2845 Y18.0284
G01 X11.2761 Y18.0337
G01 X11.2642 Y18.0396
G01 X11.1377 Y18.0919
G01 X11.1250 Y18.0958
G01 X11.1120 Y18.0983
G01 X11.0955 Y18.0998
G01 X11.0823 Y18.0994
G01 X11.0724 Y18.0983
G01 X11.0594 Y18.0958
G01 X11.0467 Y18.0919
G01 X11.0345 Y18.0868
G01 X11.0228 Y18.0806
G01 X11.0145 Y18.0752
G01 X11.0040 Y18.0670
G01 X10.9967 Y18.0603
G01 X10.5367 Y17.6002
G01 X10.5301 Y17.5927
G01 X10.5241 Y17.5848
G01 X10.5187 Y17.5765
G01 X10.5139 Y17.5678
G01 X10.5098 Y17.5588
G01 X10.5063 Y17.5494
G01 X10.5035 Y17.5399
G01 X10.5015 Y17.5302
G01 X10.4999 Y17.5170
G01 X10.4995 Y17.5071
G01 X10.4995 Y14.6658
G01 X10.5005 Y14.6495
G01 X10.5027 Y14.6366
G01 X10.5062 Y14.6239
G01 X10.5108 Y14.6117
G01 X10.5166 Y14.6000
G01 X10.5255 Y14.5862
G01 X10.6170 Y14.4672
G01 X10.6262 Y14.4574
G01 X10.6337 Y14.4507
G01 X10.6418 Y14.4445
G01 X10.6502 Y14.4390
G01 X10.6561 Y14.4357
G01 X10.6652 Y14.4312
G01 X10.6778 Y14.4264
G01 X10.7184 Y14.4142
G01 X10.7280 Y14.4119
G01 X10.7377 Y14.4104
G01 X10.7541 Y14.4094
G01 X10.8392 Y14.4094
G01 X10.8523 Y14.4104
G01 X10.8652 Y14.4126
G01 X10.8747 Y14.4151
G01 X10.9090 Y14.4254
G01 X10.9154 Y14.4275
G01 X10.9248 Y14.4312
G01 X10.9369 Y14.4373
G01 X10.9455 Y14.4426
G01 X10.9537 Y14.4486
G01 X10.9638 Y14.4574
G01 X10.9708 Y14.4647
G01 X10.9773 Y14.4725
G01 X11.1628 Y14.7142
G01 X11.2917 Y14.8131
G00 Z2.0000
G00 X11.2399 Y14.8805
G01 F60.00
G01 Z0.0000
G01 F120.00
G01 X11.2437 Y14.8837
G01 X11.2480 Y14.8882
G01 X11.2509 Y14.8922
G01 X11.2541 Y14.8975
G01 X11.2561 Y14.9020
G01 X11.2580 Y14.9079
G01 X11.2591 Y14.9140
G01 X11.2595 Y14.9202
G01 X11.2594 Y17.9187
G01 X11.2585 Y17.9260
G01 X11.2570 Y17.9319
G01 X11.2547 Y17.9376
G01 X11.2517 Y17.9429
G01 X11.2482 Y17.9479
G01 X11.2440 Y17.9524
G01 X11.2393 Y17.9564
G01 X11.2341 Y17.9597
G01 X11.2286 Y17.9624
G01 X11.1102 Y18.0114
G01 X11.1044 Y18.0133
G01 X11.0995 Y18.0143
G01 X11.0897 Y18.0147
G01 X11.0801 Y18.0133
G01 X11.0719 Y18.0105
G01 X11.0644 Y18.0064
G01 X11.0568 Y18.0002
G01 X10.5983 Y17.5416
G01 X10.5936 Y17.5359
G01 X10.5893 Y17.5285
G01 X10.5867 Y17.5216
G01 X10.5850 Y17.5144
G01 X10.5845 Y17.5071
G01 X10.5845 Y14.6658
G01 X10.5852 Y14.6574
G01 X10.5874 Y14.6491
G01 X10.5903 Y14.6425
G01 X10.5941 Y14.6363
G01 X10.6809 Y14.5233
G01 X10.6851 Y14.5187
G01 X10.6889 Y14.5154
G01 X10.6930 Y14.5125
G01 X10.6984 Y14.5095
G01 X10.7054 Y14.5068
G01 X10.7409 Y14.4962
G01 X10.7480 Y14.4948
G01 X10.7541 Y14.4944
G01 X10.8408 Y14.4946
G01 X10.8491 Y14.4962
G01 X10.8870 Y14.5076
G01 X10.8927 Y14.5100
G01 X10.8991 Y14.5139
G01 X10.9040 Y14.5178
G01 X10.9091 Y14.5233
G01 X11.1022 Y14.7748
G01 X11.2399 Y14.8805
G00 Z2.0000
G00 X11.4689 Y14.7592
G01 F60.00
G01 Z0.0000
G01 F120.00
G01 X11.4473 Y14.7462
G01 X11.4383 Y14.7402
G01 X11.3587 Y14.6811
G01 X11.3463 Y14.6707
G01 X11.2769 Y14.6077
G01 X11.2656 Y14.5961
G01 X11.1992 Y14.5225
G01 X11.1368 Y14.4387
G01 X11.1280 Y14.4251
G01 X11.0772 Y14.3400
G01 X11.0724 Y14.3303
G01 X11.0303 Y14.2406
G01 X10.9966 Y14.1474
G01 X10.9932 Y14.1371
G01 X10.9676 Y14.0358
G01 X10.9647 Y14.0199
G01 X10.9504 Y13.9218
G01 X10.9451 Y13.8174
G01 X10.9450 Y13.1120
G01 X10.9453 Y13.1012
G01 X10.9504 Y13.0022
G01 X10.9517 Y12.9915
G01 X10.9665 Y12.8935
G01 X10.9903 Y12.7973
G01 X10.9932 Y12.7869
G01 X11.0283 Y12.6884
G01 X11.0346 Y12.6735
G01 X11.0772 Y12.5840
G01 X11.0826 Y12.5746
G01 X11.1338 Y12.4898
G01 X11.1926 Y12.4100
G01 X11.1992 Y12.4015
G01 X11.2063 Y12.3933
G01 X11.2730 Y12.3200
G01 X11.3463 Y12.2533
G01 X11.3545 Y12.2462
G01 X11.3630 Y12.2396
G01 X11.4428 Y12.1808
G01 X11.5276 Y12.1296
G01 X11.5370 Y12.1242
G01 X11.5467 Y12.1194
G01 X11.6364 Y12.0773
G01 X11.7296 Y12.0436
G01 X11.7399 Y12.0402
G01 X11.7503 Y12.0373
G01 X11.8465 Y12.0135
G01 X11.9445 Y11.9987
G01 X11.9552 Y11.9974
G01 X11.9660 Y11.9966
G01 X12.0650 Y11.9920
G01 X12.1640 Y11.9966
G01 X12.1748 Y11.9974
G01 X12.1855 Y11.9987
G01 X12.2835 Y12.0135
G01 X12.3797 Y12.0373
G01 X12.3901 Y12.0402
G01 X12.4886 Y12.0753
G01 X12.5035 Y12.0816
G01 X12.5833 Y12.1194
G01 X12.5930 Y12.1242
G01 X12.6024 Y12.1296
G01 X12.6872 Y12.1808
G01 X12.7670 Y12.2396
G01 X12.7755 Y12.2462
G01 X12.7837 Y12.2533
G01 X12.8570 Y12.3200
G01 X12.9237 Y12.3933
G01 X12.9308 Y12.4015
G01 X12.9374 Y12.4100
G01 X12.9962 Y12.4898
G01 X13.0474 Y12.5746
G01 X13.0528 Y12.5840
G01 X13.0954 Y12.6735
G01 X13.0997 Y12.6834
G01 X13.1036 Y12.6935
G01 X13.1368 Y12.7869
G01 X13.1611 Y12.8830
G01 X13.1635 Y12.8935
G01 X13.1653 Y12.9041
G01 X13.1796 Y13.0022
G01 X13.1849 Y13.1066
G01 X13.1850 Y13.8120
G01 X13.1801 Y13.9164
G01 X13.1783 Y13.9325
G01 X13.1653 Y14.0199
G01 X13.1635 Y14.0305
G01 X13.1611 Y14.0410
G01 X13.1368 Y14.1371
G01 X13.1334 Y14.1474
G01 X13.0999 Y14.2401
G01 X13.1040 Y14.2522
G01 X13.1069 Y14.2626
G01 X13.1224 Y14.3250
G01 X13.1254 Y14.3409
G01 X13.1354 Y14.4099
G01 X13.1361 Y14.4207
G01 X13.1393 Y14.4903
G01 X13.1393 Y61.7609
G01 X14.1489 Y62.7705
G01 X14.1633 Y62.7663
G01 X14.2490 Y62.7449
G01 X14.2595 Y62.7425
G01 X14.2701 Y62.7407
G01 X14.3682 Y62.7264
G01 X14.4672 Y62.7213
G01 X14.4780 Y62.7210
G01 X14.4888 Y62.7213
G01 X14.5878 Y62.7264
G01 X14.6859 Y62.7407
G01 X14.7018 Y62.7436
G01 X14.8031 Y62.7692
G01 X14.8134 Y62.7726
G01 X14.9066 Y62.8063
G01 X14.9963 Y62.8484
G01 X15.0060 Y62.8532
G01 X15.0911 Y62.9040
G01 X15.1002 Y62.9098
G01 X15.1091 Y62.9160
G01 X15.1800 Y62.9686
G01 X15.1885 Y62.9752
G01 X15.1967 Y62.9823
G01 X15.2700 Y63.0490
G01 X15.3367 Y63.1223
G01 X15.3478 Y63.1355
G01 X15.9586 Y63.1355
G01 X16.0282 Y63.1387
G01 X16.0444 Y63.1400
G01 X16.1080 Y63.1494
G01 X16.1186 Y63.1513
G01 X16.1292 Y63.1536
G01 X16.1967 Y63.1708
G01 X16.2624 Y63.1941
G01 X16.2725 Y63.1979
G01 X16.2824 Y63.2023
G01 X16.3453 Y63.2324
G01 X16.4052 Y63.2680
G01 X16.4143 Y63.2737
G01 X16.4232 Y63.2800
G01 X16.4790 Y63.3217
G01 X16.5308 Y63.3683
G01 X16.5386 Y63.3758
G01 X18.2330 Y65.0702
G01 X18.2836 Y65.1257
G01 X18.2937 Y65.1383
G01 X18.3351 Y65.1945
G01 X18.3711 Y65.2541
G01 X18.3789 Y65.2683
G01 X18.4065 Y65.3264
G01 X18.4109 Y65.3363
G01 X18.4147 Y65.3464
G01 X18.4380 Y65.4121
G01 X18.4552 Y65.4796
G01 X18.4575 Y65.4902
G01 X18.4594 Y65.5008
G01 X18.4694 Y65.5698
G01 X18.4732 Y65.6448
G01 X18.4733 Y71.8820
G01 X18.4701 Y71.9516
G01 X18.4694 Y71.9624
G01 X18.4680 Y71.9731
G01 X18.4575 Y72.0420
G01 X18.4552 Y72.0526
G01 X18.4380 Y72.1201
G01 X18.4147 Y72.1858
G01 X18.4087 Y72.2009
G01 X18.3764 Y72.2687
G01 X18.3711 Y72.2781
G01 X18.3351 Y72.3377
G01 X18.2937 Y72.3939
G01 X18.2871 Y72.4024
G01 X18.2405 Y72.4542
G01 X18.2330 Y72.4620
G01 X14.4532 Y76.2419
G01 X14.4504 Y76.2990
G01 X14.4490 Y76.3151
G01 X14.4353 Y76.4079
G01 X14.4324 Y76.4238
G01 X14.4068 Y76.5251
G01 X14.3736 Y76.6185
G01 X14.3676 Y76.6336
G01 X14.3228 Y76.7280
G01 X14.3174 Y76.7374
G01 X14.2662 Y76.8222
G01 X14.2074 Y76.9020
G01 X14.2008 Y76.9105
G01 X14.1937 Y76.9187
G01 X14.1270 Y76.9920
G01 X14.0537 Y77.0587
G01 X14.0455 Y77.0658
G01 X14.0370 Y77.0724
G01 X13.9572 Y77.1312
G01 X13.8724 Y77.1824
G01 X13.8630 Y77.1878
G01 X13.8533 Y77.1926
G01 X13.7636 Y77.2347
G01 X13.6704 Y77.2684
G01 X13.6601 Y77.2718
G01 X13.6497 Y77.2747
G01 X13.5535 Y77.2985
G01 X13.4555 Y77.3133
G01 X13.4448 Y77.3146
G01 X13.3404 Y77.3199
G01 X13.3242 Y77.3197
G01 X13.2360 Y77.3154
G01 X13.2252 Y77.3146
G01 X13.2145 Y77.3133
G01 X13.1165 Y77.2985
G01 X13.0203 Y77.2747
G01 X13.0099 Y77.2718
G01 X12.9996 Y77.2684
G01 X12.9064 Y77.2347
G01 X12.8167 Y77.1926
G01 X12.8070 Y77.1878
G01 X12.7976 Y77.1824
G01 X12.7128 Y77.1312
G01 X12.6330 Y77.0724
G01 X12.6245 Y77.0658
G01 X12.6163 Y77.0587
G01 X12.5430 Y76.9920
G01 X12.4763 Y76.9187
G01 X12.4692 Y76.9105
G01 X12.4626 Y76.9020
G01 X12.4038 Y76.8222
G01 X12.3526 Y76.7374
G01 X12.3472 Y76.7280
G01 X12.3046 Y76.6385
G01 X12.3003 Y76.6286
G01 X12.2964 Y76.6185
G01 X12.2632 Y76.5251
G01 X12.2389 Y76.4290
G01 X12.2365 Y76.4185
G01 X12.2347 Y76.4079
G01 X12.2204 Y76.3098
G01 X12.2153 Y76.2108
G01 X12.2150 Y76.2000
G01 X12.2153 Y76.1892
G01 X12.2204 Y76.0902
G01 X12.2347 Y75.9921
G01 X12.2365 Y75.9815
G01 X12.2389 Y75.9710
G01 X12.2632 Y75.8749
G01 X12.2964 Y75.7815
G01 X12.3003 Y75.7714
G01 X12.3046 Y75.7615
G01 X12.3472 Y75.6720
G01 X12.3980 Y75.5869
G01 X12.4038 Y75.5778
G01 X12.4100 Y75.5689
G01 X12.4692 Y75.4895
G01 X12.5356 Y75.4159
G01 X12.5430 Y75.4080
G01 X12.5509 Y75.4006
G01 X12.6245 Y75.3342
G01 X12.7039 Y75.2750
G01 X12.7128 Y75.2688
G01 X12.7219 Y75.2630
G01 X12.8023 Y75.2149
G01 X12.8167 Y75.2074
G01 X12.9064 Y75.1653
G01 X12.9996 Y75.1316
G01 X13.0151 Y75.1267
G01 X13.1060 Y75.1039
G01 X13.1218 Y75.1005
G01 X13.2252 Y75.0854
G01 X13.2931 Y75.0818
G01 X16.8327 Y71.5422
G01 X16.8327 Y65.9900
G01 X15.6188 Y64.7761
G01 X15.0942 Y64.7761
G01 X15.0060 Y64.8288
G01 X14.9165 Y64.8714
G01 X14.9066 Y64.8757
G01 X14.8965 Y64.8796
G01 X14.8031 Y64.9128
G01 X14.7070 Y64.9371
G01 X14.6965 Y64.9395
G01 X14.5985 Y64.9543
G01 X14.5878 Y64.9556
G01 X14.5770 Y64.9564
G01 X14.4780 Y64.9610
G01 X14.3790 Y64.9564
G01 X14.3682 Y64.9556
G01 X14.3575 Y64.9543
G01 X14.2595 Y64.9395
G01 X14.1633 Y64.9157
G01 X14.1529 Y64.9128
G01 X14.1426 Y64.9094
G01 X14.0494 Y64.8757
G01 X13.9597 Y64.8336
G01 X13.9500 Y64.8288
G01 X13.9406 Y64.8234
G01 X13.8649 Y64.7780
G01 X13.8513 Y64.7692
G01 X13.7675 Y64.7068
G01 X13.6939 Y64.6404
G01 X13.6860 Y64.6330
G01 X13.6786 Y64.6251
G01 X13.6193 Y64.5597
G01 X13.6089 Y64.5473
G01 X13.5468 Y64.4632
G01 X13.4929 Y64.3737
G01 X13.4854 Y64.3593
G01 X13.4454 Y64.2746
G01 X13.4394 Y64.2595
G01 X13.4277 Y64.2269
G01 X13.4099 Y64.2214
G01 X13.3443 Y64.1977
G01 X13.2812 Y64.1681
G01 X13.2715 Y64.1633
G01 X13.2621 Y64.1579
G01 X13.2025 Y64.1219
G01 X13.1463 Y64.0806
G01 X13.1337 Y64.0704
G01 X13.0860 Y64.0273
G01 X13.0782 Y64.0199
G01 X11.7390 Y62.6808
G01 X11.7315 Y62.6729
G01 X11.6849 Y62.6211
G01 X11.6432 Y62.5653
G01 X11.6369 Y62.5564
G01 X11.6312 Y62.5473
G01 X11.5956 Y62.4874
G01 X11.5655 Y62.4245
G01 X11.5611 Y62.4146
G01 X11.5573 Y62.4045
G01 X11.5357 Y62.3440
G01 X11.5311 Y62.3284
G01 X11.5145 Y62.2607
G01 X11.5126 Y62.2501
G01 X11.5027 Y62.1811
G01 X11.5019 Y62.1703
G01 X11.4987 Y62.1007
G01 X11.4987 Y14.8082
G01 X11.4920 Y14.7977
G01 X11.4689 Y14.7592
G00 Z2.0000
G00 X11.5312 Y14.6975
G01 F60.00
G01 Z0.0000
G01 F120.00
G01 X11.4956 Y14.6761
G01 X11.4873 Y14.6707
G01 X11.4110 Y14.6141
G01 X11.4034 Y14.6077
G01 X11.3355 Y14.5462
G01 X11.3286 Y14.5391
G01 X11.2649 Y14.4686
G01 X11.2063 Y14.3897
G01 X11.2009 Y14.3814
G01 X11.1522 Y14.2999
G01 X11.1088 Y14.2081
G01 X11.0746 Y14.1124
G01 X11.0513 Y14.0204
G01 X11.0488 Y14.0074
G01 X11.0350 Y13.9134
G01 X11.0300 Y13.8153
G01 X11.0300 Y13.1087
G01 X11.0350 Y13.0106
G01 X11.0488 Y12.9166
G01 X11.0513 Y12.9036
G01 X11.0728 Y12.8179
G01 X11.0756 Y12.8084
G01 X11.1088 Y12.7159
G01 X11.1522 Y12.6241
G01 X11.2044 Y12.5370
G01 X11.2649 Y12.4554
G01 X11.3331 Y12.3801
G01 X11.4084 Y12.3119
G01 X11.4900 Y12.2514
G01 X11.5771 Y12.1992
G01 X11.6689 Y12.1558
G01 X11.7646 Y12.1216
G01 X11.8631 Y12.0969
G01 X11.9636 Y12.0820
G01 X12.0650 Y12.0770
G01 X12.1664 Y12.0820
G01 X12.2669 Y12.0969
G01 X12.3591 Y12.1198
G01 X12.3686 Y12.1226
G01 X12.4611 Y12.1558
G01 X12.5470 Y12.1962
G01 X12.5587 Y12.2025
G01 X12.6400 Y12.2514
G01 X12.7216 Y12.3119
G01 X12.7921 Y12.3756
G01 X12.8014 Y12.3849
G01 X12.8607 Y12.4504
G01 X12.8691 Y12.4606
G01 X12.9256 Y12.5370
G01 X12.9778 Y12.6241
G01 X13.0212 Y12.7159
G01 X13.0534 Y12.8053
G01 X13.0572 Y12.8179
G01 X13.0787 Y12.9036
G01 X13.0812 Y12.9166
G01 X13.0950 Y13.0106
G01 X13.1000 Y13.1087
G01 X13.1000 Y13.8120
G01 X13.0953 Y13.9101
G01 X13.0942 Y13.9200
G01 X13.0801 Y14.0139
G01 X13.0564 Y14.1093
G01 X13.0534 Y14.1187
G01 X13.0224 Y14.2050
G01 X13.0185 Y14.2141
G01 X13.0082 Y14.2360
G01 X13.0206 Y14.2706
G01 X13.0236 Y14.2800
G01 X13.0387 Y14.3404
G01 X13.0408 Y14.3501
G01 X13.0508 Y14.4182
G01 X13.0543 Y14.4903
G01 X13.0543 Y61.7961
G01 X14.1268 Y62.8685
G01 X14.1713 Y62.8526
G01 X14.1807 Y62.8496
G01 X14.2728 Y62.8266
G01 X14.2826 Y62.8248
G01 X14.3700 Y62.8118
G01 X14.3799 Y62.8107
G01 X14.4780 Y62.8060
G01 X14.5728 Y62.8105
G01 X14.5860 Y62.8118
G01 X14.6734 Y62.8248
G01 X14.6832 Y62.8266
G01 X14.7784 Y62.8506
G01 X14.8741 Y62.8848
G01 X14.9659 Y62.9282
G01 X15.0502 Y62.9786
G01 X15.0584 Y62.9842
G01 X15.1346 Y63.0409
G01 X15.2075 Y63.1068
G01 X15.2144 Y63.1139
G01 X15.2759 Y63.1819
G01 X15.2821 Y63.1896
G01 X15.3050 Y63.2205
G01 X15.9586 Y63.2205
G01 X16.0241 Y63.2236
G01 X16.0340 Y63.2244
G01 X16.0955 Y63.2335
G01 X16.1085 Y63.2361
G01 X16.1720 Y63.2522
G01 X16.2338 Y63.2741
G01 X16.2460 Y63.2792
G01 X16.3052 Y63.3073
G01 X16.3615 Y63.3409
G01 X16.3698 Y63.3463
G01 X16.4251 Y63.3874
G01 X16.4785 Y63.4359
G01 X18.1729 Y65.1303
G01 X18.2193 Y65.1812
G01 X18.2255 Y65.1890
G01 X18.2644 Y65.2417
G01 X18.2982 Y65.2978
G01 X18.3045 Y65.3095
G01 X18.3296 Y65.3628
G01 X18.3347 Y65.3750
G01 X18.3566 Y65.4368
G01 X18.3742 Y65.5068
G01 X18.3848 Y65.5781
G01 X18.3883 Y65.6469
G01 X18.3883 Y71.8820
G01 X18.3848 Y71.9541
G01 X18.3742 Y72.0254
G01 X18.3566 Y72.0954
G01 X18.3347 Y72.1572
G01 X18.3310 Y72.1664
G01 X18.3015 Y72.2286
G01 X18.2644 Y72.2905
G01 X18.2214 Y72.3485
G01 X18.1729 Y72.4019
G01 X14.3699 Y76.2050
G01 X14.3650 Y76.3014
G01 X14.3501 Y76.4019
G01 X14.3254 Y76.5004
G01 X14.2912 Y76.5961
G01 X14.2478 Y76.6879
G01 X14.1956 Y76.7750
G01 X14.1351 Y76.8566
G01 X14.0669 Y76.9319
G01 X13.9916 Y77.0001
G01 X13.9100 Y77.0606
G01 X13.8229 Y77.1128
G01 X13.7311 Y77.1562
G01 X13.6354 Y77.1904
G01 X13.5369 Y77.2151
G01 X13.4364 Y77.2300
G01 X13.3383 Y77.2350
G01 X13.3284 Y77.2348
G01 X13.2402 Y77.2305
G01 X13.2270 Y77.2292
G01 X13.1331 Y77.2151
G01 X13.0409 Y77.1922
G01 X13.0283 Y77.1884
G01 X12.9389 Y77.1562
G01 X12.8530 Y77.1158
G01 X12.8413 Y77.1095
G01 X12.7600 Y77.0606
G01 X12.6836 Y77.0041
G01 X12.6734 Y76.9957
G01 X12.6031 Y76.9319
G01 X12.5393 Y76.8616
G01 X12.5309 Y76.8514
G01 X12.4744 Y76.7750
G01 X12.4222 Y76.6879
G01 X12.3815 Y76.6021
G01 X12.3764 Y76.5899
G01 X12.3446 Y76.5004
G01 X12.3213 Y76.4084
G01 X12.3188 Y76.3954
G01 X12.3050 Y76.3014
G01 X12.3002 Y76.2066
G01 X12.3002 Y76.1934
G01 X12.3050 Y76.0986
G01 X12.3188 Y76.0046
G01 X12.3213 Y75.9916
G01 X12.3446 Y75.8996
G01 X12.3764 Y75.8101
G01 X12.3815 Y75.7979
G01 X12.4222 Y75.7121
G01 X12.4726 Y75.6278
G01 X12.4782 Y75.6196
G01 X12.5349 Y75.5434
G01 X12.5986 Y75.4729
G01 X12.6079 Y75.4636
G01 X12.6784 Y75.3999
G01 X12.7546 Y75.3432
G01 X12.7656 Y75.3359
G01 X12.8471 Y75.2872
G01 X12.9389 Y75.2438
G01 X13.0283 Y75.2116
G01 X13.0409 Y75.2078
G01 X13.1331 Y75.1849
G01 X13.2270 Y75.1708
G01 X13.2402 Y75.1695
G01 X13.3300 Y75.1651
G01 X16.9177 Y71.5774
G01 X16.9177 Y65.9548
G01 X15.6540 Y64.6911
G01 X15.0674 Y64.6911
G01 X15.0557 Y64.6997
G01 X15.0474 Y64.7051
G01 X14.9717 Y64.7505
G01 X14.9600 Y64.7568
G01 X14.8741 Y64.7972
G01 X14.7784 Y64.8314
G01 X14.6799 Y64.8561
G01 X14.5860 Y64.8702
G01 X14.5728 Y64.8715
G01 X14.4780 Y64.8760
G01 X14.3832 Y64.8715
G01 X14.3700 Y64.8702
G01 X14.2761 Y64.8561
G01 X14.1776 Y64.8314
G01 X14.0819 Y64.7972
G01 X13.9960 Y64.7568
G01 X13.9843 Y64.7505
G01 X13.9086 Y64.7051
G01 X13.9003 Y64.6997
G01 X13.8214 Y64.6411
G01 X13.7509 Y64.5774
G01 X13.7416 Y64.5681
G01 X13.6823 Y64.5026
G01 X13.6739 Y64.4924
G01 X13.6174 Y64.4160
G01 X13.5652 Y64.3289
G01 X13.5218 Y64.2371
G01 X13.4924 Y64.1556
G01 X13.4448 Y64.1434
G01 X13.3799 Y64.1204
G01 X13.3708 Y64.1165
G01 X13.3116 Y64.0883
G01 X13.2553 Y64.0547
G01 X13.2443 Y64.0474
G01 X13.1918 Y64.0082
G01 X13.1431 Y63.9643
G01 X11.7945 Y62.6158
G01 X11.7506 Y62.5672
G01 X11.7076 Y62.5092
G01 X11.6705 Y62.4473
G01 X11.6424 Y62.3882
G01 X11.6373 Y62.3759
G01 X11.6174 Y62.3205
G01 X11.6136 Y62.3078
G01 X11.5978 Y62.2442
G01 X11.5872 Y62.1728
G01 X11.5837 Y62.1007
G01 X11.5837 Y14.7805
G01 X11.5666 Y14.7568
G01 X11.5312 Y14.6975
G00 Z2.0000
G00 X11.6687 Y14.7524
G01 F60.00
G01 Z0.0000
G01 F120.00
G01 X11.6384 Y14.7114
G01 X11.6069 Y14.6587
G01 X11.5968 Y14.6377
G01 X11.5372 Y14.6019
G01 X11.4623 Y14.5464
G01 X11.3932 Y14.4838
G01 X11.3299 Y14.4137
G01 X11.2751 Y14.3398
G01 X11.2272 Y14.2598
G01 X11.1873 Y14.1755
G01 X11.1559 Y14.0878
G01 X11.1328 Y13.9949
G01 X11.1196 Y13.9051
G01 X11.1150 Y13.8132
G01 X11.1150 Y13.1108
G01 X11.1196 Y13.0189
G01 X11.1335 Y12.9255
G01 X11.1559 Y12.8362
G01 X11.1873 Y12.7485
G01 X11.2272 Y12.6642
G01 X11.2751 Y12.5842
G01 X11.3306 Y12.5093
G01 X11.3932 Y12.4402
G01 X11.4623 Y12.3776
G01 X11.5372 Y12.3221
G01 X11.6172 Y12.2742
G01 X11.7015 Y12.2343
G01 X11.7892 Y12.2029
G01 X11.8797 Y12.1803
G01 X11.9719 Y12.1666
G01 X12.0650 Y12.1620
G01 X12.1581 Y12.1666
G01 X12.2515 Y12.1805
G01 X12.3408 Y12.2029
G01 X12.4285 Y12.2343
G01 X12.5128 Y12.2742
G01 X12.5907 Y12.3208
G01 X12.6695 Y12.3792
G01 X12.7368 Y12.4402
G01 X12.7994 Y12.5093
G01 X12.8549 Y12.5842
G01 X12.9016 Y12.6620
G01 X12.9436 Y12.7507
G01 X12.9741 Y12.8362
G01 X12.9967 Y12.9267
G01 X13.0104 Y13.0189
G01 X13.0150 Y13.1108
G01 X13.0150 Y13.8120
G01 X13.0104 Y13.9051
G01 X12.9967 Y13.9973
G01 X12.9744 Y14.0866
G01 X12.9427 Y14.1755
G01 X12.9157 Y14.2327
G01 X12.9207 Y14.2437
G01 X12.9413 Y14.3015
G01 X12.9568 Y14.3634
G01 X12.9662 Y14.4266
G01 X12.9693 Y14.4903
G01 X12.9693 Y61.8313
G01 X14.1055 Y62.9675
G01 X14.1167 Y62.9624
G01 X14.2046 Y62.9313
G01 X14.2927 Y62.9093
G01 X14.3849 Y62.8956
G01 X14.4780 Y62.8910
G01 X14.5687 Y62.8954
G01 X14.6633 Y62.9093
G01 X14.7538 Y62.9319
G01 X14.8415 Y62.9633
G01 X14.9258 Y63.0032
G01 X15.0058 Y63.0511
G01 X15.0807 Y63.1066
G01 X15.1498 Y63.1692
G01 X15.2124 Y63.2383
G01 X15.2623 Y63.3055
G01 X15.9586 Y63.3055
G01 X16.0223 Y63.3086
G01 X16.0879 Y63.3185
G01 X16.1474 Y63.3335
G01 X16.2052 Y63.3541
G01 X16.2651 Y63.3823
G01 X16.3209 Y63.4158
G01 X16.3711 Y63.4531
G01 X16.4184 Y63.4960
G01 X18.1128 Y65.1904
G01 X18.1541 Y65.2358
G01 X18.1950 Y65.2910
G01 X18.2265 Y65.3437
G01 X18.2547 Y65.4036
G01 X18.2753 Y65.4614
G01 X18.2908 Y65.5233
G01 X18.3002 Y65.5865
G01 X18.3033 Y65.6490
G01 X18.3033 Y71.8820
G01 X18.3002 Y71.9457
G01 X18.2908 Y72.0089
G01 X18.2753 Y72.0708
G01 X18.2533 Y72.1320
G01 X18.2265 Y72.1885
G01 X18.1937 Y72.2433
G01 X18.1557 Y72.2945
G01 X18.1128 Y72.3418
G01 X14.2836 Y76.1710
G01 X14.2850 Y76.2012
G01 X14.2805 Y76.2919
G01 X14.2670 Y76.3841
G01 X14.2441 Y76.4758
G01 X14.2131 Y76.5624
G01 X14.1728 Y76.6478
G01 X14.1249 Y76.7278
G01 X14.0694 Y76.8027
G01 X14.0068 Y76.8718
G01 X13.9377 Y76.9344
G01 X13.8628 Y76.9899
G01 X13.7828 Y77.0378
G01 X13.6985 Y77.0777
G01 X13.6108 Y77.1091
G01 X13.5203 Y77.1317
G01 X13.4281 Y77.1454
G01 X13.3362 Y77.1500
G01 X13.2394 Y77.1451
G01 X13.1497 Y77.1317
G01 X13.0616 Y77.1097
G01 X12.9715 Y77.0777
G01 X12.8850 Y77.0366
G01 X12.8072 Y76.9899
G01 X12.7343 Y76.9359
G01 X12.6632 Y76.8718
G01 X12.5991 Y76.8007
G01 X12.5451 Y76.7278
G01 X12.4972 Y76.6478
G01 X12.4564 Y76.5613
G01 X12.4259 Y76.4758
G01 X12.4038 Y76.3877
G01 X12.3896 Y76.2931
G01 X12.3851 Y76.1975
G01 X12.3896 Y76.1069
G01 X12.4028 Y76.0171
G01 X12.4259 Y75.9242
G01 X12.4583 Y75.8342
G01 X12.4972 Y75.7522
G01 X12.5451 Y75.6722
G01 X12.6022 Y75.5955
G01 X12.6632 Y75.5282
G01 X12.7305 Y75.4672
G01 X12.8072 Y75.4101
G01 X12.8883 Y75.3616
G01 X12.9715 Y75.3223
G01 X13.0569 Y75.2917
G01 X13.1485 Y75.2685
G01 X13.2431 Y75.2545
G01 X13.3338 Y75.2500
G01 X13.3640 Y75.2514
G01 X17.0027 Y71.6126
G01 X17.0027 Y65.9196
G01 X15.6892 Y64.6061
G01 X15.0393 Y64.6061
G01 X15.0048 Y64.6316
G01 X14.9247 Y64.6794
G01 X14.8415 Y64.7187
G01 X14.7549 Y64.7497
G01 X14.6609 Y64.7732
G01 X14.5711 Y64.7864
G01 X14.4792 Y64.7910
G01 X14.3824 Y64.7861
G01 X14.2927 Y64.7727
G01 X14.2022 Y64.7501
G01 X14.1145 Y64.7187
G01 X14.0324 Y64.6799
G01 X13.9492 Y64.6302
G01 X13.8753 Y64.5754
G01 X13.8062 Y64.5128
G01 X13.7436 Y64.4437
G01 X13.6888 Y64.3698
G01 X13.6402 Y64.2888
G01 X13.6008 Y64.2057
G01 X13.5693 Y64.1179
G01 X13.5601 Y64.0819
G01 X13.5302 Y64.0774
G01 X13.4706 Y64.0624
G01 X13.4082 Y64.0401
G01 X13.3517 Y64.0133
G01 X13.2990 Y63.9818
G01 X13.2438 Y63.9409
G01 X13.1984 Y63.8996
G01 X11.8575 Y62.5588
G01 X11.8163 Y62.5132
G01 X11.7783 Y62.4620
G01 X11.7455 Y62.4073
G01 X11.7192 Y62.3518
G01 X11.6960 Y62.2871
G01 X11.6812 Y62.2276
G01 X11.6718 Y62.1645
G01 X11.6687 Y62.1007
G01 X11.6687 Y14.7524
G00 Z2.0000
G00 X13.8374 Y14.3699
G01 F60.00
G01 Z0.0000
G01 F120.00
G01 X13.8144 Y14.3388
G01 X13.7666 Y14.2587
G01 X13.7273 Y14.1755
G01 X13.6963 Y14.0889
G01 X13.6728 Y13.9949
G01 X13.6596 Y13.9051
G01 X13.6550 Y13.8132
G01 X13.6550 Y13.1120
G01 X13.6597 Y13.0177
G01 X13.6733 Y12.9267
G01 X13.6967 Y12.8339
G01 X13.7273 Y12.7485
G01 X13.7661 Y12.6664
G01 X13.8144 Y12.5852
G01 X13.8706 Y12.5093
G01 X13.9332 Y12.4402
G01 X14.0023 Y12.3776
G01 X14.0772 Y12.3221
G01 X14.1572 Y12.2742
G01 X14.2415 Y12.2343
G01 X14.3292 Y12.2029
G01 X14.4197 Y12.1803
G01 X14.5119 Y12.1666
G01 X14.6050 Y12.1620
G01 X14.6981 Y12.1666
G01 X14.7903 Y12.1803
G01 X14.8808 Y12.2029
G01 X14.9685 Y12.2343
G01 X15.0528 Y12.2742
G01 X15.1318 Y12.3214
G01 X15.2077 Y12.3776
G01 X15.2768 Y12.4402
G01 X15.3394 Y12.5093
G01 X15.3935 Y12.5822
G01 X15.4439 Y12.6664
G01 X15.4827 Y12.7485
G01 X15.5144 Y12.8374
G01 X15.5372 Y12.9291
G01 X15.5504 Y13.0189
G01 X15.5549 Y13.1095
G01 X15.5550 Y13.8120
G01 X15.5501 Y13.9076
G01 X15.5367 Y13.9973
G01 X15.5147 Y14.0854
G01 X15.4827 Y14.1755
G01 X15.4428 Y14.2598
G01 X15.3935 Y14.3418
G01 X15.3394 Y14.4147
G01 X15.2784 Y14.4820
G01 X15.2077 Y14.5464
G01 X15.1348 Y14.6005
G01 X15.1283 Y14.6047
G01 X15.1283 Y30.1697
G01 X15.1506 Y30.1901
G01 X15.2124 Y30.2583
G01 X15.2672 Y30.3322
G01 X15.2784 Y30.3506
G01 X15.2907 Y30.3539
G01 X15.3497 Y30.3750
G01 X15.4095 Y30.4035
G01 X15.4621 Y30.4351
G01 X15.5114 Y30.4716
G01 X15.5606 Y30.5160
G01 X15.6050 Y30.5652
G01 X15.6415 Y30.6145
G01 X15.6737 Y30.6682
G01 X15.7025 Y30.7292
G01 X15.7231 Y30.7870
G01 X15.7342 Y30.8310
G01 X22.8681 Y37.9649
G01 X22.9043 Y38.0049
G01 X22.9351 Y38.0463
G01 X22.9643 Y38.0946
G01 X22.9882 Y38.1457
G01 X23.0056 Y38.1943
G01 X23.0187 Y38.2467
G01 X23.0266 Y38.3001
G01 X23.0293 Y38.3540
G01 X23.0293 Y60.7321
G01 X34.0441 Y71.7469
G01 X34.0803 Y71.7869
G01 X34.1111 Y71.8283
G01 X34.1403 Y71.8766
G01 X34.1634 Y71.9254
G01 X34.1822 Y71.9786
G01 X34.1947 Y72.0287
G01 X34.2023 Y72.0796
G01 X34.2053 Y72.1360
G01 X34.2053 Y81.4219
G01 X34.2435 Y81.4569
G01 X34.2847 Y81.5025
G01 X34.3139 Y81.5417
G01 X36.0689 Y83.2967
G01 X40.3635 Y83.2967
G01 X40.3951 Y83.2779
G01 X40.4506 Y83.2517
G01 X40.5130 Y83.2294
G01 X40.5737 Y83.2142
G01 X40.6344 Y83.2051
G01 X40.6994 Y83.2017
G01 X43.0171 Y83.2017
G01 X43.0808 Y83.2048
G01 X43.1415 Y83.2138
G01 X43.2059 Y83.2297
G01 X43.2682 Y83.2522
G01 X43.3236 Y83.2785
G01 X43.3763 Y83.3100
G01 X43.4306 Y83.3501
G01 X43.4769 Y83.3922
G01 X44.2757 Y84.1909
G01 X44.3177 Y84.2374
G01 X44.3543 Y84.2866
G01 X44.3896 Y84.3455
G01 X44.4158 Y84.4010
G01 X44.4373 Y84.4611
G01 X44.4528 Y84.5230
G01 X44.4619 Y84.5837
G01 X44.4653 Y84.6499
G01 X44.4653 Y86.4870
G01 X44.4623 Y86.5495
G01 X44.4523 Y86.6163
G01 X44.4373 Y86.6758
G01 X44.4158 Y86.7359
G01 X44.3885 Y86.7935
G01 X44.3570 Y86.8462
G01 X44.3161 Y86.9014
G01 X44.2748 Y86.9468
G01 X27.6233 Y103.5984
G01 X27.6233 Y111.4126
G01 X29.6064 Y113.3957
G01 X41.3866 Y113.3957
G01 X43.2917 Y111.4906
G01 X43.2917 Y110.3216
G01 X43.2701 Y110.3112
G01 X43.1922 Y110.2646
G01 X43.1154 Y110.2076
G01 X43.0472 Y110.1458
G01 X42.9862 Y110.0785
G01 X42.9298 Y110.0028
G01 X42.8812 Y109.9218
G01 X42.8404 Y109.8353
G01 X42.8093 Y109.7474
G01 X42.7873 Y109.6593
G01 X42.7739 Y109.5696
G01 X42.7690 Y109.4740
G01 X42.7736 Y109.3809
G01 X42.7873 Y109.2887
G01 X42.8093 Y109.2006
G01 X42.8423 Y109.1082
G01 X42.8812 Y109.0262
G01 X42.9305 Y108.9442
G01 X42.9846 Y108.8713
G01 X43.0472 Y108.8022
G01 X43.1163 Y108.7396
G01 X43.1912 Y108.6841
G01 X43.2712 Y108.6362
G01 X43.3555 Y108.5963
G01 X43.4432 Y108.5649
G01 X43.5361 Y108.5418
G01 X43.6259 Y108.5286
G01 X43.7178 Y108.5240
G01 X44.4190 Y108.5240
G01 X44.5109 Y108.5285
G01 X44.6043 Y108.5423
G01 X44.6948 Y108.5649
G01 X44.7825 Y108.5963
G01 X44.8657 Y108.6356
G01 X44.9488 Y108.6855
G01 X45.0217 Y108.7396
G01 X45.0908 Y108.8022
G01 X45.1549 Y108.8733
G01 X45.2089 Y108.9462
G01 X45.2568 Y109.0262
G01 X45.2967 Y109.1105
G01 X45.3273 Y109.1959
G01 X45.3507 Y109.2887
G01 X45.3646 Y109.3833
G01 X45.3690 Y109.4740
G01 X45.3644 Y109.5671
G01 X45.3507 Y109.6593
G01 X45.3287 Y109.7474
G01 X45.2957 Y109.8398
G01 X45.2568 Y109.9218
G01 X45.2089 Y110.0018
G01 X45.1534 Y110.0767
G01 X45.0924 Y110.1440
G01 X45.0197 Y110.2099
G01 X44.9468 Y110.2639
G01 X44.8668 Y110.3118
G01 X44.7825 Y110.3517
G01 X44.6971 Y110.3823
G01 X44.6067 Y110.4052
G01 X44.5923 Y110.4076
G01 X44.5922 Y111.7625
G01 X44.5889 Y111.8262
G01 X44.5798 Y111.8869
G01 X44.5650 Y111.9464
G01 X44.5428 Y112.0089
G01 X44.5161 Y112.0655
G01 X44.4813 Y112.1233
G01 X44.4447 Y112.1725
G01 X44.4018 Y112.2198
G01 X42.1150 Y114.5067
G01 X42.0666 Y114.5502
G01 X42.0173 Y114.5867
G01 X41.9647 Y114.6183
G01 X41.9049 Y114.6468
G01 X41.8436 Y114.6686
G01 X41.7829 Y114.6838
G01 X41.7222 Y114.6929
G01 X41.6560 Y114.6963
G01 X29.3370 Y114.6963
G01 X29.2708 Y114.6929
G01 X29.2101 Y114.6838
G01 X29.1482 Y114.6683
G01 X29.0881 Y114.6468
G01 X29.0326 Y114.6206
G01 X28.9737 Y114.5853
G01 X28.9245 Y114.5487
G01 X28.8772 Y114.5058
G01 X26.5123 Y112.1410
G01 X26.4703 Y112.0945
G01 X26.4337 Y112.0453
G01 X26.3995 Y111.9885
G01 X26.3713 Y111.9286
G01 X26.3507 Y111.8708
G01 X26.3354 Y111.8101
G01 X26.3258 Y111.7457
G01 X26.3227 Y111.6820
G01 X26.3227 Y103.3278
G01 X26.3258 Y103.2653
G01 X26.3352 Y103.2021
G01 X26.3507 Y103.1402
G01 X26.3722 Y103.0801
G01 X26.3995 Y103.0225
G01 X26.4323 Y102.9677
G01 X26.4703 Y102.9165
G01 X26.5132 Y102.8692
G01 X43.1647 Y86.2176
G01 X43.1647 Y84.9193
G01 X42.7477 Y84.5023
G01 X40.9427 Y84.5023
G01 X40.9111 Y84.5211
G01 X40.8556 Y84.5473
G01 X40.7932 Y84.5696
G01 X40.7325 Y84.5848
G01 X40.6718 Y84.5939
G01 X40.6068 Y84.5973
G01 X37.3695 Y84.5973
G01 X37.7089 Y84.9368
G01 X37.7451 Y84.9769
G01 X37.7758 Y85.0183
G01 X37.7843 Y85.0321
G01 X37.8133 Y85.0337
G01 X37.9055 Y85.0475
G01 X37.9948 Y85.0699
G01 X38.0837 Y85.1018
G01 X38.1668 Y85.1412
G01 X38.2468 Y85.1891
G01 X38.3217 Y85.2446
G01 X38.3899 Y85.3064
G01 X38.4549 Y85.3783
G01 X38.5089 Y85.4512
G01 X38.5568 Y85.5312
G01 X38.5967 Y85.6155
G01 X38.6273 Y85.7009
G01 X38.6512 Y85.7961
G01 X38.6644 Y85.8859
G01 X38.6689 Y85.9815
G01 X38.6641 Y86.0746
G01 X38.6507 Y86.1643
G01 X38.6287 Y86.2524
G01 X38.5967 Y86.3425
G01 X38.5568 Y86.4268
G01 X38.5089 Y86.5068
G01 X38.4534 Y86.5817
G01 X38.3908 Y86.6508
G01 X38.3197 Y86.7149
G01 X38.2468 Y86.7689
G01 X38.1690 Y86.8156
G01 X38.0848 Y86.8557
G01 X37.9948 Y86.8881
G01 X37.9043 Y86.9107
G01 X37.8121 Y86.9244
G01 X37.7165 Y86.9289
G01 X37.6234 Y86.9241
G01 X37.5337 Y86.9107
G01 X37.4456 Y86.8887
G01 X37.3555 Y86.8567
G01 X37.2734 Y86.8179
G01 X37.1912 Y86.7689
G01 X37.1163 Y86.7134
G01 X37.0472 Y86.6508
G01 X36.9862 Y86.5835
G01 X36.9291 Y86.5068
G01 X36.8801 Y86.4246
G01 X36.8413 Y86.3425
G01 X36.8107 Y86.2571
G01 X36.7870 Y86.1631
G01 X36.7734 Y86.0697
G01 X36.7690 Y85.9790
G01 X36.7735 Y85.8871
G01 X36.7878 Y85.7913
G01 X36.8099 Y85.7032
G01 X36.8370 Y85.6274
G01 X36.8337 Y85.6219
G01 X36.8300 Y85.6142
G01 X35.7962 Y84.5804
G01 X35.7522 Y84.5693
G01 X35.6944 Y84.5487
G01 X35.6334 Y84.5199
G01 X35.5797 Y84.4877
G01 X35.5304 Y84.4512
G01 X35.4812 Y84.4068
G01 X35.4368 Y84.3576
G01 X35.4003 Y84.3083
G01 X35.3681 Y84.2546
G01 X35.3393 Y84.1936
G01 X35.3187 Y84.1358
G01 X35.3076 Y84.0918
G01 X33.9162 Y82.7004
G01 X33.4790 Y83.1377
G01 X33.4325 Y83.1797
G01 X33.3823 Y83.2170
G01 X33.3244 Y83.2516
G01 X33.2689 Y83.2778
G01 X33.2088 Y83.2993
G01 X33.1444 Y83.3152
G01 X33.0837 Y83.3242
G01 X33.0212 Y83.3273
G01 X13.7314 Y83.3273
G01 X11.3490 Y85.7097
G01 X12.6437 Y85.7097
G01 X12.6641 Y85.6874
G01 X12.7333 Y85.6249
G01 X12.8072 Y85.5701
G01 X12.8883 Y85.5216
G01 X12.9715 Y85.4823
G01 X13.0592 Y85.4509
G01 X13.1497 Y85.4283
G01 X13.2443 Y85.4144
G01 X13.3350 Y85.4100
G01 X13.4281 Y85.4146
G01 X13.5203 Y85.4283
G01 X13.6084 Y85.4503
G01 X13.7008 Y85.4833
G01 X13.7828 Y85.5222
G01 X13.8618 Y85.5694
G01 X13.9395 Y85.6272
G01 X14.0068 Y85.6882
G01 X14.0678 Y85.7555
G01 X14.1249 Y85.8322
G01 X14.1739 Y85.9144
G01 X14.2127 Y85.9965
G01 X14.2433 Y86.0819
G01 X14.2667 Y86.1747
G01 X14.2806 Y86.2693
G01 X14.2850 Y86.3600
G01 X14.2804 Y86.4531
G01 X14.2662 Y86.5477
G01 X14.2441 Y86.6358
G01 X14.2136 Y86.7213
G01 X14.1728 Y86.8078
G01 X14.1235 Y86.8898
G01 X14.0694 Y86.9627
G01 X14.0084 Y87.0300
G01 X13.9377 Y87.0944
G01 X13.8607 Y87.1512
G01 X13.7828 Y87.1978
G01 X13.7008 Y87.2367
G01 X13.6084 Y87.2697
G01 X13.5203 Y87.2917
G01 X13.4281 Y87.3054
G01 X13.3350 Y87.3100
G01 X13.2443 Y87.3056
G01 X13.1485 Y87.2915
G01 X13.0592 Y87.2691
G01 X12.9737 Y87.2386
G01 X12.8861 Y87.1972
G01 X12.8072 Y87.1499
G01 X12.7333 Y87.0951
G01 X12.6641 Y87.0326
G01 X12.6437 Y87.0103
G01 X8.3113 Y87.0103
G01 X8.2909 Y87.0326
G01 X8.2236 Y87.0936
G01 X8.1488 Y87.1492
G01 X8.0678 Y87.1978
G01 X7.9824 Y87.2381
G01 X7.8934 Y87.2697
G01 X7.8053 Y87.2917
G01 X7.7156 Y87.3051
G01 X7.6200 Y87.3100
G01 X7.5269 Y87.3054
G01 X7.4347 Y87.2917
G01 X7.3466 Y87.2697
G01 X7.2565 Y87.2377
G01 X7.1700 Y87.1966
G01 X7.0922 Y87.1499
G01 X7.0173 Y87.0944
G01 X6.9482 Y87.0318
G01 X6.8872 Y86.9645
G01 X6.8301 Y86.8878
G01 X6.7822 Y86.8078
G01 X6.7433 Y86.7258
G01 X6.7106 Y86.6346
G01 X6.6883 Y86.5453
G01 X6.6746 Y86.4531
G01 X6.6700 Y86.3600
G01 X6.6746 Y86.2669
G01 X6.6883 Y86.1747
G01 X6.7109 Y86.0842
G01 X6.7423 Y85.9965
G01 X6.7822 Y85.9122
G01 X6.8301 Y85.8322
G01 X6.8856 Y85.7573
G01 X6.9482 Y85.6882
G01 X7.0173 Y85.6256
G01 X7.0922 Y85.5701
G01 X7.1722 Y85.5222
G01 X7.2565 Y85.4823
G01 X7.3431 Y85.4513
G01 X7.4371 Y85.4278
G01 X7.5269 Y85.4146
G01 X7.6200 Y85.4100
G01 X7.7156 Y85.4149
G01 X7.8053 Y85.4283
G01 X7.8946 Y85.4506
G01 X7.9858 Y85.4833
G01 X8.0678 Y85.5222
G01 X8.1468 Y85.5694
G01 X8.2236 Y85.6264
G01 X8.2909 Y85.6874
G01 X8.3113 Y85.7097
G01 X9.5096 Y85.7097
G01 X13.0030 Y82.2163
G01 X13.0495 Y82.1743
G01 X13.0987 Y82.1377
G01 X13.1555 Y82.1035
G01 X13.2154 Y82.0753
G01 X13.2732 Y82.0547
G01 X13.3351 Y82.0392
G01 X13.3983 Y82.0298
G01 X13.4620 Y82.0267
G01 X32.7506 Y82.0267
G01 X33.1047 Y81.6726
G01 X33.1047 Y72.3639
G01 X22.0899 Y61.3491
G01 X22.0521 Y61.3071
G01 X22.0215 Y61.2657
G01 X21.9949 Y61.2215
G01 X21.9706 Y61.1706
G01 X21.9521 Y61.1186
G01 X21.9393 Y61.0673
G01 X21.9317 Y61.0164
G01 X21.9287 Y60.9600
G01 X21.9287 Y38.5819
G01 X15.0008 Y31.6540
G01 X14.9258 Y31.6988
G01 X14.8438 Y31.7377
G01 X14.7561 Y31.7693
G01 X14.6633 Y31.7927
G01 X14.5711 Y31.8064
G01 X14.4780 Y31.8110
G01 X14.3824 Y31.8061
G01 X14.2927 Y31.7927
G01 X14.2046 Y31.7707
G01 X14.1167 Y31.7396
G01 X14.0302 Y31.6988
G01 X13.9502 Y31.6509
G01 X13.8753 Y31.5954
G01 X13.8046 Y31.5310
G01 X13.7421 Y31.4617
G01 X13.6881 Y31.3888
G01 X13.6414 Y31.3110
G01 X13.6003 Y31.2245
G01 X13.5693 Y31.1379
G01 X13.5458 Y31.0439
G01 X13.5326 Y30.9541
G01 X13.5280 Y30.8610
G01 X13.5329 Y30.7654
G01 X13.5463 Y30.6757
G01 X13.5686 Y30.5864
G01 X13.6013 Y30.4952
G01 X13.6402 Y30.4132
G01 X13.6874 Y30.3342
G01 X13.7444 Y30.2574
G01 X13.8054 Y30.1901
G01 X13.8277 Y30.1697
G01 X13.8277 Y14.4780
G01 X13.8308 Y14.4143
G01 X13.8374 Y14.3699
G00 Z2.0000
G00 X8.8169 Y19.1817
G01 F60.00
G01 Z0.0000
G01 F120.00
G01 X8.8129 Y19.1693
G01 X8.8106 Y19.1597
G01 X8.8090 Y19.1499
G01 X8.8082 Y19.1400
G01 X8.8080 Y19.1300
G01 X8.8087 Y19.1201
G01 X8.8100 Y19.1103
G01 X8.8121 Y19.1005
G01 X8.8148 Y19.0910
G01 X8.8183 Y19.0817
G01 X8.8224 Y19.0726
G01 X8.8290 Y19.0611
G01 X8.8346 Y19.0529
G01 X8.8408 Y19.0452
G01 X8.8476 Y19.0379
G01 X8.8549 Y19.0311
G01 X8.8680 Y19.0211
G01 X8.9785 Y18.9474
G01 X8.9900 Y18.9409
G01 X9.0022 Y18.9355
G01 X9.0116 Y18.9323
G01 X9.0244 Y18.9291
G01 X9.0375 Y18.9271
G01 X9.0507 Y18.9265
G01 X9.0640 Y18.9272
G01 X9.0771 Y18.9291
G01 X9.0867 Y18.9314
G01 X9.0993 Y18.9356
G01 X9.1114 Y18.9409
G01 X9.1229 Y18.9474
G01 X9.1338 Y18.9551
G01 X9.1438 Y18.9637
G01 X9.6073 Y19.4272
G01 X9.6139 Y19.4347
G01 X9.6199 Y19.4426
G01 X9.6253 Y19.4509
G01 X9.6301 Y19.4596
G01 X9.6342 Y19.4686
G01 X9.6377 Y19.4780
G01 X9.6412 Y19.4907
G01 X9.6430 Y19.5005
G01 X9.6441 Y19.5104
G01 X9.6445 Y19.5203
G01 X9.6445 Y23.0975
G01 X9.6441 Y23.1074
G01 X9.6425 Y23.1206
G01 X9.6387 Y23.1367
G01 X9.6329 Y23.1522
G01 X9.6253 Y23.1669
G01 X9.6159 Y23.1805
G01 X9.6050 Y23.1929
G01 X9.5926 Y23.2039
G01 X9.5789 Y23.2133
G01 X9.5702 Y23.2181
G01 X9.5612 Y23.2222
G01 X9.5519 Y23.2257
G01 X9.5423 Y23.2284
G01 X9.4023 Y23.2563
G01 X9.3858 Y23.2578
G01 X9.3693 Y23.2572
G01 X9.3529 Y23.2545
G01 X9.3370 Y23.2499
G01 X9.3278 Y23.2462
G01 X9.3188 Y23.2418
G01 X9.3047 Y23.2332
G01 X9.2918 Y23.2228
G01 X9.2802 Y23.2109
G01 X9.2740 Y23.2032
G01 X9.2684 Y23.1950
G01 X9.2604 Y23.1804
G01 X9.2248 Y23.0948
G01 X9.0737 Y22.8687
G01 X8.8909 Y22.6859
G01 X8.8841 Y22.6786
G01 X8.8779 Y22.6708
G01 X8.8723 Y22.6626
G01 X8.8673 Y22.6541
G01 X8.8629 Y22.6451
G01 X8.8592 Y22.6359
G01 X8.8562 Y22.6264
G01 X8.8528 Y22.6102
G01 X8.8517 Y22.6003
G01 X8.8513 Y22.5904
G01 X8.8513 Y19.4426
G01 X8.8169 Y19.1817
G00 Z2.0000
G00 X8.7338 Y19.2015
G01 F60.00
G01 Z0.0000
G01 F120.00
G01 X8.7296 Y19.1867
G01 X8.7262 Y19.1709
G01 X8.7240 Y19.1548
G01 X8.7231 Y19.1387
G01 X8.7233 Y19.1225
G01 X8.7247 Y19.1064
G01 X8.7272 Y19.0904
G01 X8.7296 Y19.0798
G01 X8.7341 Y19.0643
G01 X8.7398 Y19.0491
G01 X8.7465 Y19.0344
G01 X8.7544 Y19.0202
G01 X8.7601 Y19.0111
G01 X8.7696 Y18.9980
G01 X8.7801 Y18.9856
G01 X8.7914 Y18.9740
G01 X8.8035 Y18.9633
G01 X8.8164 Y18.9535
G01 X8.9285 Y18.8785
G01 X8.9377 Y18.8728
G01 X8.9471 Y18.8674
G01 X8.9567 Y18.8626
G01 X8.9716 Y18.8562
G01 X8.9869 Y18.8510
G01 X8.9973 Y18.8481
G01 X9.0078 Y18.8457
G01 X9.0238 Y18.8431
G01 X9.0400 Y18.8418
G01 X9.0561 Y18.8416
G01 X9.0669 Y18.8421
G01 X9.0777 Y18.8432
G01 X9.0937 Y18.8457
G01 X9.1094 Y18.8495
G01 X9.1197 Y18.8526
G01 X9.1349 Y18.8583
G01 X9.1448 Y18.8626
G01 X9.1592 Y18.8701
G01 X9.1684 Y18.8756
G01 X9.1774 Y18.8816
G01 X9.1903 Y18.8914
G01 X9.1984 Y18.8985
G01 X9.2063 Y18.9059
G01 X9.6688 Y19.3686
G01 X9.6796 Y19.3807
G01 X9.6894 Y19.3936
G01 X9.6982 Y19.4072
G01 X9.7060 Y19.4214
G01 X9.7128 Y19.4361
G01 X9.7184 Y19.4513
G01 X9.7229 Y19.4668
G01 X9.7263 Y19.4827
G01 X9.7278 Y19.4934
G01 X9.7289 Y19.5041
G01 X9.7295 Y19.5203
G01 X9.7295 Y23.0975
G01 X9.7289 Y23.1137
G01 X9.7278 Y23.1244
G01 X9.7263 Y23.1351
G01 X9.7242 Y23.1457
G01 X9.7200 Y23.1613
G01 X9.7166 Y23.1716
G01 X9.7106 Y23.1866
G01 X9.7060 Y23.1964
G01 X9.7009 Y23.2059
G01 X9.6954 Y23.2152
G01 X9.6894 Y23.2242
G01 X9.6830 Y23.2328
G01 X9.6761 Y23.2412
G01 X9.6689 Y23.2492
G01 X9.6612 Y23.2568
G01 X9.6532 Y23.2641
G01 X9.6406 Y23.2742
G01 X9.6272 Y23.2833
G01 X9.6180 Y23.2889
G01 X9.6085 Y23.2940
G01 X9.5987 Y23.2986
G01 X9.5887 Y23.3027
G01 X9.5734 Y23.3080
G01 X9.5630 Y23.3109
G01 X9.5525 Y23.3133
G01 X9.4202 Y23.3396
G01 X9.4041 Y23.3417
G01 X9.3933 Y23.3425
G01 X9.3825 Y23.3428
G01 X9.3663 Y23.3422
G01 X9.3556 Y23.3411
G01 X9.3396 Y23.3386
G01 X9.3290 Y23.3362
G01 X9.3135 Y23.3317
G01 X9.2983 Y23.3260
G01 X9.2884 Y23.3217
G01 X9.2740 Y23.3142
G01 X9.2602 Y23.3057
G01 X9.2514 Y23.2995
G01 X9.2388 Y23.2893
G01 X9.2269 Y23.2783
G01 X9.2194 Y23.2705
G01 X9.2124 Y23.2623
G01 X9.2026 Y23.2494
G01 X9.1937 Y23.2358
G01 X9.1859 Y23.2216
G01 X9.1792 Y23.2069
G01 X9.1495 Y23.1350
G01 X9.0077 Y22.9229
G01 X8.8308 Y22.7460
G01 X8.8233 Y22.7382
G01 X8.8163 Y22.7300
G01 X8.8096 Y22.7215
G01 X8.8005 Y22.7081
G01 X8.7949 Y22.6989
G01 X8.7874 Y22.6845
G01 X8.7811 Y22.6696
G01 X8.7774 Y22.6594
G01 X8.7729 Y22.6439
G01 X8.7695 Y22.6280
G01 X8.7680 Y22.6173
G01 X8.7669 Y22.6066
G01 X8.7663 Y22.5904
G01 X8.7663 Y19.4482
G01 X8.7338 Y19.2015
G00 Z2.0000
G00 X8.6971 Y22.7280
G01 F60.00
G01 Z0.0000
G01 F120.00
G01 X8.7851 Y22.7936
G01 X8.7933 Y22.8006
G01 X8.8750 Y22.8750
G01 X8.9494 Y22.9567
G01 X8.9564 Y22.9649
G01 X8.9631 Y22.9734
G01 X9.0287 Y23.0623
G01 X9.0857 Y23.1570
G01 X9.0911 Y23.1664
G01 X9.0959 Y23.1760
G01 X9.1429 Y23.2760
G01 X9.1804 Y23.3800
G01 X9.1838 Y23.3902
G01 X9.2109 Y23.4973
G01 X9.2133 Y23.5079
G01 X9.2151 Y23.5185
G01 X9.2310 Y23.6279
G01 X9.2367 Y23.7382
G01 X9.2370 Y23.7490
G01 X9.2367 Y23.7598
G01 X9.2310 Y23.8701
G01 X9.2151 Y23.9795
G01 X9.2133 Y23.9901
G01 X9.2109 Y24.0007
G01 X9.1838 Y24.1078
G01 X9.1804 Y24.1180
G01 X9.1429 Y24.2220
G01 X9.0959 Y24.3220
G01 X9.0911 Y24.3316
G01 X9.0857 Y24.3410
G01 X9.0287 Y24.4357
G01 X8.9631 Y24.5246
G01 X8.9564 Y24.5331
G01 X8.9494 Y24.5413
G01 X8.8750 Y24.6230
G01 X8.7933 Y24.6974
G01 X8.7851 Y24.7044
G01 X8.7766 Y24.7111
G01 X8.6877 Y24.7767
G01 X8.5930 Y24.8337
G01 X8.5836 Y24.8391
G01 X8.5740 Y24.8439
G01 X8.4740 Y24.8909
G01 X8.4639 Y24.8948
G01 X8.3598 Y24.9318
G01 X8.2527 Y24.9589
G01 X8.2421 Y24.9613
G01 X8.2315 Y24.9631
G01 X8.1221 Y24.9790
G01 X8.0118 Y24.9847
G01 X8.0010 Y24.9850
G01 X7.9902 Y24.9847
G01 X7.8799 Y24.9790
G01 X7.7705 Y24.9631
G01 X7.7599 Y24.9613
G01 X7.7493 Y24.9589
G01 X7.6422 Y24.9318
G01 X7.6320 Y24.9284
G01 X7.5280 Y24.8909
G01 X7.4280 Y24.8439
G01 X7.4184 Y24.8391
G01 X7.4090 Y24.8337
G01 X7.3143 Y24.7767
G01 X7.2254 Y24.7111
G01 X7.2169 Y24.7044
G01 X7.1348 Y24.6304
G01 X7.1270 Y24.6230
G01 X7.1196 Y24.6152
G01 X7.0526 Y24.5413
G01 X7.0456 Y24.5331
G01 X7.0389 Y24.5246
G01 X6.9733 Y24.4357
G01 X6.9163 Y24.3410
G01 X6.9109 Y24.3316
G01 X6.9061 Y24.3220
G01 X6.8591 Y24.2220
G01 X6.8552 Y24.2119
G01 X6.8182 Y24.1078
G01 X6.7911 Y24.0007
G01 X6.7887 Y23.9901
G01 X6.7723 Y23.8809
G01 X6.7710 Y23.8701
G01 X6.7702 Y23.8594
G01 X6.7650 Y23.7490
G01 X6.7653 Y23.7382
G01 X6.7710 Y23.6279
G01 X6.7869 Y23.5185
G01 X6.7887 Y23.5079
G01 X6.7911 Y23.4973
G01 X6.8182 Y23.3902
G01 X6.8216 Y23.3800
G01 X6.8591 Y23.2760
G01 X6.9061 Y23.1760
G01 X6.9109 Y23.1664
G01 X6.9163 Y23.1570
G01 X6.9733 Y23.0623
G01 X7.0389 Y22.9734
G01 X7.0456 Y22.9649
G01 X7.0565 Y22.9524
G01 X7.0565 Y19.7736
G01 X2.4642 Y15.1812
G01 X2.4210 Y15.1336
G01 X2.4139 Y15.1254
G01 X2.4073 Y15.1169
G01 X2.3659 Y15.0607
G01 X2.3299 Y15.0011
G01 X2.3246 Y14.9917
G01 X2.3197 Y14.9820
G01 X2.2901 Y14.9189
G01 X2.2664 Y14.8534
G01 X2.2615 Y14.8379
G01 X2.2435 Y14.7650
G01 X2.2330 Y14.6961
G01 X2.2316 Y14.6854
G01 X2.2309 Y14.6746
G01 X2.2277 Y14.6050
G01 X2.2277 Y10.0330
G01 X2.2309 Y9.9634
G01 X2.2316 Y9.9526
G01 X2.2330 Y9.9419
G01 X2.2435 Y9.8730
G01 X2.2458 Y9.8624
G01 X2.2630 Y9.7949
G01 X2.2863 Y9.7292
G01 X2.2901 Y9.7191
G01 X2.3197 Y9.6560
G01 X2.3246 Y9.6463
G01 X2.3299 Y9.6369
G01 X2.3659 Y9.5773
G01 X2.4073 Y9.5211
G01 X2.4139 Y9.5126
G01 X2.4210 Y9.5044
G01 X2.4642 Y9.4568
G01 X4.1190 Y7.8020
G01 X4.1704 Y7.7550
G01 X4.1786 Y7.7479
G01 X4.1871 Y7.7413
G01 X4.2433 Y7.6999
G01 X4.3029 Y7.6639
G01 X4.3123 Y7.6586
G01 X4.3220 Y7.6537
G01 X4.3851 Y7.6241
G01 X4.4506 Y7.6004
G01 X4.4661 Y7.5955
G01 X4.5390 Y7.5775
G01 X4.6079 Y7.5670
G01 X4.6186 Y7.5656
G01 X4.6294 Y7.5649
G01 X4.6990 Y7.5617
G01 X43.6880 Y7.5617
G01 X43.7576 Y7.5649
G01 X43.7738 Y7.5662
G01 X43.8480 Y7.5775
G01 X43.9157 Y7.5941
G01 X43.9261 Y7.5970
G01 X43.9364 Y7.6004
G01 X44.0019 Y7.6241
G01 X44.0118 Y7.6285
G01 X44.0747 Y7.6586
G01 X44.1346 Y7.6942
G01 X44.1437 Y7.6999
G01 X44.1526 Y7.7062
G01 X44.2042 Y7.7445
G01 X44.2166 Y7.7550
G01 X44.2680 Y7.8020
G01 X45.4148 Y8.9488
G01 X45.4651 Y9.0046
G01 X45.4717 Y9.0131
G01 X45.5131 Y9.0693
G01 X45.5188 Y9.0784
G01 X45.5544 Y9.1383
G01 X45.5867 Y9.2061
G01 X45.5927 Y9.2212
G01 X45.6160 Y9.2869
G01 X45.6332 Y9.3544
G01 X45.6355 Y9.3650
G01 X45.6374 Y9.3756
G01 X45.6474 Y9.4446
G01 X45.6512 Y9.5196
G01 X45.6513 Y12.2331
G01 X45.6643 Y12.2429
G01 X45.6727 Y12.2497
G01 X45.7500 Y12.3200
G01 X45.8167 Y12.3933
G01 X45.8271 Y12.4057
G01 X45.8830 Y12.4809
G01 X45.8922 Y12.4943
G01 X45.9458 Y12.5840
G01 X45.9733 Y12.6417
G01 X46.4827 Y12.6417
G01 X46.5054 Y12.5937
G01 X46.5129 Y12.5793
G01 X46.5610 Y12.4989
G01 X46.5698 Y12.4853
G01 X46.6322 Y12.4015
G01 X46.7023 Y12.3239
G01 X46.7139 Y12.3126
G01 X46.7793 Y12.2533
G01 X46.7875 Y12.2462
G01 X46.7960 Y12.2396
G01 X46.8758 Y12.1808
G01 X46.9653 Y12.1269
G01 X46.9797 Y12.1194
G01 X47.0595 Y12.0816
G01 X47.0694 Y12.0773
G01 X47.0795 Y12.0734
G01 X47.1729 Y12.0402
G01 X47.2690 Y12.0159
G01 X47.2795 Y12.0135
G01 X47.3775 Y11.9987
G01 X47.3882 Y11.9974
G01 X47.3990 Y11.9966
G01 X47.4980 Y11.9920
G01 X47.5970 Y11.9966
G01 X47.6078 Y11.9974
G01 X47.6185 Y11.9987
G01 X47.7165 Y12.0135
G01 X47.8127 Y12.0373
G01 X47.8231 Y12.0402
G01 X47.8334 Y12.0436
G01 X47.9266 Y12.0773
G01 X48.0163 Y12.1194
G01 X48.0260 Y12.1242
G01 X48.1111 Y12.1750
G01 X48.1202 Y12.1808
G01 X48.1291 Y12.1870
G01 X48.2000 Y12.2396
G01 X48.2085 Y12.2462
G01 X48.2167 Y12.2533
G01 X48.2900 Y12.3200
G01 X48.3567 Y12.3933
G01 X48.3638 Y12.4015
G01 X48.3704 Y12.4100
G01 X48.4292 Y12.4898
G01 X48.4804 Y12.5746
G01 X48.4858 Y12.5840
G01 X48.4906 Y12.5937
G01 X48.5284 Y12.6735
G01 X48.5327 Y12.6834
G01 X48.5366 Y12.6935
G01 X48.5698 Y12.7869
G01 X48.5941 Y12.8830
G01 X48.5965 Y12.8935
G01 X48.5983 Y12.9041
G01 X48.6126 Y13.0022
G01 X48.6179 Y13.1066
G01 X48.6179 Y13.8174
G01 X48.6126 Y13.9218
G01 X48.5983 Y14.0199
G01 X48.5965 Y14.0305
G01 X48.5941 Y14.0410
G01 X48.5727 Y14.1267
G01 X48.5681 Y14.1423
G01 X48.5327 Y14.2406
G01 X48.4906 Y14.3303
G01 X48.4858 Y14.3400
G01 X48.4804 Y14.3494
G01 X48.4292 Y14.4342
G01 X48.3704 Y14.5140
G01 X48.3638 Y14.5225
G01 X48.3567 Y14.5307
G01 X48.2900 Y14.6040
G01 X48.2167 Y14.6707
G01 X48.2085 Y14.6778
G01 X48.2000 Y14.6844
G01 X48.1291 Y14.7370
G01 X48.1202 Y14.7432
G01 X48.1111 Y14.7490
G01 X48.0260 Y14.7998
G01 X47.9316 Y14.8446
G01 X47.9165 Y14.8506
G01 X47.8231 Y14.8838
G01 X47.7270 Y14.9081
G01 X47.7165 Y14.9105
G01 X47.6185 Y14.9253
G01 X47.6078 Y14.9266
G01 X47.5970 Y14.9274
G01 X47.4980 Y14.9320
G01 X47.3990 Y14.9274
G01 X47.3882 Y14.9266
G01 X47.3775 Y14.9253
G01 X47.2795 Y14.9105
G01 X47.1833 Y14.8867
G01 X47.1729 Y14.8838
G01 X47.0744 Y14.8487
G01 X47.0595 Y14.8424
G01 X46.9700 Y14.7998
G01 X46.9606 Y14.7944
G01 X46.8758 Y14.7432
G01 X46.7960 Y14.6844
G01 X46.7875 Y14.6778
G01 X46.7099 Y14.6077
G01 X46.6986 Y14.5961
G01 X46.6322 Y14.5225
G01 X46.5698 Y14.4387
G01 X46.5610 Y14.4251
G01 X46.5129 Y14.3447
G01 X46.5054 Y14.3303
G01 X46.4827 Y14.2823
G01 X45.9733 Y14.2823
G01 X45.9458 Y14.3400
G01 X45.8922 Y14.4297
G01 X45.8830 Y14.4431
G01 X45.8271 Y14.5183
G01 X45.8167 Y14.5307
G01 X45.7500 Y14.6040
G01 X45.6767 Y14.6707
G01 X45.6643 Y14.6811
G01 X45.5802 Y14.7432
G01 X45.4954 Y14.7944
G01 X45.4860 Y14.7998
G01 X45.4763 Y14.8046
G01 X45.3866 Y14.8467
G01 X45.2934 Y14.8804
G01 X45.2831 Y14.8838
G01 X45.2727 Y14.8867
G01 X45.1818 Y14.9094
G01 X45.1659 Y14.9123
G01 X45.0678 Y14.9266
G01 X45.0570 Y14.9274
G01 X44.9580 Y14.9320
G01 X44.8590 Y14.9274
G01 X44.8482 Y14.9266
G01 X44.8375 Y14.9253
G01 X44.7395 Y14.9105
G01 X44.6433 Y14.8867
G01 X44.6329 Y14.8838
G01 X44.6226 Y14.8804
G01 X44.5294 Y14.8467
G01 X44.4397 Y14.8046
G01 X44.4300 Y14.7998
G01 X44.3449 Y14.7490
G01 X44.3313 Y14.7402
G01 X44.2475 Y14.6778
G01 X44.1739 Y14.6114
G01 X44.1660 Y14.6040
G01 X44.1586 Y14.5961
G01 X44.0993 Y14.5307
G01 X44.0922 Y14.5225
G01 X44.0856 Y14.5140
G01 X44.0268 Y14.4342
G01 X43.9756 Y14.3494
G01 X43.9702 Y14.3400
G01 X43.9654 Y14.3303
G01 X43.9233 Y14.2406
G01 X43.8896 Y14.1474
G01 X43.8862 Y14.1371
G01 X43.8619 Y14.0410
G01 X43.8595 Y14.0305
G01 X43.8447 Y13.9325
G01 X43.8429 Y13.9164
G01 X43.8380 Y13.8120
G01 X43.8380 Y13.1120
G01 X43.8426 Y13.0130
G01 X43.8440 Y12.9969
G01 X43.8595 Y12.8935
G01 X43.8833 Y12.7973
G01 X43.8862 Y12.7869
G01 X43.8896 Y12.7766
G01 X43.9194 Y12.6935
G01 X43.9233 Y12.6834
G01 X43.9276 Y12.6735
G01 X43.9702 Y12.5840
G01 X44.0107 Y12.5160
G01 X44.0107 Y9.8648
G01 X43.3482 Y9.2023
G01 X5.0388 Y9.2023
G01 X3.8683 Y10.3728
G01 X3.8683 Y14.2652
G01 X8.4568 Y18.8538
G01 X8.5038 Y18.9052
G01 X8.5109 Y18.9134
G01 X8.5175 Y18.9219
G01 X8.5589 Y18.9781
G01 X8.5976 Y19.0424
G01 X8.6051 Y19.0568
G01 X8.6347 Y19.1199
G01 X8.6584 Y19.1854
G01 X8.6618 Y19.1957
G01 X8.6647 Y19.2061
G01 X8.6813 Y19.2738
G01 X8.6918 Y19.3427
G01 X8.6932 Y19.3534
G01 X8.6939 Y19.3642
G01 X8.6970 Y19.4284
G01 X8.6971 Y22.7280
G00 Z2.0000
G00 X8.6121 Y22.7748
G01 F60.00
G01 Z0.0000
G01 F120.00
G01 X8.6349 Y22.7884
G01 X8.6432 Y22.7939
G01 X8.7286 Y22.8572
G01 X8.7362 Y22.8636
G01 X8.8125 Y22.9328
G01 X8.8194 Y22.9399
G01 X8.8907 Y23.0188
G01 X8.9561 Y23.1068
G01 X8.9616 Y23.1151
G01 X9.0161 Y23.2064
G01 X9.0644 Y23.3085
G01 X9.1024 Y23.4149
G01 X9.1292 Y23.5212
G01 X9.1310 Y23.5310
G01 X9.1465 Y23.6362
G01 X9.1520 Y23.7490
G01 X9.1465 Y23.8618
G01 X9.1299 Y23.9735
G01 X9.1024 Y24.0831
G01 X9.0644 Y24.1895
G01 X9.0161 Y24.2916
G01 X8.9598 Y24.3857
G01 X8.9542 Y24.3939
G01 X8.8907 Y24.4792
G01 X8.8149 Y24.5629
G01 X8.7312 Y24.6387
G01 X8.6405 Y24.7060
G01 X8.5436 Y24.7641
G01 X8.4415 Y24.8124
G01 X8.3351 Y24.8504
G01 X8.2255 Y24.8779
G01 X8.1138 Y24.8945
G01 X8.0010 Y24.9000
G01 X7.8882 Y24.8945
G01 X7.7765 Y24.8779
G01 X7.6669 Y24.8504
G01 X7.5605 Y24.8124
G01 X7.4584 Y24.7641
G01 X7.3643 Y24.7078
G01 X7.3561 Y24.7022
G01 X7.2708 Y24.6387
G01 X7.1919 Y24.5674
G01 X7.1826 Y24.5581
G01 X7.1113 Y24.4792
G01 X7.0478 Y24.3939
G01 X7.0404 Y24.3829
G01 X6.9859 Y24.2916
G01 X6.9376 Y24.1895
G01 X6.9016 Y24.0894
G01 X6.8978 Y24.0767
G01 X6.8736 Y23.9800
G01 X6.8710 Y23.9670
G01 X6.8555 Y23.8618
G01 X6.8502 Y23.7556
G01 X6.8502 Y23.7424
G01 X6.8555 Y23.6362
G01 X6.8721 Y23.5245
G01 X6.8996 Y23.4149
G01 X6.9364 Y23.3116
G01 X6.9403 Y23.3025
G01 X6.9859 Y23.2064
G01 X7.0422 Y23.1123
G01 X7.0478 Y23.1041
G01 X7.1092 Y23.0214
G01 X7.1156 Y23.0138
G01 X7.1415 Y22.9852
G01 X7.1415 Y19.7384
G01 X2.5258 Y15.1226
G01 X2.4839 Y15.0765
G01 X2.4755 Y15.0662
G01 X2.4366 Y15.0135
G01 X2.4028 Y14.9574
G01 X2.3965 Y14.9457
G01 X2.3687 Y14.8864
G01 X2.3464 Y14.8247
G01 X2.3434 Y14.8153
G01 X2.3268 Y14.7484
G01 X2.3171 Y14.6836
G01 X2.3158 Y14.6705
G01 X2.3127 Y14.6050
G01 X2.3127 Y10.0330
G01 X2.3158 Y9.9675
G01 X2.3171 Y9.9544
G01 X2.3268 Y9.8896
G01 X2.3444 Y9.8196
G01 X2.3687 Y9.7516
G01 X2.3965 Y9.6923
G01 X2.4028 Y9.6806
G01 X2.4366 Y9.6245
G01 X2.4755 Y9.5718
G01 X2.4839 Y9.5615
G01 X2.5258 Y9.5154
G01 X4.1791 Y7.8621
G01 X4.2275 Y7.8179
G01 X4.2378 Y7.8095
G01 X4.2905 Y7.7706
G01 X4.3466 Y7.7368
G01 X4.3583 Y7.7305
G01 X4.4176 Y7.7027
G01 X4.4793 Y7.6804
G01 X4.4887 Y7.6774
G01 X4.5556 Y7.6608
G01 X4.6204 Y7.6511
G01 X4.6335 Y7.6498
G01 X4.6990 Y7.6467
G01 X43.6880 Y7.6467
G01 X43.7535 Y7.6498
G01 X43.7634 Y7.6506
G01 X43.8314 Y7.6608
G01 X43.8951 Y7.6766
G01 X43.9077 Y7.6804
G01 X43.9632 Y7.7003
G01 X43.9754 Y7.7054
G01 X44.0346 Y7.7335
G01 X44.0965 Y7.7706
G01 X44.1545 Y7.8136
G01 X44.2031 Y7.8575
G01 X45.3532 Y9.0074
G01 X45.3994 Y9.0585
G01 X45.4424 Y9.1165
G01 X45.4795 Y9.1784
G01 X45.5103 Y9.2436
G01 X45.5346 Y9.3116
G01 X45.5522 Y9.3816
G01 X45.5628 Y9.4529
G01 X45.5663 Y9.5217
G01 X45.5663 Y12.2759
G01 X45.6146 Y12.3119
G01 X45.6875 Y12.3778
G01 X45.6944 Y12.3849
G01 X45.7537 Y12.4504
G01 X45.7601 Y12.4580
G01 X45.8186 Y12.5370
G01 X45.8675 Y12.6183
G01 X45.8738 Y12.6300
G01 X45.9115 Y12.7099
G01 X45.9154 Y12.7190
G01 X45.9182 Y12.7267
G01 X46.5378 Y12.7267
G01 X46.5406 Y12.7190
G01 X46.5445 Y12.7099
G01 X46.5822 Y12.6300
G01 X46.5885 Y12.6183
G01 X46.6374 Y12.5370
G01 X46.6979 Y12.4554
G01 X46.7661 Y12.3801
G01 X46.8364 Y12.3163
G01 X46.8466 Y12.3079
G01 X46.9176 Y12.2552
G01 X46.9286 Y12.2479
G01 X47.0101 Y12.1992
G01 X47.1019 Y12.1558
G01 X47.1976 Y12.1216
G01 X47.2896 Y12.0983
G01 X47.3026 Y12.0958
G01 X47.3900 Y12.0828
G01 X47.4032 Y12.0815
G01 X47.4980 Y12.0770
G01 X47.5961 Y12.0817
G01 X47.6060 Y12.0828
G01 X47.6934 Y12.0958
G01 X47.7064 Y12.0983
G01 X47.7984 Y12.1216
G01 X47.8941 Y12.1558
G01 X47.9859 Y12.1992
G01 X48.0674 Y12.2479
G01 X48.0784 Y12.2552
G01 X48.1494 Y12.3079
G01 X48.1596 Y12.3163
G01 X48.2299 Y12.3801
G01 X48.2981 Y12.4554
G01 X48.3586 Y12.5370
G01 X48.4075 Y12.6183
G01 X48.4138 Y12.6300
G01 X48.4515 Y12.7099
G01 X48.4566 Y12.7221
G01 X48.4884 Y12.8116
G01 X48.5117 Y12.9036
G01 X48.5142 Y12.9166
G01 X48.5280 Y13.0106
G01 X48.5330 Y13.1087
G01 X48.5330 Y13.8153
G01 X48.5280 Y13.9134
G01 X48.5142 Y14.0074
G01 X48.5117 Y14.0204
G01 X48.4902 Y14.1061
G01 X48.4874 Y14.1156
G01 X48.4542 Y14.2081
G01 X48.4138 Y14.2940
G01 X48.4075 Y14.3057
G01 X48.3586 Y14.3870
G01 X48.3021 Y14.4634
G01 X48.2937 Y14.4736
G01 X48.2344 Y14.5391
G01 X48.2251 Y14.5484
G01 X48.1546 Y14.6121
G01 X48.0730 Y14.6726
G01 X47.9859 Y14.7248
G01 X47.8941 Y14.7682
G01 X47.7984 Y14.8024
G01 X47.6999 Y14.8271
G01 X47.5994 Y14.8420
G01 X47.4980 Y14.8470
G01 X47.3966 Y14.8420
G01 X47.2961 Y14.8271
G01 X47.1976 Y14.8024
G01 X47.1019 Y14.7682
G01 X47.0101 Y14.7248
G01 X46.9230 Y14.6726
G01 X46.8414 Y14.6121
G01 X46.7661 Y14.5439
G01 X46.6979 Y14.4686
G01 X46.6374 Y14.3870
G01 X46.5852 Y14.2999
G01 X46.5445 Y14.2141
G01 X46.5406 Y14.2050
G01 X46.5378 Y14.1973
G01 X45.9182 Y14.1973
G01 X45.9154 Y14.2050
G01 X45.9115 Y14.2141
G01 X45.8708 Y14.2999
G01 X45.8221 Y14.3814
G01 X45.8148 Y14.3924
G01 X45.7581 Y14.4686
G01 X45.6944 Y14.5391
G01 X45.6851 Y14.5484
G01 X45.6146 Y14.6121
G01 X45.5330 Y14.6726
G01 X45.4517 Y14.7215
G01 X45.4400 Y14.7278
G01 X45.3541 Y14.7682
G01 X45.2647 Y14.8004
G01 X45.2521 Y14.8042
G01 X45.1632 Y14.8264
G01 X45.1534 Y14.8282
G01 X45.0594 Y14.8420
G01 X44.9580 Y14.8470
G01 X44.8566 Y14.8420
G01 X44.7561 Y14.8271
G01 X44.6576 Y14.8024
G01 X44.5619 Y14.7682
G01 X44.4701 Y14.7248
G01 X44.3886 Y14.6761
G01 X44.3776 Y14.6688
G01 X44.3014 Y14.6121
G01 X44.2309 Y14.5484
G01 X44.2216 Y14.5391
G01 X44.1623 Y14.4736
G01 X44.1539 Y14.4634
G01 X44.0974 Y14.3870
G01 X44.0485 Y14.3057
G01 X44.0422 Y14.2940
G01 X44.0018 Y14.2081
G01 X43.9676 Y14.1124
G01 X43.9429 Y14.0139
G01 X43.9288 Y13.9200
G01 X43.9275 Y13.9068
G01 X43.9230 Y13.8120
G01 X43.9230 Y13.1120
G01 X43.9275 Y13.0172
G01 X43.9283 Y13.0073
G01 X43.9418 Y12.9166
G01 X43.9443 Y12.9036
G01 X43.9676 Y12.8116
G01 X43.9994 Y12.7221
G01 X44.0045 Y12.7099
G01 X44.0452 Y12.6241
G01 X44.0957 Y12.5396
G01 X44.0957 Y9.8296
G01 X43.3834 Y9.1173
G01 X5.0036 Y9.1173
G01 X3.7833 Y10.3376
G01 X3.7833 Y14.3004
G01 X8.3967 Y18.9139
G01 X8.4409 Y18.9623
G01 X8.4493 Y18.9726
G01 X8.4882 Y19.0253
G01 X8.5237 Y19.0843
G01 X8.5283 Y19.0931
G01 X8.5561 Y19.1524
G01 X8.5784 Y19.2141
G01 X8.5822 Y19.2267
G01 X8.5980 Y19.2904
G01 X8.6077 Y19.3552
G01 X8.6090 Y19.3683
G01 X8.6121 Y19.4305
G01 X8.6121 Y22.7748
G00 Z2.0000
G00 X8.5271 Y22.8229
G01 F60.00
G01 Z0.0000
G01 F120.00
G01 X8.5932 Y22.8627
G01 X8.6773 Y22.9250
G01 X8.7548 Y22.9952
G01 X8.8258 Y23.0737
G01 X8.8873 Y23.1568
G01 X8.9411 Y23.2465
G01 X8.9859 Y23.3411
G01 X9.0214 Y23.4407
G01 X9.0465 Y23.5410
G01 X9.0619 Y23.6445
G01 X9.0670 Y23.7490
G01 X9.0619 Y23.8535
G01 X9.0465 Y23.9570
G01 X9.0211 Y24.0584
G01 X8.9859 Y24.1569
G01 X8.9405 Y24.2526
G01 X8.8873 Y24.3412
G01 X8.8250 Y24.4253
G01 X8.7548 Y24.5028
G01 X8.6773 Y24.5730
G01 X8.5932 Y24.6353
G01 X8.5035 Y24.6891
G01 X8.4089 Y24.7339
G01 X8.3104 Y24.7691
G01 X8.2090 Y24.7945
G01 X8.1055 Y24.8099
G01 X8.0010 Y24.8150
G01 X7.8965 Y24.8099
G01 X7.7930 Y24.7945
G01 X7.6916 Y24.7691
G01 X7.5931 Y24.7339
G01 X7.4974 Y24.6885
G01 X7.4068 Y24.6339
G01 X7.3247 Y24.5730
G01 X7.2490 Y24.5045
G01 X7.1770 Y24.4253
G01 X7.1147 Y24.3412
G01 X7.0598 Y24.2493
G01 X7.0161 Y24.1569
G01 X6.9817 Y24.0608
G01 X6.9555 Y23.9570
G01 X6.9400 Y23.8510
G01 X6.9350 Y23.7490
G01 X6.9401 Y23.6445
G01 X6.9555 Y23.5410
G01 X6.9813 Y23.4384
G01 X7.0161 Y23.3411
G01 X7.0621 Y23.2444
G01 X7.1161 Y23.1548
G01 X7.1770 Y23.0727
G01 X7.2265 Y23.0180
G01 X7.2265 Y19.7032
G01 X2.5882 Y15.0648
G01 X2.5438 Y15.0156
G01 X2.5073 Y14.9663
G01 X2.4757 Y14.9137
G01 X2.4472 Y14.8539
G01 X2.4254 Y14.7926
G01 X2.4102 Y14.7319
G01 X2.4011 Y14.6712
G01 X2.3977 Y14.6050
G01 X2.3977 Y10.0330
G01 X2.4011 Y9.9668
G01 X2.4102 Y9.9061
G01 X2.4257 Y9.8442
G01 X2.4472 Y9.7841
G01 X2.4757 Y9.7243
G01 X2.5073 Y9.6717
G01 X2.5438 Y9.6224
G01 X2.5873 Y9.5740
G01 X4.2392 Y7.9222
G01 X4.2884 Y7.8778
G01 X4.3377 Y7.8413
G01 X4.3903 Y7.8097
G01 X4.4501 Y7.7812
G01 X4.5114 Y7.7594
G01 X4.5721 Y7.7442
G01 X4.6328 Y7.7351
G01 X4.6990 Y7.7317
G01 X43.6880 Y7.7317
G01 X43.7530 Y7.7350
G01 X43.8149 Y7.7442
G01 X43.8744 Y7.7590
G01 X43.9391 Y7.7822
G01 X43.9945 Y7.8085
G01 X44.0493 Y7.8413
G01 X44.1005 Y7.8793
G01 X44.1461 Y7.9205
G01 X45.2917 Y9.0660
G01 X45.3337 Y9.1125
G01 X45.3717 Y9.1637
G01 X45.4045 Y9.2185
G01 X45.4318 Y9.2761
G01 X45.4533 Y9.3362
G01 X45.4688 Y9.3981
G01 X45.4782 Y9.4613
G01 X45.4813 Y9.5238
G01 X45.4813 Y12.3193
G01 X45.4878 Y12.3235
G01 X45.5625 Y12.3792
G01 X45.6298 Y12.4402
G01 X45.6931 Y12.5103
G01 X45.7479 Y12.5842
G01 X45.7958 Y12.6642
G01 X45.8357 Y12.7485
G01 X45.8584 Y12.8117
G01 X46.5976 Y12.8117
G01 X46.6203 Y12.7485
G01 X46.6602 Y12.6642
G01 X46.7081 Y12.5842
G01 X46.7621 Y12.5113
G01 X46.8280 Y12.4386
G01 X46.8953 Y12.3776
G01 X46.9692 Y12.3228
G01 X47.0524 Y12.2731
G01 X47.1345 Y12.2343
G01 X47.2222 Y12.2029
G01 X47.3127 Y12.1803
G01 X47.4024 Y12.1669
G01 X47.5005 Y12.1621
G01 X47.5911 Y12.1666
G01 X47.6833 Y12.1803
G01 X47.7738 Y12.2029
G01 X47.8593 Y12.2334
G01 X47.9480 Y12.2754
G01 X48.0258 Y12.3221
G01 X48.1007 Y12.3776
G01 X48.1698 Y12.4402
G01 X48.2308 Y12.5075
G01 X48.2892 Y12.5863
G01 X48.3358 Y12.6642
G01 X48.3757 Y12.7485
G01 X48.4071 Y12.8362
G01 X48.4292 Y12.9243
G01 X48.4434 Y13.0189
G01 X48.4480 Y13.1108
G01 X48.4480 Y13.8132
G01 X48.4434 Y13.9051
G01 X48.4302 Y13.9949
G01 X48.4067 Y14.0889
G01 X48.3757 Y14.1755
G01 X48.3346 Y14.2620
G01 X48.2879 Y14.3398
G01 X48.2339 Y14.4127
G01 X48.1714 Y14.4820
G01 X48.1007 Y14.5464
G01 X48.0258 Y14.6019
G01 X47.9458 Y14.6498
G01 X47.8604 Y14.6901
G01 X47.7738 Y14.7211
G01 X47.6833 Y14.7437
G01 X47.5911 Y14.7574
G01 X47.4980 Y14.7620
G01 X47.4049 Y14.7574
G01 X47.3127 Y14.7437
G01 X47.2222 Y14.7211
G01 X47.1333 Y14.6892
G01 X47.0502 Y14.6498
G01 X46.9702 Y14.6019
G01 X46.8953 Y14.5464
G01 X46.8246 Y14.4820
G01 X46.7636 Y14.4147
G01 X46.7068 Y14.3377
G01 X46.6591 Y14.2576
G01 X46.6203 Y14.1755
G01 X46.5976 Y14.1123
G01 X45.8584 Y14.1123
G01 X45.8357 Y14.1755
G01 X45.7969 Y14.2576
G01 X45.7479 Y14.3398
G01 X45.6908 Y14.4165
G01 X45.6298 Y14.4838
G01 X45.5616 Y14.5456
G01 X45.4858 Y14.6019
G01 X45.4036 Y14.6509
G01 X45.3215 Y14.6897
G01 X45.2361 Y14.7203
G01 X45.1433 Y14.7437
G01 X45.0511 Y14.7574
G01 X44.9580 Y14.7620
G01 X44.8649 Y14.7574
G01 X44.7703 Y14.7432
G01 X44.6799 Y14.7203
G01 X44.5945 Y14.6897
G01 X44.5124 Y14.6509
G01 X44.4302 Y14.6019
G01 X44.3563 Y14.5471
G01 X44.2862 Y14.4838
G01 X44.2236 Y14.4147
G01 X44.1681 Y14.3398
G01 X44.1191 Y14.2576
G01 X44.0803 Y14.1755
G01 X44.0497 Y14.0901
G01 X44.0268 Y13.9997
G01 X44.0126 Y13.9051
G01 X44.0081 Y13.8145
G01 X44.0080 Y13.1120
G01 X44.0129 Y13.0164
G01 X44.0263 Y12.9267
G01 X44.0483 Y12.8386
G01 X44.0799 Y12.7496
G01 X44.1208 Y12.6631
G01 X44.1674 Y12.5852
G01 X44.1807 Y12.5671
G01 X44.1807 Y9.7944
G01 X43.4186 Y9.0323
G01 X4.9684 Y9.0323
G01 X3.6983 Y10.3024
G01 X3.6983 Y14.3356
G01 X8.3366 Y18.9740
G01 X8.3810 Y19.0232
G01 X8.4175 Y19.0725
G01 X8.4497 Y19.1262
G01 X8.4776 Y19.1849
G01 X8.4998 Y19.2474
G01 X8.5146 Y19.3069
G01 X8.5237 Y19.3676
G01 X8.5271 Y19.4326
G01 X8.5271 Y22.8229
G00 Z2.0000
G00 X9.5595 Y23.0975
G01 F60.00
G01 Z0.0000
G01 F120.00
G01 X9.5588 Y23.1060
G01 X9.5570 Y23.1132
G01 X9.5542 Y23.1200
G01 X9.5497 Y23.1273
G01 X9.5440 Y23.1337
G01 X9.5383 Y23.1384
G01 X9.5320 Y23.1422
G01 X9.5240 Y23.1453
G01 X9.3874 Y23.1726
G01 X9.3776 Y23.1726
G01 X9.3680 Y23.1706
G01 X9.3589 Y23.1669
G01 X9.3508 Y23.1614
G01 X9.3471 Y23.1581
G01 X9.3431 Y23.1535
G01 X9.3402 Y23.1495
G01 X9.3373 Y23.1442
G01 X9.3002 Y23.0546
G01 X9.1398 Y22.8145
G01 X8.9501 Y22.6249
G01 X8.9447 Y22.6182
G01 X8.9411 Y22.6118
G01 X8.9381 Y22.6037
G01 X8.9367 Y22.5965
G01 X8.9363 Y22.5904
G01 X8.9363 Y19.4371
G01 X8.8998 Y19.1597
G01 X8.8963 Y19.1514
G01 X8.8945 Y19.1455
G01 X8.8932 Y19.1383
G01 X8.8930 Y19.1321
G01 X8.8934 Y19.1273
G01 X8.8945 Y19.1212
G01 X8.8964 Y19.1154
G01 X8.8983 Y19.1109
G01 X8.9014 Y19.1056
G01 X8.9044 Y19.1017
G01 X8.9085 Y19.0972
G01 X8.9123 Y19.0940
G01 X9.0240 Y19.0192
G01 X9.0293 Y19.0163
G01 X9.0339 Y19.0144
G01 X9.0398 Y19.0127
G01 X9.0446 Y19.0119
G01 X9.0507 Y19.0115
G01 X9.0556 Y19.0117
G01 X9.0605 Y19.0125
G01 X9.0664 Y19.0140
G01 X9.0721 Y19.0163
G01 X9.0775 Y19.0193
G01 X9.0815 Y19.0221
G01 X9.0861 Y19.0261
G01 X9.5457 Y19.4858
G01 X9.5511 Y19.4925
G01 X9.5547 Y19.4989
G01 X9.5577 Y19.5070
G01 X9.5591 Y19.5142
G01 X9.5595 Y19.5203
G01 X9.5595 Y23.0975
G00 Z2.0000
G00 X15.3050 Y35.2805
G01 F60.00
G01 Z0.0000
G01 F120.00
G01 X15.9531 Y35.2805
G01 X16.0219 Y35.2840
G01 X16.0867 Y35.2935
G01 X16.0997 Y35.2961
G01 X16.1632 Y35.3122
G01 X16.2250 Y35.3341
G01 X16.2372 Y35.3392
G01 X16.2964 Y35.3673
G01 X16.3527 Y35.4009
G01 X16.3637 Y35.4082
G01 X16.4137 Y35.4453
G01 X16.4213 Y35.4517
G01 X16.4697 Y35.4959
G01 X18.1729 Y37.1991
G01 X18.2171 Y37.2475
G01 X18.2255 Y37.2578
G01 X18.2606 Y37.3051
G01 X18.2679 Y37.3161
G01 X18.3015 Y37.3724
G01 X18.3323 Y37.4376
G01 X18.3546 Y37.4993
G01 X18.3584 Y37.5119
G01 X18.3742 Y37.5756
G01 X18.3844 Y37.6436
G01 X18.3852 Y37.6535
G01 X18.3883 Y37.7190
G01 X18.3883 Y62.9414
G01 X30.3580 Y74.9111
G01 X30.4544 Y74.9160
G01 X30.5549 Y74.9309
G01 X30.6534 Y74.9556
G01 X30.7429 Y74.9874
G01 X30.7551 Y74.9925
G01 X30.8409 Y75.0332
G01 X30.9224 Y75.0819
G01 X30.9334 Y75.0892
G01 X31.0044 Y75.1419
G01 X31.0146 Y75.1503
G01 X31.0849 Y75.2141
G01 X31.1487 Y75.2844
G01 X31.1571 Y75.2946
G01 X31.2136 Y75.3710
G01 X31.2625 Y75.4523
G01 X31.2688 Y75.4640
G01 X31.3092 Y75.5499
G01 X31.3414 Y75.6393
G01 X31.3452 Y75.6519
G01 X31.3681 Y75.7441
G01 X31.3830 Y75.8446
G01 X31.3878 Y75.9394
G01 X31.3878 Y75.9526
G01 X31.3835 Y76.0408
G01 X31.3822 Y76.0540
G01 X31.3681 Y76.1479
G01 X31.3452 Y76.2401
G01 X31.3414 Y76.2527
G01 X31.3092 Y76.3421
G01 X31.2658 Y76.4339
G01 X31.2136 Y76.5210
G01 X31.1571 Y76.5974
G01 X31.1487 Y76.6076
G01 X31.0849 Y76.6779
G01 X31.0146 Y76.7417
G01 X31.0044 Y76.7501
G01 X30.9334 Y76.8028
G01 X30.9224 Y76.8101
G01 X30.8409 Y76.8588
G01 X30.7551 Y76.8995
G01 X30.7429 Y76.9046
G01 X30.6534 Y76.9364
G01 X30.5614 Y76.9597
G01 X30.5484 Y76.9622
G01 X30.4544 Y76.9760
G01 X30.3596 Y76.9808
G01 X30.3464 Y76.9808
G01 X30.2516 Y76.9760
G01 X30.1576 Y76.9622
G01 X30.1446 Y76.9597
G01 X30.0589 Y76.9382
G01 X30.0463 Y76.9344
G01 X29.9569 Y76.9022
G01 X29.8710 Y76.8618
G01 X29.8593 Y76.8555
G01 X29.7780 Y76.8066
G01 X29.7016 Y76.7501
G01 X29.6914 Y76.7417
G01 X29.6211 Y76.6779
G01 X29.5573 Y76.6076
G01 X29.5489 Y76.5974
G01 X29.4962 Y76.5264
G01 X29.4889 Y76.5154
G01 X29.4402 Y76.4339
G01 X29.3995 Y76.3481
G01 X29.3944 Y76.3359
G01 X29.3626 Y76.2464
G01 X29.3379 Y76.1479
G01 X29.3230 Y76.0474
G01 X29.3181 Y75.9510
G01 X25.7543 Y72.3872
G01 X25.7543 Y75.1296
G01 X25.7508 Y75.1984
G01 X25.7413 Y75.2632
G01 X25.7387 Y75.2762
G01 X25.7244 Y75.3334
G01 X25.7206 Y75.3460
G01 X25.6983 Y75.4077
G01 X25.6761 Y75.4551
G01 X25.6808 Y75.4640
G01 X25.7212 Y75.5499
G01 X25.7534 Y75.6393
G01 X25.7572 Y75.6519
G01 X25.7801 Y75.7441
G01 X25.7942 Y75.8380
G01 X25.7955 Y75.8512
G01 X25.8000 Y75.9460
G01 X25.7950 Y76.0474
G01 X25.7801 Y76.1479
G01 X25.7554 Y76.2464
G01 X25.7212 Y76.3421
G01 X25.6778 Y76.4339
G01 X25.6291 Y76.5154
G01 X25.6218 Y76.5264
G01 X25.5651 Y76.6026
G01 X25.5014 Y76.6731
G01 X25.4921 Y76.6824
G01 X25.4216 Y76.7461
G01 X25.3400 Y76.8066
G01 X25.2587 Y76.8555
G01 X25.2470 Y76.8618
G01 X25.1611 Y76.9022
G01 X25.0717 Y76.9344
G01 X25.0591 Y76.9382
G01 X24.9669 Y76.9611
G01 X24.8664 Y76.9760
G01 X24.7716 Y76.9808
G01 X24.7584 Y76.9808
G01 X24.6636 Y76.9760
G01 X24.5696 Y76.9622
G01 X24.5566 Y76.9597
G01 X24.4646 Y76.9364
G01 X24.3689 Y76.9022
G01 X24.2830 Y76.8618
G01 X24.2713 Y76.8555
G01 X24.1900 Y76.8066
G01 X24.1136 Y76.7501
G01 X24.1034 Y76.7417
G01 X24.0355 Y76.6802
G01 X24.0286 Y76.6731
G01 X23.9649 Y76.6026
G01 X23.9044 Y76.5210
G01 X23.8522 Y76.4339
G01 X23.8088 Y76.3421
G01 X23.7746 Y76.2464
G01 X23.7499 Y76.1479
G01 X23.7350 Y76.0474
G01 X23.7302 Y75.9526
G01 X23.7302 Y75.9394
G01 X23.7345 Y75.8512
G01 X23.7358 Y75.8380
G01 X23.7499 Y75.7441
G01 X23.7728 Y75.6519
G01 X23.7766 Y75.6393
G01 X23.8088 Y75.5499
G01 X23.8507 Y75.4610
G01 X23.8555 Y75.4523
G01 X23.9009 Y75.3766
G01 X23.9082 Y75.3656
G01 X23.9649 Y75.2894
G01 X24.0286 Y75.2189
G01 X24.0379 Y75.2096
G01 X24.1084 Y75.1459
G01 X24.1846 Y75.0892
G01 X24.1976 Y75.0807
G01 X24.2145 Y75.0138
G01 X24.2375 Y74.9489
G01 X24.2415 Y74.9398
G01 X24.2681 Y74.8835
G01 X24.2837 Y74.8568
G01 X24.2837 Y70.9166
G01 X17.1331 Y63.7659
G01 X17.0846 Y63.7125
G01 X17.0416 Y63.6545
G01 X17.0045 Y63.5926
G01 X16.9764 Y63.5334
G01 X16.9713 Y63.5212
G01 X16.9494 Y63.4594
G01 X16.9318 Y63.3894
G01 X16.9212 Y63.3181
G01 X16.9177 Y63.2460
G01 X16.9177 Y38.0236
G01 X15.6452 Y36.7511
G01 X15.0674 Y36.7511
G01 X15.0502 Y36.7634
G01 X14.9659 Y36.8138
G01 X14.8801 Y36.8545
G01 X14.8679 Y36.8596
G01 X14.7784 Y36.8914
G01 X14.6864 Y36.9147
G01 X14.6734 Y36.9172
G01 X14.5794 Y36.9310
G01 X14.4780 Y36.9360
G01 X14.3766 Y36.9310
G01 X14.2761 Y36.9161
G01 X14.1839 Y36.8932
G01 X14.1744 Y36.8904
G01 X14.0819 Y36.8572
G01 X13.9960 Y36.8168
G01 X13.9843 Y36.8105
G01 X13.9030 Y36.7616
G01 X13.8266 Y36.7051
G01 X13.8164 Y36.6967
G01 X13.7461 Y36.6329
G01 X13.6779 Y36.5576
G01 X13.6174 Y36.4760
G01 X13.5685 Y36.3947
G01 X13.5622 Y36.3830
G01 X13.5218 Y36.2971
G01 X13.4876 Y36.2014
G01 X13.4643 Y36.1094
G01 X13.4618 Y36.0964
G01 X13.4488 Y36.0090
G01 X13.4475 Y35.9958
G01 X13.4430 Y35.9010
G01 X13.4480 Y35.7996
G01 X13.4629 Y35.6991
G01 X13.4858 Y35.6069
G01 X13.4896 Y35.5943
G01 X13.5194 Y35.5111
G01 X13.5245 Y35.4989
G01 X13.5652 Y35.4131
G01 X13.6139 Y35.3316
G01 X13.6212 Y35.3206
G01 X13.6739 Y35.2496
G01 X13.6823 Y35.2394
G01 X13.7461 Y35.1691
G01 X13.8214 Y35.1009
G01 X13.9030 Y35.0404
G01 X13.9843 Y34.9915
G01 X13.9960 Y34.9852
G01 X14.0759 Y34.9475
G01 X14.0850 Y34.9436
G01 X14.1776 Y34.9106
G01 X14.2696 Y34.8873
G01 X14.2826 Y34.8848
G01 X14.3700 Y34.8718
G01 X14.3832 Y34.8705
G01 X14.4780 Y34.8660
G01 X14.5794 Y34.8710
G01 X14.6799 Y34.8859
G01 X14.7753 Y34.9096
G01 X14.7847 Y34.9126
G01 X14.8679 Y34.9424
G01 X14.8801 Y34.9475
G01 X14.9659 Y34.9882
G01 X15.0474 Y35.0369
G01 X15.0557 Y35.0423
G01 X15.1346 Y35.1009
G01 X15.2075 Y35.1668
G01 X15.2144 Y35.1739
G01 X15.2759 Y35.2419
G01 X15.2821 Y35.2496
G01 X15.3050 Y35.2805
G00 Z2.0000
G00 X15.2623 Y35.3655
G01 F60.00
G01 Z0.0000
G01 F120.00
G01 X15.9498 Y35.3655
G01 X16.0148 Y35.3688
G01 X16.0767 Y35.3780
G01 X16.1362 Y35.3928
G01 X16.1987 Y35.4150
G01 X16.2585 Y35.4435
G01 X16.3111 Y35.4751
G01 X16.3604 Y35.5116
G01 X16.4096 Y35.5560
G01 X18.1128 Y37.2592
G01 X18.1541 Y37.3046
G01 X18.1950 Y37.3598
G01 X18.2265 Y37.4125
G01 X18.2538 Y37.4701
G01 X18.2753 Y37.5302
G01 X18.2903 Y37.5897
G01 X18.3002 Y37.6553
G01 X18.3033 Y37.7190
G01 X18.3033 Y62.9766
G01 X30.3240 Y74.9974
G01 X30.3542 Y74.9960
G01 X30.4449 Y75.0005
G01 X30.5371 Y75.0140
G01 X30.6288 Y75.0369
G01 X30.7177 Y75.0688
G01 X30.8008 Y75.1082
G01 X30.8828 Y75.1575
G01 X30.9575 Y75.2132
G01 X31.0248 Y75.2742
G01 X31.0858 Y75.3415
G01 X31.1429 Y75.4182
G01 X31.1919 Y75.5004
G01 X31.2307 Y75.5825
G01 X31.2613 Y75.6679
G01 X31.2842 Y75.7583
G01 X31.2984 Y75.8529
G01 X31.3030 Y75.9460
G01 X31.2984 Y76.0391
G01 X31.2842 Y76.1337
G01 X31.2613 Y76.2241
G01 X31.2307 Y76.3095
G01 X31.1919 Y76.3916
G01 X31.1429 Y76.4738
G01 X31.0874 Y76.5487
G01 X31.0230 Y76.6194
G01 X30.9557 Y76.6804
G01 X30.8828 Y76.7345
G01 X30.8008 Y76.7838
G01 X30.7154 Y76.8241
G01 X30.6288 Y76.8551
G01 X30.5407 Y76.8772
G01 X30.4461 Y76.8914
G01 X30.3530 Y76.8960
G01 X30.2623 Y76.8916
G01 X30.1677 Y76.8777
G01 X30.0749 Y76.8543
G01 X29.9895 Y76.8237
G01 X29.9052 Y76.7838
G01 X29.8232 Y76.7345
G01 X29.7503 Y76.6804
G01 X29.6830 Y76.6194
G01 X29.6186 Y76.5487
G01 X29.5631 Y76.4738
G01 X29.5152 Y76.3938
G01 X29.4749 Y76.3084
G01 X29.4439 Y76.2218
G01 X29.4210 Y76.1301
G01 X29.4075 Y76.0379
G01 X29.4030 Y75.9472
G01 X29.4044 Y75.9170
G01 X25.6693 Y72.1820
G01 X25.6693 Y75.1275
G01 X25.6659 Y75.1925
G01 X25.6568 Y75.2532
G01 X25.6416 Y75.3139
G01 X25.6193 Y75.3763
G01 X25.5931 Y75.4318
G01 X25.5782 Y75.4569
G01 X25.6034 Y75.4993
G01 X25.6422 Y75.5813
G01 X25.6737 Y75.6691
G01 X25.6967 Y75.7607
G01 X25.7103 Y75.8517
G01 X25.7150 Y75.9460
G01 X25.7104 Y76.0391
G01 X25.6967 Y76.1313
G01 X25.6733 Y76.2241
G01 X25.6417 Y76.3118
G01 X25.6028 Y76.3938
G01 X25.5562 Y76.4717
G01 X25.4994 Y76.5487
G01 X25.4350 Y76.6194
G01 X25.3677 Y76.6804
G01 X25.2948 Y76.7345
G01 X25.2128 Y76.7838
G01 X25.1263 Y76.8246
G01 X25.0408 Y76.8551
G01 X24.9527 Y76.8772
G01 X24.8581 Y76.8914
G01 X24.7625 Y76.8959
G01 X24.6719 Y76.8914
G01 X24.5821 Y76.8782
G01 X24.4892 Y76.8551
G01 X24.4015 Y76.8237
G01 X24.3150 Y76.7826
G01 X24.2372 Y76.7359
G01 X24.1643 Y76.6819
G01 X24.0941 Y76.6186
G01 X24.0306 Y76.5487
G01 X23.9751 Y76.4738
G01 X23.9272 Y76.3938
G01 X23.8873 Y76.3095
G01 X23.8559 Y76.2218
G01 X23.8333 Y76.1313
G01 X23.8196 Y76.0391
G01 X23.8151 Y75.9435
G01 X23.8199 Y75.8504
G01 X23.8333 Y75.7607
G01 X23.8553 Y75.6726
G01 X23.8873 Y75.5825
G01 X23.9272 Y75.4982
G01 X23.9765 Y75.4162
G01 X24.0306 Y75.3433
G01 X24.0924 Y75.2751
G01 X24.1633 Y75.2109
G01 X24.2362 Y75.1568
G01 X24.2754 Y75.1332
G01 X24.2805 Y75.0991
G01 X24.2955 Y75.0396
G01 X24.3164 Y74.9806
G01 X24.3446 Y74.9207
G01 X24.3687 Y74.8803
G01 X24.3687 Y70.8814
G01 X17.1932 Y63.7058
G01 X17.1503 Y63.6585
G01 X17.1123 Y63.6073
G01 X17.0795 Y63.5525
G01 X17.0517 Y63.4937
G01 X17.0307 Y63.4348
G01 X17.0152 Y63.3729
G01 X17.0058 Y63.3097
G01 X17.0027 Y63.2460
G01 X17.0027 Y37.9884
G01 X15.6804 Y36.6661
G01 X15.0393 Y36.6661
G01 X15.0048 Y36.6916
G01 X14.9269 Y36.7382
G01 X14.8404 Y36.7791
G01 X14.7538 Y36.8101
G01 X14.6657 Y36.8322
G01 X14.5711 Y36.8464
G01 X14.4780 Y36.8510
G01 X14.3849 Y36.8464
G01 X14.2927 Y36.8327
G01 X14.2022 Y36.8101
G01 X14.1122 Y36.7777
G01 X14.0302 Y36.7388
G01 X13.9502 Y36.6909
G01 X13.8735 Y36.6338
G01 X13.8062 Y36.5728
G01 X13.7436 Y36.5037
G01 X13.6881 Y36.4288
G01 X13.6414 Y36.3510
G01 X13.6003 Y36.2645
G01 X13.5689 Y36.1768
G01 X13.5468 Y36.0887
G01 X13.5325 Y35.9929
G01 X13.5280 Y35.9010
G01 X13.5324 Y35.8103
G01 X13.5468 Y35.7133
G01 X13.5689 Y35.6252
G01 X13.6003 Y35.5375
G01 X13.6402 Y35.4532
G01 X13.6868 Y35.3753
G01 X13.7452 Y35.2965
G01 X13.8062 Y35.2292
G01 X13.8753 Y35.1666
G01 X13.9502 Y35.1111
G01 X14.0280 Y35.0644
G01 X14.1167 Y35.0224
G01 X14.2022 Y34.9919
G01 X14.2927 Y34.9693
G01 X14.3849 Y34.9556
G01 X14.4755 Y34.9511
G01 X14.5736 Y34.9559
G01 X14.6633 Y34.9693
G01 X14.7538 Y34.9919
G01 X14.8415 Y35.0233
G01 X14.9236 Y35.0621
G01 X15.0078 Y35.1125
G01 X15.0807 Y35.1666
G01 X15.1498 Y35.2292
G01 X15.2124 Y35.2983
G01 X15.2623 Y35.3655
G00 Z2.0000
G00 X15.0942 Y36.8361
G01 F60.00
G01 Z0.0000
G01 F120.00
G01 X15.0060 Y36.8888
G01 X14.9963 Y36.8936
G01 X14.9066 Y36.9357
G01 X14.8134 Y36.9694
G01 X14.8031 Y36.9728
G01 X14.7070 Y36.9971
G01 X14.6965 Y36.9995
G01 X14.5985 Y37.0143
G01 X14.5878 Y37.0156
G01 X14.5770 Y37.0164
G01 X14.4780 Y37.0210
G01 X14.3790 Y37.0164
G01 X14.3682 Y37.0156
G01 X14.3575 Y37.0143
G01 X14.2595 Y36.9995
G01 X14.1633 Y36.9757
G01 X14.1529 Y36.9728
G01 X14.1426 Y36.9694
G01 X14.0494 Y36.9357
G01 X13.9597 Y36.8936
G01 X13.9500 Y36.8888
G01 X13.9406 Y36.8834
G01 X13.8558 Y36.8322
G01 X13.7760 Y36.7734
G01 X13.7675 Y36.7668
G01 X13.7593 Y36.7597
G01 X13.6860 Y36.6930
G01 X13.6193 Y36.6197
G01 X13.6122 Y36.6115
G01 X13.6056 Y36.6030
G01 X13.5468 Y36.5232
G01 X13.4956 Y36.4384
G01 X13.4902 Y36.4290
G01 X13.4854 Y36.4193
G01 X13.4433 Y36.3296
G01 X13.4096 Y36.2364
G01 X13.4062 Y36.2261
G01 X13.3819 Y36.1300
G01 X13.3795 Y36.1195
G01 X13.3647 Y36.0215
G01 X13.3634 Y36.0108
G01 X13.3626 Y36.0000
G01 X13.3580 Y35.9010
G01 X13.3626 Y35.8020
G01 X13.3634 Y35.7912
G01 X13.3647 Y35.7805
G01 X13.3795 Y35.6825
G01 X13.4033 Y35.5863
G01 X13.4062 Y35.5759
G01 X13.4096 Y35.5656
G01 X13.4433 Y35.4724
G01 X13.4854 Y35.3827
G01 X13.4902 Y35.3730
G01 X13.4956 Y35.3636
G01 X13.5468 Y35.2788
G01 X13.6056 Y35.1990
G01 X13.6122 Y35.1905
G01 X13.6193 Y35.1823
G01 X13.6860 Y35.1090
G01 X13.7593 Y35.0423
G01 X13.7675 Y35.0352
G01 X13.7760 Y35.0286
G01 X13.8558 Y34.9698
G01 X13.9406 Y34.9186
G01 X13.9500 Y34.9132
G01 X13.9597 Y34.9084
G01 X14.0494 Y34.8663
G01 X14.1426 Y34.8326
G01 X14.1529 Y34.8292
G01 X14.2490 Y34.8049
G01 X14.2595 Y34.8025
G01 X14.2701 Y34.8007
G01 X14.3575 Y34.7877
G01 X14.3682 Y34.7864
G01 X14.3790 Y34.7856
G01 X14.4780 Y34.7810
G01 X14.5770 Y34.7856
G01 X14.5931 Y34.7870
G01 X14.6965 Y34.8025
G01 X14.7927 Y34.8263
G01 X14.8031 Y34.8292
G01 X14.8134 Y34.8326
G01 X14.9066 Y34.8663
G01 X14.9963 Y34.9084
G01 X15.0060 Y34.9132
G01 X15.0154 Y34.9186
G01 X15.1002 Y34.9698
G01 X15.1800 Y35.0286
G01 X15.1885 Y35.0352
G01 X15.1967 Y35.0423
G01 X15.2700 Y35.1090
G01 X15.3367 Y35.1823
G01 X15.3478 Y35.1955
G01 X15.9498 Y35.1955
G01 X16.0194 Y35.1987
G01 X16.0302 Y35.1994
G01 X16.0409 Y35.2008
G01 X16.1098 Y35.2113
G01 X16.1204 Y35.2136
G01 X16.1879 Y35.2308
G01 X16.2536 Y35.2541
G01 X16.2637 Y35.2579
G01 X16.3268 Y35.2875
G01 X16.3412 Y35.2950
G01 X16.4055 Y35.3337
G01 X16.4617 Y35.3751
G01 X16.4702 Y35.3817
G01 X16.4784 Y35.3888
G01 X16.5260 Y35.4320
G01 X18.2330 Y37.1390
G01 X18.2405 Y37.1468
G01 X18.2871 Y37.1986
G01 X18.2937 Y37.2071
G01 X18.3351 Y37.2633
G01 X18.3711 Y37.3229
G01 X18.3764 Y37.3323
G01 X18.4065 Y37.3952
G01 X18.4109 Y37.4051
G01 X18.4147 Y37.4152
G01 X18.4363 Y37.4757
G01 X18.4409 Y37.4913
G01 X18.4575 Y37.5590
G01 X18.4688 Y37.6332
G01 X18.4701 Y37.6494
G01 X18.4733 Y37.7190
G01 X18.4733 Y62.9062
G01 X30.3949 Y74.8278
G01 X30.4628 Y74.8314
G01 X30.5662 Y74.8465
G01 X30.5820 Y74.8499
G01 X30.6729 Y74.8727
G01 X30.6884 Y74.8776
G01 X30.7816 Y74.9113
G01 X30.8762 Y74.9558
G01 X30.8904 Y74.9636
G01 X30.9752 Y75.0148
G01 X30.9841 Y75.0210
G01 X31.0635 Y75.0802
G01 X31.0717 Y75.0873
G01 X31.1450 Y75.1540
G01 X31.2153 Y75.2313
G01 X31.2254 Y75.2440
G01 X31.2842 Y75.3238
G01 X31.3354 Y75.4086
G01 X31.3408 Y75.4180
G01 X31.3456 Y75.4277
G01 X31.3877 Y75.5174
G01 X31.4214 Y75.6106
G01 X31.4248 Y75.6209
G01 X31.4277 Y75.6313
G01 X31.4515 Y75.7275
G01 X31.4663 Y75.8255
G01 X31.4676 Y75.8362
G01 X31.4727 Y75.9352
G01 X31.4730 Y75.9460
G01 X31.4727 Y75.9568
G01 X31.4684 Y76.0450
G01 X31.4676 Y76.0558
G01 X31.4663 Y76.0665
G01 X31.4515 Y76.1645
G01 X31.4277 Y76.2607
G01 X31.4248 Y76.2711
G01 X31.4214 Y76.2814
G01 X31.3877 Y76.3746
G01 X31.3456 Y76.4643
G01 X31.3408 Y76.4740
G01 X31.3354 Y76.4834
G01 X31.2842 Y76.5682
G01 X31.2254 Y76.6480
G01 X31.2188 Y76.6565
G01 X31.2117 Y76.6647
G01 X31.1450 Y76.7380
G01 X31.0717 Y76.8047
G01 X31.0635 Y76.8118
G01 X31.0550 Y76.8184
G01 X30.9841 Y76.8710
G01 X30.9752 Y76.8772
G01 X30.9661 Y76.8830
G01 X30.8810 Y76.9338
G01 X30.7915 Y76.9764
G01 X30.7766 Y76.9827
G01 X30.6781 Y77.0178
G01 X30.5820 Y77.0421
G01 X30.5715 Y77.0445
G01 X30.5609 Y77.0463
G01 X30.4628 Y77.0606
G01 X30.3638 Y77.0657
G01 X30.3530 Y77.0660
G01 X30.3422 Y77.0657
G01 X30.2432 Y77.0606
G01 X30.1451 Y77.0463
G01 X30.1345 Y77.0445
G01 X30.1240 Y77.0421
G01 X30.0383 Y77.0207
G01 X30.0279 Y77.0178
G01 X30.0176 Y77.0144
G01 X29.9244 Y76.9807
G01 X29.8347 Y76.9386
G01 X29.8250 Y76.9338
G01 X29.8156 Y76.9284
G01 X29.7308 Y76.8772
G01 X29.6510 Y76.8184
G01 X29.6425 Y76.8118
G01 X29.6343 Y76.8047
G01 X29.5610 Y76.7380
G01 X29.4943 Y76.6647
G01 X29.4872 Y76.6565
G01 X29.4280 Y76.5771
G01 X29.4218 Y76.5682
G01 X29.3706 Y76.4834
G01 X29.3628 Y76.4692
G01 X29.3183 Y76.3746
G01 X29.2846 Y76.2814
G01 X29.2797 Y76.2659
G01 X29.2569 Y76.1750
G01 X29.2535 Y76.1592
G01 X29.2384 Y76.0558
G01 X29.2348 Y75.9879
G01 X25.8393 Y72.5924
G01 X25.8392 Y75.1317
G01 X25.8354 Y75.2067
G01 X25.8254 Y75.2757
G01 X25.8224 Y75.2916
G01 X25.8069 Y75.3540
G01 X25.8023 Y75.3696
G01 X25.7789 Y75.4352
G01 X25.7703 Y75.4546
G01 X25.7997 Y75.5174
G01 X25.8351 Y75.6157
G01 X25.8397 Y75.6313
G01 X25.8624 Y75.7222
G01 X25.8653 Y75.7381
G01 X25.8796 Y75.8362
G01 X25.8804 Y75.8470
G01 X25.8850 Y75.9460
G01 X25.8804 Y76.0450
G01 X25.8796 Y76.0558
G01 X25.8783 Y76.0665
G01 X25.8635 Y76.1645
G01 X25.8397 Y76.2607
G01 X25.8368 Y76.2711
G01 X25.8036 Y76.3645
G01 X25.7976 Y76.3796
G01 X25.7576 Y76.4643
G01 X25.7528 Y76.4740
G01 X25.7474 Y76.4834
G01 X25.6962 Y76.5682
G01 X25.6374 Y76.6480
G01 X25.6308 Y76.6565
G01 X25.6237 Y76.6647
G01 X25.5570 Y76.7380
G01 X25.4837 Y76.8047
G01 X25.4755 Y76.8118
G01 X25.4670 Y76.8184
G01 X25.3872 Y76.8772
G01 X25.3024 Y76.9284
G01 X25.2930 Y76.9338
G01 X25.2833 Y76.9386
G01 X25.1936 Y76.9807
G01 X25.1004 Y77.0144
G01 X25.0901 Y77.0178
G01 X25.0797 Y77.0207
G01 X24.9835 Y77.0445
G01 X24.8855 Y77.0593
G01 X24.8748 Y77.0606
G01 X24.7758 Y77.0657
G01 X24.7650 Y77.0660
G01 X24.7542 Y77.0657
G01 X24.6552 Y77.0606
G01 X24.5571 Y77.0463
G01 X24.5465 Y77.0445
G01 X24.5360 Y77.0421
G01 X24.4399 Y77.0178
G01 X24.4296 Y77.0144
G01 X24.3364 Y76.9807
G01 X24.2467 Y76.9386
G01 X24.2370 Y76.9338
G01 X24.2276 Y76.9284
G01 X24.1428 Y76.8772
G01 X24.0630 Y76.8184
G01 X24.0545 Y76.8118
G01 X24.0463 Y76.8047
G01 X23.9769 Y76.7417
G01 X23.9656 Y76.7301
G01 X23.8992 Y76.6565
G01 X23.8400 Y76.5771
G01 X23.8338 Y76.5682
G01 X23.7826 Y76.4834
G01 X23.7772 Y76.4740
G01 X23.7724 Y76.4643
G01 X23.7303 Y76.3746
G01 X23.6966 Y76.2814
G01 X23.6932 Y76.2711
G01 X23.6689 Y76.1750
G01 X23.6665 Y76.1645
G01 X23.6517 Y76.0665
G01 X23.6504 Y76.0558
G01 X23.6453 Y75.9568
G01 X23.6450 Y75.9460
G01 X23.6453 Y75.9352
G01 X23.6496 Y75.8470
G01 X23.6504 Y75.8362
G01 X23.6517 Y75.8255
G01 X23.6665 Y75.7275
G01 X23.6903 Y75.6313
G01 X23.6932 Y75.6209
G01 X23.6966 Y75.6106
G01 X23.7303 Y75.5174
G01 X23.7748 Y75.4228
G01 X23.7826 Y75.4086
G01 X23.8338 Y75.3238
G01 X23.8926 Y75.2440
G01 X23.9027 Y75.2313
G01 X23.9656 Y75.1619
G01 X23.9730 Y75.1540
G01 X23.9809 Y75.1466
G01 X24.0545 Y75.0802
G01 X24.1228 Y75.0292
G01 X24.1316 Y74.9943
G01 X24.1348 Y74.9839
G01 X24.1582 Y74.9183
G01 X24.1646 Y74.9034
G01 X24.1898 Y74.8502
G01 X24.1987 Y74.8333
G01 X24.1987 Y70.9518
G01 X17.0730 Y63.8260
G01 X17.0260 Y63.7746
G01 X17.0189 Y63.7664
G01 X17.0123 Y63.7579
G01 X16.9709 Y63.7017
G01 X16.9652 Y63.6926
G01 X16.9296 Y63.6327
G01 X16.8995 Y63.5698
G01 X16.8931 Y63.5549
G01 X16.8680 Y63.4841
G01 X16.8508 Y63.4166
G01 X16.8485 Y63.4060
G01 X16.8466 Y63.3954
G01 X16.8366 Y63.3264
G01 X16.8359 Y63.3156
G01 X16.8327 Y63.2460
G01 X16.8327 Y38.0588
G01 X15.6100 Y36.8361
G01 X15.0942 Y36.8361
G00 Z2.0000
G00 X15.4231 Y38.3454
G01 F60.00
G01 Z0.0000
G01 F120.00
G01 X15.4280 Y38.4410
G01 X15.4234 Y38.5341
G01 X15.4097 Y38.6263
G01 X15.3871 Y38.7168
G01 X15.3557 Y38.8045
G01 X15.3158 Y38.8888
G01 X15.2679 Y38.9688
G01 X15.2124 Y39.0437
G01 X15.1498 Y39.1128
G01 X15.0807 Y39.1754
G01 X15.0058 Y39.2309
G01 X14.9258 Y39.2788
G01 X14.8415 Y39.3187
G01 X14.7538 Y39.3501
G01 X14.6633 Y39.3727
G01 X14.5711 Y39.3864
G01 X14.4780 Y39.3910
G01 X14.3849 Y39.3864
G01 X14.2927 Y39.3727
G01 X14.2022 Y39.3501
G01 X14.1145 Y39.3187
G01 X14.0302 Y39.2788
G01 X13.9502 Y39.2309
G01 X13.8753 Y39.1754
G01 X13.8062 Y39.1128
G01 X13.7436 Y39.0437
G01 X13.6881 Y38.9688
G01 X13.6402 Y38.8888
G01 X13.6003 Y38.8045
G01 X13.5689 Y38.7168
G01 X13.5463 Y38.6263
G01 X13.5326 Y38.5341
G01 X13.5280 Y38.4410
G01 X13.5326 Y38.3479
G01 X13.5463 Y38.2557
G01 X13.5689 Y38.1652
G01 X13.6003 Y38.0775
G01 X13.6402 Y37.9932
G01 X13.6881 Y37.9132
G01 X13.7436 Y37.8383
G01 X13.8062 Y37.7692
G01 X13.8753 Y37.7066
G01 X13.9502 Y37.6511
G01 X14.0302 Y37.6032
G01 X14.1145 Y37.5633
G01 X14.2022 Y37.5319
G01 X14.2927 Y37.5093
G01 X14.3849 Y37.4956
G01 X14.4780 Y37.4910
G01 X14.5711 Y37.4956
G01 X14.6633 Y37.5093
G01 X14.7538 Y37.5319
G01 X14.8415 Y37.5633
G01 X14.9258 Y37.6032
G01 X15.0058 Y37.6511
G01 X15.0807 Y37.7066
G01 X15.1498 Y37.7692
G01 X15.2124 Y37.8383
G01 X15.2679 Y37.9132
G01 X15.3158 Y37.9932
G01 X15.3557 Y38.0775
G01 X15.3871 Y38.1652
G01 X15.4097 Y38.2557
G01 X15.4231 Y38.3454
G00 Z2.0000
G00 X15.5072 Y38.3330
G01 F60.00
G01 Z0.0000
G01 F120.00
G01 X15.5085 Y38.3462
G01 X15.5130 Y38.4410
G01 X15.5080 Y38.5424
G01 X15.4931 Y38.6429
G01 X15.4684 Y38.7414
G01 X15.4342 Y38.8371
G01 X15.3908 Y38.9289
G01 X15.3386 Y39.0160
G01 X15.2781 Y39.0976
G01 X15.2099 Y39.1729
G01 X15.1346 Y39.2411
G01 X15.0530 Y39.3016
G01 X14.9659 Y39.3538
G01 X14.8741 Y39.3972
G01 X14.7784 Y39.4314
G01 X14.6799 Y39.4561
G01 X14.5794 Y39.4710
G01 X14.4780 Y39.4760
G01 X14.3766 Y39.4710
G01 X14.2761 Y39.4561
G01 X14.1776 Y39.4314
G01 X14.0819 Y39.3972
G01 X13.9901 Y39.3538
G01 X13.9030 Y39.3016
G01 X13.8214 Y39.2411
G01 X13.7461 Y39.1729
G01 X13.6779 Y39.0976
G01 X13.6174 Y39.0160
G01 X13.5652 Y38.9289
G01 X13.5218 Y38.8371
G01 X13.4876 Y38.7414
G01 X13.4629 Y38.6429
G01 X13.4480 Y38.5424
G01 X13.4430 Y38.4410
G01 X13.4480 Y38.3396
G01 X13.4629 Y38.2391
G01 X13.4876 Y38.1406
G01 X13.5218 Y38.0449
G01 X13.5652 Y37.9531
G01 X13.6174 Y37.8660
G01 X13.6779 Y37.7844
G01 X13.7461 Y37.7091
G01 X13.8214 Y37.6409
G01 X13.9030 Y37.5804
G01 X13.9901 Y37.5282
G01 X14.0819 Y37.4848
G01 X14.1776 Y37.4506
G01 X14.2761 Y37.4259
G01 X14.3766 Y37.4110
G01 X14.4780 Y37.4060
G01 X14.5794 Y37.4110
G01 X14.6799 Y37.4259
G01 X14.7784 Y37.4506
G01 X14.8741 Y37.4848
G01 X14.9659 Y37.5282
G01 X15.0530 Y37.5804
G01 X15.1346 Y37.6409
G01 X15.2099 Y37.7091
G01 X15.2781 Y37.7844
G01 X15.3386 Y37.8660
G01 X15.3908 Y37.9531
G01 X15.4342 Y38.0449
G01 X15.4684 Y38.1406
G01 X15.4931 Y38.2391
G01 X15.5072 Y38.3330
G00 Z2.0000
G00 X15.5913 Y38.3205
G01 F60.00
G01 Z0.0000
G01 F120.00
G01 X15.5926 Y38.3312
G01 X15.5934 Y38.3420
G01 X15.5980 Y38.4410
G01 X15.5934 Y38.5400
G01 X15.5926 Y38.5508
G01 X15.5913 Y38.5615
G01 X15.5765 Y38.6595
G01 X15.5527 Y38.7557
G01 X15.5498 Y38.7661
G01 X15.5464 Y38.7764
G01 X15.5127 Y38.8696
G01 X15.4706 Y38.9593
G01 X15.4658 Y38.9690
G01 X15.4604 Y38.9784
G01 X15.4092 Y39.0632
G01 X15.3504 Y39.1430
G01 X15.3438 Y39.1515
G01 X15.3367 Y39.1597
G01 X15.2700 Y39.2330
G01 X15.1967 Y39.2997
G01 X15.1885 Y39.3068
G01 X15.1800 Y39.3134
G01 X15.1002 Y39.3722
G01 X15.0154 Y39.4234
G01 X15.0060 Y39.4288
G01 X14.9963 Y39.4336
G01 X14.9066 Y39.4757
G01 X14.8134 Y39.5094
G01 X14.8031 Y39.5128
G01 X14.7070 Y39.5371
G01 X14.6965 Y39.5395
G01 X14.5985 Y39.5543
G01 X14.5878 Y39.5556
G01 X14.5770 Y39.5564
G01 X14.4780 Y39.5610
G01 X14.3790 Y39.5564
G01 X14.3682 Y39.5556
G01 X14.3575 Y39.5543
G01 X14.2595 Y39.5395
G01 X14.1633 Y39.5157
G01 X14.1529 Y39.5128
G01 X14.1426 Y39.5094
G01 X14.0494 Y39.4757
G01 X13.9597 Y39.4336
G01 X13.9500 Y39.4288
G01 X13.9406 Y39.4234
G01 X13.8558 Y39.3722
G01 X13.7760 Y39.3134
G01 X13.7675 Y39.3068
G01 X13.7593 Y39.2997
G01 X13.6860 Y39.2330
G01 X13.6193 Y39.1597
G01 X13.6122 Y39.1515
G01 X13.6056 Y39.1430
G01 X13.5468 Y39.0632
G01 X13.4956 Y38.9784
G01 X13.4902 Y38.9690
G01 X13.4854 Y38.9593
G01 X13.4433 Y38.8696
G01 X13.4096 Y38.7764
G01 X13.4062 Y38.7661
G01 X13.3819 Y38.6700
G01 X13.3795 Y38.6595
G01 X13.3647 Y38.5615
G01 X13.3634 Y38.5508
G01 X13.3626 Y38.5400
G01 X13.3580 Y38.4410
G01 X13.3626 Y38.3420
G01 X13.3634 Y38.3312
G01 X13.3647 Y38.3205
G01 X13.3795 Y38.2225
G01 X13.4033 Y38.1263
G01 X13.4062 Y38.1159
G01 X13.4096 Y38.1056
G01 X13.4433 Y38.0124
G01 X13.4854 Y37.9227
G01 X13.4902 Y37.9130
G01 X13.4956 Y37.9036
G01 X13.5468 Y37.8188
G01 X13.6056 Y37.7390
G01 X13.6122 Y37.7305
G01 X13.6193 Y37.7223
G01 X13.6860 Y37.6490
G01 X13.7593 Y37.5823
G01 X13.7675 Y37.5752
G01 X13.8469 Y37.5160
G01 X13.8558 Y37.5098
G01 X13.9406 Y37.4586
G01 X13.9500 Y37.4532
G01 X13.9597 Y37.4484
G01 X14.0494 Y37.4063
G01 X14.1426 Y37.3726
G01 X14.1529 Y37.3692
G01 X14.2490 Y37.3449
G01 X14.2595 Y37.3425
G01 X14.3575 Y37.3277
G01 X14.3682 Y37.3264
G01 X14.3790 Y37.3256
G01 X14.4780 Y37.3210
G01 X14.5770 Y37.3256
G01 X14.5878 Y37.3264
G01 X14.5985 Y37.3277
G01 X14.6965 Y37.3425
G01 X14.7927 Y37.3663
G01 X14.8031 Y37.3692
G01 X14.8134 Y37.3726
G01 X14.9066 Y37.4063
G01 X14.9963 Y37.4484
G01 X15.0060 Y37.4532
G01 X15.0154 Y37.4586
G01 X15.1002 Y37.5098
G01 X15.1800 Y37.5686
G01 X15.1885 Y37.5752
G01 X15.1967 Y37.5823
G01 X15.2700 Y37.6490
G01 X15.3367 Y37.7223
G01 X15.3438 Y37.7305
G01 X15.3504 Y37.7390
G01 X15.4092 Y37.8188
G01 X15.4604 Y37.9036
G01 X15.4658 Y37.9130
G01 X15.4706 Y37.9227
G01 X15.5127 Y38.0124
G01 X15.5464 Y38.1056
G01 X15.5498 Y38.1159
G01 X15.5741 Y38.2120
G01 X15.5765 Y38.2225
G01 X15.5913 Y38.3205
G00 Z2.0000
G00 X16.5789 Y38.1433
G01 F60.00
G01 Z0.0000
G01 F120.00
G01 X16.5851 Y38.1508
G01 X16.5897 Y38.1595
G01 X16.5925 Y38.1688
G01 X16.5935 Y38.1786
G01 X16.5935 Y62.8700
G01 X16.5933 Y62.8749
G01 X16.5923 Y62.8810
G01 X16.5910 Y62.8857
G01 X16.5887 Y62.8914
G01 X16.5857 Y62.8968
G01 X16.5821 Y62.9017
G01 X16.5788 Y62.9054
G01 X16.5742 Y62.9094
G01 X16.4422 Y62.9977
G01 X16.4368 Y63.0005
G01 X16.4298 Y63.0030
G01 X16.4238 Y63.0043
G01 X16.4165 Y63.0048
G01 X16.4079 Y63.0041
G01 X16.3985 Y63.0014
G01 X16.2327 Y62.9328
G01 X15.9553 Y62.8963
G01 X15.4632 Y62.8963
G01 X15.4559 Y62.8958
G01 X15.4499 Y62.8945
G01 X15.4441 Y62.8925
G01 X15.4386 Y62.8898
G01 X15.4334 Y62.8865
G01 X15.4287 Y62.8825
G01 X15.3069 Y62.7607
G01 X15.1633 Y62.6778
G01 X15.1563 Y62.6729
G01 X15.1519 Y62.6688
G01 X15.1487 Y62.6651
G01 X15.1436 Y62.6568
G01 X15.1416 Y62.6524
G01 X15.1398 Y62.6466
G01 X15.1384 Y62.6369
G01 X15.1384 Y62.5039
G01 X15.1395 Y62.4966
G01 X15.1416 Y62.4896
G01 X15.1453 Y62.4820
G01 X15.1495 Y62.4760
G01 X15.1554 Y62.4699
G01 X15.1623 Y62.4648
G01 X15.3069 Y62.3813
G01 X15.5583 Y62.1299
G01 X15.7360 Y61.8221
G01 X15.8280 Y61.4787
G01 X15.8280 Y61.1233
G01 X15.7360 Y60.7799
G01 X15.5583 Y60.4721
G01 X15.3069 Y60.2207
G01 X15.1633 Y60.1378
G01 X15.1582 Y60.1344
G01 X15.1536 Y60.1305
G01 X15.1503 Y60.1269
G01 X15.1466 Y60.1221
G01 X15.1436 Y60.1168
G01 X15.1416 Y60.1124
G01 X15.1398 Y60.1066
G01 X15.1387 Y60.1006
G01 X15.1383 Y60.0957
G01 X15.1384 Y59.9639
G01 X15.1395 Y59.9566
G01 X15.1416 Y59.9496
G01 X15.1453 Y59.9420
G01 X15.1495 Y59.9360
G01 X15.1554 Y59.9299
G01 X15.1623 Y59.9248
G01 X15.3069 Y59.8413
G01 X15.5583 Y59.5899
G01 X15.7360 Y59.2821
G01 X15.8280 Y58.9387
G01 X15.8280 Y58.5833
G01 X15.7360 Y58.2399
G01 X15.5583 Y57.9321
G01 X15.3069 Y57.6807
G01 X15.1633 Y57.5978
G01 X15.1582 Y57.5944
G01 X15.1536 Y57.5905
G01 X15.1503 Y57.5869
G01 X15.1466 Y57.5821
G01 X15.1436 Y57.5768
G01 X15.1416 Y57.5724
G01 X15.1398 Y57.5666
G01 X15.1387 Y57.5606
G01 X15.1383 Y57.5557
G01 X15.1384 Y57.4239
G01 X15.1395 Y57.4166
G01 X15.1416 Y57.4096
G01 X15.1453 Y57.4020
G01 X15.1495 Y57.3960
G01 X15.1554 Y57.3899
G01 X15.1623 Y57.3848
G01 X15.3069 Y57.3013
G01 X15.5583 Y57.0499
G01 X15.7360 Y56.7421
G01 X15.8280 Y56.3987
G01 X15.8280 Y56.0433
G01 X15.7360 Y55.6999
G01 X15.5583 Y55.3921
G01 X15.3069 Y55.1407
G01 X15.1633 Y55.0578
G01 X15.1582 Y55.0544
G01 X15.1545 Y55.0513
G01 X15.1503 Y55.0469
G01 X15.1473 Y55.0431
G01 X15.1441 Y55.0379
G01 X15.1416 Y55.0324
G01 X15.1398 Y55.0266
G01 X15.1387 Y55.0206
G01 X15.1383 Y55.0157
G01 X15.1384 Y54.8839
G01 X15.1395 Y54.8766
G01 X15.1416 Y54.8696
G01 X15.1453 Y54.8620
G01 X15.1495 Y54.8560
G01 X15.1554 Y54.8499
G01 X15.1623 Y54.8448
G01 X15.3069 Y54.7613
G01 X15.5583 Y54.5099
G01 X15.7360 Y54.2021
G01 X15.8280 Y53.8587
G01 X15.8280 Y53.5033
G01 X15.7360 Y53.1599
G01 X15.5583 Y52.8521
G01 X15.3069 Y52.6007
G01 X15.1633 Y52.5178
G01 X15.1582 Y52.5144
G01 X15.1545 Y52.5113
G01 X15.1503 Y52.5069
G01 X15.1473 Y52.5031
G01 X15.1441 Y52.4979
G01 X15.1416 Y52.4924
G01 X15.1401 Y52.4877
G01 X15.1390 Y52.4830
G01 X15.1384 Y52.4769
G01 X15.1384 Y52.3439
G01 X15.1395 Y52.3366
G01 X15.1416 Y52.3296
G01 X15.1453 Y52.3220
G01 X15.1495 Y52.3160
G01 X15.1554 Y52.3099
G01 X15.1623 Y52.3048
G01 X15.3069 Y52.2213
G01 X15.5583 Y51.9699
G01 X15.7360 Y51.6621
G01 X15.8280 Y51.3187
G01 X15.8280 Y50.9633
G01 X15.7360 Y50.6199
G01 X15.5583 Y50.3121
G01 X15.3069 Y50.0607
G01 X15.1633 Y49.9778
G01 X15.1582 Y49.9744
G01 X15.1536 Y49.9705
G01 X15.1503 Y49.9669
G01 X15.1473 Y49.9631
G01 X15.1441 Y49.9579
G01 X15.1416 Y49.9524
G01 X15.1401 Y49.9477
G01 X15.1390 Y49.9430
G01 X15.1384 Y49.9369
G01 X15.1384 Y49.8039
G01 X15.1395 Y49.7966
G01 X15.1416 Y49.7896
G01 X15.1453 Y49.7820
G01 X15.1495 Y49.7760
G01 X15.1554 Y49.7699
G01 X15.1623 Y49.7648
G01 X15.3069 Y49.6813
G01 X15.5583 Y49.4299
G01 X15.7360 Y49.1221
G01 X15.8280 Y48.7787
G01 X15.8280 Y48.4233
G01 X15.7360 Y48.0799
G01 X15.5583 Y47.7721
G01 X15.3069 Y47.5207
G01 X15.1633 Y47.4378
G01 X15.1582 Y47.4344
G01 X15.1536 Y47.4305
G01 X15.1503 Y47.4269
G01 X15.1473 Y47.4231
G01 X15.1441 Y47.4179
G01 X15.1416 Y47.4124
G01 X15.1401 Y47.4077
G01 X15.1390 Y47.4030
G01 X15.1384 Y47.3969
G01 X15.1384 Y47.2639
G01 X15.1395 Y47.2566
G01 X15.1416 Y47.2496
G01 X15.1453 Y47.2420
G01 X15.1495 Y47.2360
G01 X15.1554 Y47.2299
G01 X15.1623 Y47.2248
G01 X15.3069 Y47.1413
G01 X15.5583 Y46.8899
G01 X15.7360 Y46.5821
G01 X15.8280 Y46.2387
G01 X15.8280 Y45.8833
G01 X15.7360 Y45.5399
G01 X15.5583 Y45.2321
G01 X15.3069 Y44.9807
G01 X15.1592 Y44.8952
G01 X15.1554 Y44.8921
G01 X15.1511 Y44.8879
G01 X15.1473 Y44.8831
G01 X15.1447 Y44.8790
G01 X15.1425 Y44.8746
G01 X15.1404 Y44.8689
G01 X15.1392 Y44.8642
G01 X15.1384 Y44.8581
G01 X15.1384 Y44.7239
G01 X15.1395 Y44.7166
G01 X15.1416 Y44.7096
G01 X15.1453 Y44.7020
G01 X15.1495 Y44.6960
G01 X15.1554 Y44.6899
G01 X15.1623 Y44.6848
G01 X15.3069 Y44.6013
G01 X15.5583 Y44.3499
G01 X15.7360 Y44.0421
G01 X15.8280 Y43.6987
G01 X15.8280 Y43.3433
G01 X15.7360 Y42.9999
G01 X15.5583 Y42.6921
G01 X15.3069 Y42.4407
G01 X15.1592 Y42.3552
G01 X15.1554 Y42.3521
G01 X15.1511 Y42.3479
G01 X15.1453 Y42.3400
G01 X15.1430 Y42.3357
G01 X15.1408 Y42.3301
G01 X15.1392 Y42.3242
G01 X15.1385 Y42.3194
G01 X15.1384 Y42.1839
G01 X15.1395 Y42.1766
G01 X15.1416 Y42.1696
G01 X15.1453 Y42.1620
G01 X15.1495 Y42.1560
G01 X15.1554 Y42.1499
G01 X15.1623 Y42.1448
G01 X15.3069 Y42.0613
G01 X15.5583 Y41.8099
G01 X15.7360 Y41.5021
G01 X15.8280 Y41.1587
G01 X15.8280 Y40.8033
G01 X15.7360 Y40.4599
G01 X15.5583 Y40.1521
G01 X15.3069 Y39.9007
G01 X15.1592 Y39.8152
G01 X15.1554 Y39.8121
G01 X15.1511 Y39.8079
G01 X15.1453 Y39.8000
G01 X15.1412 Y39.7912
G01 X15.1388 Y39.7818
G01 X15.1383 Y39.7745
G01 X15.1384 Y39.6439
G01 X15.1395 Y39.6366
G01 X15.1416 Y39.6296
G01 X15.1453 Y39.6220
G01 X15.1495 Y39.6160
G01 X15.1554 Y39.6099
G01 X15.1623 Y39.6048
G01 X15.3069 Y39.5213
G01 X15.5583 Y39.2699
G01 X15.7360 Y38.9621
G01 X15.8280 Y38.6187
G01 X15.8280 Y38.2633
G01 X15.7360 Y37.9199
G01 X15.5583 Y37.6121
G01 X15.3069 Y37.3607
G01 X15.1920 Y37.2943
G01 X15.1870 Y37.2907
G01 X15.1834 Y37.2873
G01 X15.1794 Y37.2826
G01 X15.1766 Y37.2786
G01 X15.1727 Y37.2709
G01 X15.1699 Y37.2614
G01 X15.1691 Y37.2516
G01 X15.1700 Y37.2430
G01 X15.2051 Y37.1112
G01 X15.2083 Y37.1031
G01 X15.2135 Y37.0948
G01 X15.2176 Y37.0901
G01 X15.2212 Y37.0868
G01 X15.2252 Y37.0838
G01 X15.2305 Y37.0807
G01 X15.2350 Y37.0787
G01 X15.2409 Y37.0768
G01 X15.2469 Y37.0757
G01 X15.2519 Y37.0753
G01 X15.4928 Y37.0754
G01 X15.5013 Y37.0765
G01 X15.5083 Y37.0787
G01 X15.5149 Y37.0818
G01 X15.5211 Y37.0859
G01 X15.5257 Y37.0899
G01 X16.5789 Y38.1433
G00 Z2.0000
G00 X16.6390 Y38.0832
G01 F60.00
G01 Z0.0000
G01 F120.00
G01 X16.6479 Y38.0930
G01 X16.6558 Y38.1036
G01 X16.6626 Y38.1150
G01 X16.6682 Y38.1270
G01 X16.6727 Y38.1394
G01 X16.6759 Y38.1523
G01 X16.6779 Y38.1654
G01 X16.6785 Y38.1786
G01 X16.6785 Y62.8700
G01 X16.6778 Y62.8832
G01 X16.6752 Y62.8996
G01 X16.6706 Y62.9155
G01 X16.6655 Y62.9277
G01 X16.6593 Y62.9394
G01 X16.6499 Y62.9531
G01 X16.6413 Y62.9631
G01 X16.6291 Y62.9744
G01 X16.6185 Y62.9823
G01 X16.4915 Y63.0671
G01 X16.4801 Y63.0739
G01 X16.4651 Y63.0808
G01 X16.4493 Y63.0858
G01 X16.4330 Y63.0888
G01 X16.4165 Y63.0898
G01 X16.4066 Y63.0894
G01 X16.3934 Y63.0878
G01 X16.3805 Y63.0849
G01 X16.3710 Y63.0819
G01 X16.2106 Y63.0156
G01 X15.9498 Y62.9813
G01 X15.4599 Y62.9813
G01 X15.4500 Y62.9806
G01 X15.4401 Y62.9793
G01 X15.4304 Y62.9773
G01 X15.4209 Y62.9745
G01 X15.4085 Y62.9697
G01 X15.3967 Y62.9638
G01 X15.3855 Y62.9567
G01 X15.3750 Y62.9485
G01 X15.3677 Y62.9418
G01 X15.2547 Y62.8287
G01 X15.1180 Y62.7497
G01 X15.1071 Y62.7423
G01 X15.0970 Y62.7339
G01 X15.0878 Y62.7246
G01 X15.0795 Y62.7144
G01 X15.0722 Y62.7034
G01 X15.0661 Y62.6918
G01 X15.0611 Y62.6796
G01 X15.0573 Y62.6671
G01 X15.0547 Y62.6542
G01 X15.0535 Y62.6411
G01 X15.0533 Y62.5075
G01 X15.0543 Y62.4911
G01 X15.0559 Y62.4814
G01 X15.0581 Y62.4718
G01 X15.0634 Y62.4562
G01 X15.0706 Y62.4414
G01 X15.0757 Y62.4330
G01 X15.0814 Y62.4250
G01 X15.0900 Y62.4150
G01 X15.0970 Y62.4081
G01 X15.1045 Y62.4017
G01 X15.1152 Y62.3940
G01 X15.2547 Y62.3133
G01 X15.4903 Y62.0777
G01 X15.6568 Y61.7893
G01 X15.7430 Y61.4675
G01 X15.7430 Y61.1345
G01 X15.6568 Y60.8127
G01 X15.4903 Y60.5243
G01 X15.2547 Y60.2887
G01 X15.1180 Y60.2097
G01 X15.1071 Y60.2023
G01 X15.0946 Y60.1917
G01 X15.0856 Y60.1821
G01 X15.0776 Y60.1717
G01 X15.0706 Y60.1606
G01 X15.0647 Y60.1488
G01 X15.0600 Y60.1365
G01 X15.0565 Y60.1239
G01 X15.0543 Y60.1109
G01 X15.0533 Y60.0978
G01 X15.0533 Y59.9675
G01 X15.0543 Y59.9511
G01 X15.0573 Y59.9349
G01 X15.0600 Y59.9255
G01 X15.0634 Y59.9162
G01 X15.0706 Y59.9014
G01 X15.0757 Y59.8930
G01 X15.0814 Y59.8850
G01 X15.0900 Y59.8750
G01 X15.0970 Y59.8681
G01 X15.1071 Y59.8597
G01 X15.1152 Y59.8540
G01 X15.2547 Y59.7733
G01 X15.4903 Y59.5377
G01 X15.6568 Y59.2493
G01 X15.7430 Y58.9275
G01 X15.7430 Y58.5945
